x = 65676, y = 65520, rule = B3/S23
65466b2o$65466bobo$65468bo4b2o$65464b4ob2o2bo2bo$65464bo2bobobobob2o$
65452bo14bobobobo$65450b3o15b2obobo$65449bo22bo$65439b2o8b2o$65440bo
17b2o$65408b2o11bo18bobo16bo7b2o$65408b2o10bobo18b2o16bobo5b2o$65420bo
bo32b2o3b2o$65419b2ob3o2b2o26b2o$65425bo2bo$65419b2ob3o3bobo$65419b2ob
o6b2o$65455b2o$65455b2o$65470b2o$65470bo$65471b3o$65473bo$65416b2o13b
2o$65416b2o13b2o$65401b2o$65400bo2bo$65399bob2o$65399bo$65398b2o$
65413b2o$65413bo$65414b3o$65417bo$65416b2o52b2o$65470bobo$65472bo4b2o$
65437b2o29b4ob2o2bo2bo$65438bo29bo2bobobobob2o$65438bobo30bobobobo$
65439b2o31b2obobo$65476bo2$65453b2o7b2o$65453bobo7bo7b2o$65455bo7bobo
5b2o$65446b2o7b2o7b2o$65446b2o44bo$65490b3o$65489bo$65489b2o3$65474b2o
21b2o$65474bo23bo$65475b3o20bob2o$65477bo12b2o4b3o2bo$65490b2o3bo3b2o$
65495b4o$65481b2o15bo$65480bobo12b3o$65480bo13bo$65479b2o14b5o$65499bo
$65497bo$65497b2o3$65466bo$65464b3o$65463bo$65463b2o2$65276b2o$65276bo
186bo$65277b3o161b2o19bobo$65279bo161b2o20b2o3$65440b2o$65441bo$65271b
2o165b3o$65270bo2bo164bo$65271b2o182b2o$65455bo$65456b3o$65458bo59$
65290bo$65290b2o$65289bobo13$65379bo$65377b3o$65376bo$65376b2o8$65401b
2o$65368b2o30bo2bo$65262b3o102bobo31b2o$65264bo102bo$65263bo102b2o20$
65240b2o$65239bobo$65241bo14$65674b2o$65674b2o6$65217bo$65217b2o$
65216bobo21$65194b2o$65193bobo$65195bo21$65171b3o$65173bo$65172bo19$
65263bo$65262bo$65148bo113b3o$65148b2o$65147bobo21$65125b2o$65124bobo$
65126bo10$65226bo$65226bobo$65226b2o9$65102b2o$65103b2o$65102bo9$
65204bo$65203bo$65203b3o21$65068bo$65068b2o$65067bobo9$65170bo$65169bo
$65169b3o27$65028b3o$65030bo$65029bo4$65135bobo$65135b2o$65136bo16$
65004b3o$65006bo$65005bo11$65104bo$65103bo$65103b3o7$64982b2o$64981bob
o$64983bo28$64952b2o111bo$64951bobo110bo$64953bo110b3o21$64929b2o$
64930b2o$64929bo7$65033bo$65032bo$65032b3o13$64905b2o$64904bobo$64906b
o19$64997bo$64997bobo$64997b2o4$64878b2o$64879b2o$64878bo16$64973bo$
64972bo$64972b3o2$64856bo$64856b2o$64855bobo21$64833b2o$64834b2o$
64833bo8$64937bo$64935b2o$64936b2o11$64810b2o$64809bobo$64811bo15$
64907bo$64905b2o$64906b2o22$64883bo$64881b2o$64882b2o4$64763b2o$64762b
obo$64764bo24$64850bo$64736bo112bo$64736b2o111b3o$64735bobo21$64713b2o
111bo$64714b2o110bobo$64713bo112b2o21$64690b2o$64689bobo$64691bo$
64800bobo$64800b2o$64801bo18$64667b2o$64668b2o$64667bo9$64769bo$64768b
o$64768b3o9$64645bo$64645b2o$64644bobo22$64621b2o111bo$64620bobo111bob
o$64622bo111b2o21$64598b2o$64599b2o$64598bo8$64701bobo$64701b2o$64702b
o11$64575b3o$64577bo$64576bo9$64678bo$64676b2o$64677b2o21$64541b2o$
64540bobo111bo$64542bo109b2o$64653b2o24$64628bo$64626b2o$64627b2o10$
64502bo$64502b2o$64501bobo11$64602bo$64601bo$64601b3o9$64478bo$64478b
2o$64477bobo21$64455b2o$64456b2o$64455bo2$64564bo$64563bo$64563b3o24$
64425b2o$64426b2o$64425bo7$64529bo$64529bobo$64529b2o12$64402b3o$
64404bo$64403bo8$64505bo$64505bobo$64505b2o12$64378b2o$64379b2o$64378b
o20$64469bo$64468bo$64468b3o3$64351b3o$64353bo$64352bo20$64329b2o$
64328bobo$64330bo21$64306b3o$64308bo$64307bo$64416bo$64415bo$64415b3o
18$64283b2o$64284b2o$64283bo9$64385bo$64385bobo$64385b2o27$64356bo$
64356bobo$64356b2o5$64236b2o$64237b2o$64236bo25$64209b2o$64208bobo$
64210bo7$64313bo$64313bobo$64313b2o12$64186b3o$64188bo$64187bo9$64288b
obo$64288b2o$64289bo10$64163b2o$64164b2o$64163bo11$64263bobo$64263b2o$
64264bo8$64140b3o$64142bo$64141bo20$64118b2o$64117bobo$64119bo22$
64094b2o$64095b2o$64094bo$64205bo$64203b2o$64204b2o18$64071b3o$64073bo
$64072bo17$64166bo$64164b2o$64165b2o$64049bo$64049b2o$64048bobo33$
64014b2o$64015b2o$64014bo4$64121bo$64121bobo$64121b2o23$64097bo$64095b
2o$64096b2o6$63975b2o$63974bobo$63976bo15$64071bobo$64071b2o$64072bo5$
63951b2o$63950bobo$63952bo15$64048bo$64046b2o$64047b2o4$63928b3o$
63930bo$63929bo18$64021bobo$64021b2o$64022bo8$63898b3o$63900bo$63899bo
12$63997bobo$63997b2o$63998bo6$63876bo$63876b2o$63875bobo12$63975bo$
63974bo$63974b3o9$63851b3o$63853bo$63852bo10$63953bo$63951b2o$63952b2o
12$63825bo$63825b2o$63824bobo13$63923bo$63923bobo$63923b2o6$63802b2o$
63803b2o$63802bo14$63899bo$63898bo$63898b3o4$63780bo$63780b2o$63779bob
o20$63872bo$63870b2o$63756b3o112b2o$63758bo$63757bo30$63837bobo$63837b
2o$63838bo13$63709b3o$63711bo$63710bo6$63814bo$63813bo$63813b3o17$
63682b2o$63683b2o$63682bo7$63786bo$63786bobo$63786b2o11$63660bo$63660b
2o$63659bobo9$63762bobo$63762b2o$63763bo11$63636b3o$63638bo$63637bo9$
63738bobo$63738b2o$63739bo9$63614bo$63614b2o$63613bobo10$63716bo$
63714b2o$63715b2o9$63591b2o$63592b2o$63591bo12$63690bo$63689bo$63689b
3o8$63567b3o$63569bo$63568bo13$63665bo$63664bo$63664b3o5$63545bo$
63545b2o$63544bobo21$63522b2o$63521bobo$63523bo15$63618bo$63618bobo$
63618b2o16$63487b3o$63489bo$63488bo15$63584bo$63582b2o$63583b2o20$
63448b2o$63449b2o$63448bo110bo$63558bo$63558b3o20$63424b2o$63425b2o$
63424bo19$63516bobo$63402bo113b2o$63402b2o113bo$63401bobo28$63372bo$
63372b2o$63371bobo5$63478bobo$63478b2o$63479bo14$63349b2o$63348bobo$
63350bo9$63451bo$63450bo$63450b3o11$63325bo$63325b2o$63324bobo25$
63298b2o$63297bobo$63299bo$63408bo$63408bobo$63408b2o18$63275b3o$
63277bo$63276bo3$63383bo$63383bobo$63383b2o15$63253b2o$63252bobo$
63254bo5$63359bo$63358bo$63358b3o14$63230bo$63230b2o$63229bobo34$
63307bo$63307bobo$63307b2o9$63183bo$63183b2o$63182bobo12$63283bo$
63281b2o$63282b2o12$63155b3o$63157bo$63156bo10$63256bobo$63256b2o$
63257bo8$63133b2o$63132bobo$63134bo11$63233bo$63232bo$63232b3o8$63110b
o$63110b2o$63109bobo12$63209bo$63209bobo$63209b2o7$63087b2o$63086bobo$
63088bo21$63064b3o$63066bo$63065bo8$63167bo$63166bo$63166b3o11$63041bo
$63041b2o$63040bobo9$63143bo$63142bo$63142b3o10$63018b2o$63017bobo$
63019bo11$63118bo$63117bo$63117b3o8$62995b2o$62996b2o$62995bo16$63090b
obo$63090b2o$63091bo14$62961bo$62961b2o$62960bobo6$63067bo$63065b2o$
63066b2o24$63040bo$63039bo$63039b3o4$62921b3o$62923bo$62922bo22$62897b
3o$62899bo$62898bo20$62875b2o$62874bobo$62876bo9$62977bo$62977bobo$
62977b2o17$62845b2o$62844bobo$62846bo6$62950bo$62950bobo$62950b2o13$
62822b2o$62823b2o$62822bo15$62918bo$62918bobo$62918b2o5$62798b2o$
62797bobo$62799bo15$62894bobo$62894b2o$62895bo8$62771b2o$62772b2o$
62771bo16$62866bo$62866bobo$62866b2o2$62749bo$62749b2o$62748bobo18$
62842bo$62841bo$62841b3o$62726b2o$62727b2o$62726bo21$62703b2o$62702bob
o$62704bo109bobo$62814b2o$62815bo24$62789bo$62787b2o$62788b2o17$62656b
2o$62655bobo$62657bo14$62753bo$62752bo$62752b3o9$62629bo$62629b2o$
62628bobo11$62729bobo$62729b2o$62730bo8$62606b2o$62607b2o$62606bo21$
62583b2o$62582bobo$62584bo10$62684bo$62684bobo$62684b2o9$62560b2o$
62561b2o$62560bo20$62538bo$62538b2o$62537bobo22$62514b2o$62513bobo$
62515bo3$62623bo$62621b2o$62622b2o16$62491b2o$62492b2o$62491bo7$62595b
o$62595bobo$62595b2o12$62468b3o$62470bo$62469bo18$62561bo$62561bobo$
62561b2o12$62434b2o$62433bobo$62435bo7$62538bo$62538bobo$62538b2o21$
62515bobo$62515b2o$62516bo5$62395bo$62395b2o$62394bobo22$62371bo$
62371b2o110bo$62370bobo110bobo$62483b2o20$62348b2o$62349b2o$62348bo13$
62446bo$62446bobo$62446b2o13$62318b2o$62319b2o$62318bo8$62421bo$62420b
o$62420b3o11$62295b3o$62297bo$62296bo16$62390bo$62389bo$62389b3o4$
62271b2o$62272b2o$62271bo17$62365bo$62365bobo$62365b2o6$62244b3o$
62246bo$62245bo18$62337bo$62336bo$62222b2o112b3o$62221bobo$62223bo21$
62199b3o$62201bo$62200bo9$62301bobo$62301b2o$62302bo10$62176b2o$62177b
2o$62176bo9$62278bo$62277bo$62277b3o32$62245bo$62243b2o$62129b2o113b2o
$62130b2o$62129bo21$62219bobo$62219b2o$62220bo2$62102b2o$62101bobo$
62103bo21$62079b3o$62081bo$62080bo2$62189bo$62187b2o$62188b2o17$62056b
2o$62057b2o$62056bo6$62161bo$62160bo$62160b3o13$62033b3o$62035bo$
62034bo15$62130bo$62128b2o$62129b2o3$62011b2o$62010bobo$62012bo22$
61987b2o111bobo$61988b2o110b2o$61987bo113bo21$61964b3o110bobo$61966bo
110b2o$61965bo112bo20$61942bo$61942b2o$61941bobo109bobo$62053b2o$
62054bo26$62026bo$62024b2o$62025b2o3$61907b2o$61908b2o$61907bo16$
62002bobo$62002b2o$62003bo19$61868b2o$61867bobo$61869bo17$61963bo$
61961b2o$61962b2o3$61844b2o$61843bobo$61845bo21$61821b3o$61823bo$
61822bo$61931bobo$61931b2o$61932bo24$61905bo$61791b3o110bo$61793bo110b
3o$61792bo20$61769bo$61769b2o$61768bobo23$61744b3o$61746bo$61745bo109b
o$61855bobo$61855b2o22$61718bo112bobo$61718b2o111b2o$61717bobo112bo21$
61695b2o$61696b2o$61695bo111bo$61805b2o$61806b2o18$61673bo$61673b2o$
61672bobo$61783bobo$61783b2o$61784bo19$61649b3o$61651bo$61650bo4$
61756bo$61755bo$61755b3o21$61734bo$61732b2o$61733b2o16$61602b3o$61604b
o$61603bo11$61702bo$61702bobo$61702b2o12$61575b2o$61576b2o$61575bo7$
61679bobo$61679b2o$61680bo11$61553bo$61553b2o$61552bobo9$61655bobo$
61655b2o$61656bo11$61529b3o$61531bo$61530bo20$61507bo112bo$61507b2o
111bobo$61506bobo111b2o21$61484b2o$61485b2o$61484bo3$61593bo$61591b2o$
61592b2o17$61460b3o$61462bo$61461bo13$61558bobo$61558b2o$61559bo5$
61438bo$61438b2o$61437bobo21$61415b2o$61414bobo$61416bo5$61521bo$
61520bo$61520b3o24$61495bobo$61495b2o$61380b3o113bo$61382bo$61381bo18$
61474bo$61472b2o$61473b2o17$61341b2o$61342b2o$61341bo6$61446bobo$
61446b2o$61447bo14$61317b2o$61318b2o$61317bo11$61418bo$61416b2o$61417b
2o7$61295bo$61295b2o$61294bobo25$61381bo$61380bo$61380b3o$61265bo$
61265b2o$61264bobo19$61357bobo$61357b2o$61242b2o114bo$61241bobo$61243b
o21$61332bobo$61218bo113b2o$61218b2o113bo$61217bobo24$61305bobo$61191b
2o112b2o$61190bobo113bo$61192bo21$61168b3o$61170bo$61169bo20$61146b2o$
61145bobo$61147bo10$61247bobo$61247b2o$61248bo9$61123bo$61123b2o$
61122bobo10$61224bo$61224bobo$61224b2o25$61197bo$61196bo$61196b3o6$
61076bo$61076b2o$61075bobo17$61170bobo$61170b2o$61171bo7$61048b3o$
61050bo$61049bo11$61149bo$61147b2o$61148b2o7$61026b2o$61025bobo$61027b
o21$61003bo$61003b2o$61002bobo17$61097bo$61096bo$61096b3o2$60980b2o$
60979bobo$60981bo21$60957b3o$60959bo109bobo$60958bo110b2o$61070bo20$
60934bo113bo$60934b2o110b2o$60933bobo111b2o21$60911b2o$60910bobo$
60912bo5$61017bo$61016bo$61016b3o14$60888b2o$60889b2o$60888bo13$60986b
o$60986bobo$60986b2o17$60854bo$60854b2o$60853bobo5$60960bobo$60960b2o$
60961bo23$60935bobo$60935b2o$60936bo6$60814b3o$60816bo$60815bo19$
60906bo$60906bobo$60906b2o$60790b3o$60792bo$60791bo18$60883bobo$60883b
2o$60768b2o114bo$60767bobo$60769bo19$60861bo$60859b2o$60860b2o7$60738b
2o$60737bobo$60739bo21$60715b2o$60716b2o$60715bo14$60812bo$60811bo$
60811b3o6$60691b2o$60690bobo$60692bo13$60790bo$60788b2o$60789b2o10$
60664b2o$60665b2o$60664bo15$60761bo$60759b2o$60760b2o3$60642bo$60642b
2o$60641bobo17$60736bo$60735bo$60735b3o2$60619b2o$60620b2o$60619bo18$
60712bo$60711bo$60711b3o$60596b2o$60595bobo$60597bo20$60688bo$60686b2o
$60687b2o21$60664bobo$60664b2o$60549b2o114bo$60548bobo$60550bo19$
60641bobo$60641b2o$60642bo9$60517b3o$60519bo$60518bo17$60611bo$60611bo
bo$60611b2o4$60492b2o$60491bobo$60493bo15$60588bo$60588bobo$60588b2o6$
60467b2o$60466bobo$60468bo16$60563bo$60561b2o$60562b2o29$60418b2o$
60419b2o$60418bo5$60524bo$60523bo$60523b3o13$60396bo$60396b2o$60395bob
o9$60498bo$60498bobo$60498b2o10$60373b2o$60372bobo$60374bo12$60473bo$
60471b2o$60472b2o8$60349b2o$60350b2o$60349bo13$60448bo$60446b2o$60447b
2o7$60325bo$60325b2o$60324bobo12$60424bo$60423bo$60423b3o11$60298b3o$
60300bo$60299bo10$60400bo$60398b2o$60399b2o8$60276b2o$60275bobo$60277b
o12$60375bobo$60375b2o$60376bo9$60251bo$60251b2o$60250bobo9$60354bo$
60352b2o$60353b2o23$60215b3o$60217bo$60216bo8$60319bo$60317b2o$60318b
2o11$60192b2o$60191bobo$60193bo31$60272bo$60272bobo$60272b2o5$60152b2o
$60153b2o$60152bo14$60249bobo$60249b2o$60250bo5$60129b2o$60130b2o$
60129bo32$60208bo$60207bo$60093bo113b3o$60093b2o$60092bobo22$60182bobo
$60068b2o112b2o$60067bobo113bo$60069bo21$60045b3o$60047bo109bobo$
60046bo110b2o$60158bo32$60124bo$60122b2o$60123b2o$60007b3o$60009bo$
60008bo19$60099bo$60098bo$60098b3o11$59973bo$59973b2o$59972bobo22$
60062bobo$60062b2o$60063bo10$59937bo$59937b2o$59936bobo13$60035bobo$
60035b2o$60036bo6$59914bo$59914b2o$59913bobo15$60010bobo$60010b2o$
60011bo22$59873b3o$59875bo$59874bo10$59975bo$59973b2o$59974b2o18$
59841bo$59841b2o$59840bobo18$59934bo$59933bo$59933b3o7$59812bo$59812b
2o$59811bobo12$59912bo$59910b2o$59911b2o10$59786b3o$59788bo$59787bo19$
59879bo$59877b2o$59878b2o5$59758b2o$59757bobo$59759bo16$59853bo$59853b
obo$59853b2o8$59730b2o$59731b2o$59730bo26$59702b2o$59703b2o$59702bo9$
59805bo$59803b2o$59804b2o10$59679b2o$59678bobo$59680bo9$59781bobo$
59781b2o$59782bo19$59647b2o$59648b2o$59647bo10$59749bo$59747b2o$59748b
2o10$59623bo$59623b2o$59622bobo19$59716bo$59714b2o$59715b2o3$59597b2o$
59598b2o$59597bo26$59569bo112bobo$59569b2o111b2o$59568bobo112bo25$
59542b2o$59541bobo$59543bo8$59646bo$59644b2o$59645b2o27$59503bo$59503b
2o$59502bobo$59614bo$59612b2o$59613b2o18$59480b2o$59481b2o$59480bo5$
59586bobo$59586b2o$59587bo13$59458bo$59458b2o$59457bobo14$59555bobo$
59555b2o$59556bo5$59435b2o$59436b2o$59435bo21$59412b3o$59414bo110bo$
59413bo109b2o$59524b2o19$59390bo$59390b2o$59389bobo4$59497bobo$59497b
2o$59498bo23$59473bo$59471b2o$59472b2o28$59329b2o111bo$59328bobo111bob
o$59330bo111b2o25$59415bo$59301bo113bobo$59301b2o112b2o$59300bobo33$
59266b2o$59265bobo111bo$59267bo109b2o$59378b2o24$59239b2o111bo$59238bo
bo110bo$59240bo110b3o21$59329bo$59215b2o111bo$59216b2o110b3o$59215bo
27$59299bo$59298bo$59298b3o$59183b3o$59185bo$59184bo18$59277bo$59275b
2o$59276b2o8$59153b2o$59154b2o$59153bo17$59247bo$59246bo$59246b3o4$
59128b3o$59130bo$59129bo29$59211bo$59209b2o$59210b2o26$59182bobo$
59182b2o$59183bo3$59064b2o$59065b2o$59064bo23$59153bo$59151b2o$59152b
2o9$59028b2o$59029b2o$59028bo10$59129bo$59129bobo$59129b2o9$59005bo$
59005b2o$59004bobo16$59101bo$59099b2o$59100b2o22$59077bo$59075b2o$
59076b2o11$58950b2o$58951b2o$58950bo9$59052bo$59052bobo$59052b2o24$
58913b2o111bo$58914b2o109bo$58913bo111b3o24$59001bo$58999b2o$59000b2o
28$58857bo$58857b2o$58856bobo16$58952bobo$58952b2o$58953bo8$58829b2o$
58828bobo$58830bo11$58929bo$58929bobo$58929b2o15$58799b2o$58800b2o$
58799bo4$58906bobo$58906b2o$58907bo17$58774b2o$58775b2o$58774bo22$
58750b3o$58752bo$58751bo110bo$58860b2o$58861b2o18$58728bo$58728b2o$
58727bobo2$58837bobo$58837b2o$58838bo27$58808bobo$58808b2o$58693b2o
114bo$58694b2o$58693bo48$58643b2o$58642bobo111bo$58644bo109b2o$58755b
2o26$58727bo$58727bobo$58727b2o24$58588bo$58588b2o$58587bobo6$58693bob
o$58693b2o$58694bo41$58651bo$58649b2o$58650b2o$58534bo$58534b2o$58533b
obo33$58499b2o$58500b2o$58499bo11$58599bobo$58599b2o$58600bo16$58468b
2o$58467bobo$58469bo6$58573bobo$58573b2o$58574bo13$58445b2o$58446b2o$
58445bo7$58549bo$58548bo$58548b3o26$58522bo$58520b2o$58521b2o24$58382b
2o$58383b2o$58382bo110bo$58493bobo$58493b2o19$58359b2o$58358bobo110bo$
58360bo109bo$58470b3o21$58449bo$58447b2o$58448b2o17$58316bo$58316b2o$
58315bobo34$58393bobo$58393b2o$58394bo25$58366bobo$58366b2o$58367bo22$
58342bobo$58342b2o$58343bo6$58221bo$58221b2o$58220bobo21$58198bo$
58198b2o$58197bobo12$58297bobo$58297b2o$58298bo25$58157b2o$58156bobo$
58158bo2$58266bobo$58266b2o$58267bo42$58222bobo$58222b2o$58223bo8$
58099bo$58099b2o$58098bobo21$58076bo112bo$58076b2o110bo$58075bobo110b
3o28$58159bo$58159bobo$58159b2o9$58035b2o$58034bobo$58036bo13$58133bob
o$58133b2o$58134bo29$58102bo$58101bo$58101b3o8$57979bo$57979b2o$57978b
obo21$57956bo$57956b2o$57955bobo2$58065bo$58065bobo$58065b2o21$58042bo
bo$58042b2o$58043bo12$57915b2o$57914bobo$57916bo6$58021bo$58019b2o$
58020b2o27$57991bo$57991bobo$57991b2o24$57852b2o$57853b2o$57852bo12$
57951bo$57950bo$57950b3o27$57922bobo$57922b2o$57923bo$57806b2o$57805bo
bo$57807bo22$57896bo$57894b2o$57895b2o6$57774bo$57774b2o$57773bobo20$
57866bo$57864b2o$57865b2o30$57834bo$57719bo112b2o$57719b2o112b2o$
57718bobo24$57693b3o$57695bo$57694bo3$57802bo$57800b2o$57801b2o37$
57649bo$57649b2o$57648bobo10$57750bobo$57750b2o$57751bo26$57723bo$
57721b2o$57722b2o30$57691bo$57689b2o$57690b2o16$57559bo$57559b2o$
57558bobo17$57653bo$57652bo$57652b3o2$57536bo$57536b2o$57535bobo33$
57614bo$57614bobo$57614b2o4$57495b2o$57494bobo$57496bo21$57585bo$
57585bobo$57585b2o21$57562bobo$57562b2o$57563bo4$57443bo$57443b2o$
57442bobo19$57535bobo$57535b2o$57420bo115bo$57420b2o$57419bobo28$
57503bo$57503bobo$57503b2o9$57379b2o$57378bobo$57380bo24$57466bobo$
57466b2o$57467bo35$57429bo$57315bo112bo$57315b2o111b3o$57314bobo21$
57292bo$57292b2o$57291bobo9$57394bo$57394bobo$57394b2o21$57371bo$
57371bobo$57371b2o5$57251b2o$57250bobo$57252bo15$57347bo$57347bobo$
57347b2o23$57323bo$57321b2o$57322b2o4$57203bo$57203b2o$57202bobo21$
57180bo$57180b2o110bobo$57179bobo110b2o$57293bo23$57268bo$57266b2o$
57267b2o6$57146b2o$57147b2o$57146bo16$57241bo$57240bo$57240b3o5$57121b
o$57121b2o$57120bobo14$57219bo$57217b2o$57218b2o5$57098bo$57098b2o$
57097bobo20$57189bo$57189bobo$57189b2o17$57057b2o$57056bobo$57058bo6$
57162bobo$57162b2o$57163bo24$57136bo$57136bobo$57136b2o21$57114bo$
56999bo112b2o$56999b2o112b2o$56998bobo21$56976bo$56976b2o$56975bobo8$
57079bo$57079bobo$57079b2o29$56935b2o$56934bobo$56936bo27$57019bo$
57019bobo$57019b2o21$56883bo$56883b2o$56882bobo11$56983bo$56982bo$
56982b3o8$56860bo$56860b2o$56859bobo11$56961bo$56959b2o$56960b2o21$
56937bobo$56937b2o$56938bo3$56819b2o$56818bobo$56820bo17$56913bobo$
56913b2o$56914bo20$56892bo$56890b2o$56891b2o21$56868bo$56868bobo$
56868b2o5$56748b2o$56749b2o$56748bo14$56845bo$56844bo$56844b3o21$
56823bo$56821b2o$56822b2o5$56702b2o$56701bobo$56703bo18$56795bo$56794b
o$56794b3o10$56670bo$56670b2o$56669bobo9$56772bo$56772bobo$56772b2o23$
56634b2o$56635b2o$56634bo5$56741bo$56739b2o$56740b2o37$56588b2o$56587b
obo$56589bo109bo$56698bo$56698b3o21$56676bo$56676bobo$56676b2o5$56556b
o$56556b2o$56555bobo14$56653bobo$56653b2o$56654bo19$56519bo$56519b2o
111bo$56518bobo109b2o$56631b2o20$56496bo$56496b2o$56495bobo13$56594bo$
56594bobo$56594b2o21$56571bobo$56571b2o$56572bo14$56442b3o$56444bo$
56443bo5$56548bobo$56548b2o$56549bo20$56527bo$56525b2o$56526b2o2$
56409bo$56409b2o$56408bobo17$56503bobo$56503b2o$56504bo6$56382b2o$
56383b2o$56382bo12$56481bo$56480bo$56480b3o33$56446bo$56446bobo$56446b
2o2$56329b3o$56331bo$56330bo16$56424bo$56423bo$56423b3o25$56284bo$
56284b2o$56283bobo11$56384bobo$56384b2o$56385bo20$56249bo113bo$56249b
2o110b2o$56248bobo111b2o21$56226bo$56226b2o$56225bobo32$56192b2o$
56193b2o$56192bo49$56141bo$56141b2o$56140bobo15$56237bo$56237bobo$
56237b2o7$56115b3o$56117bo$56116bo28$56199bo$56197b2o$56198b2o12$
56071bo$56071b2o$56070bobo7$56175bo$56175bobo$56175b2o21$56152bobo$
56152b2o$56153bo20$56131bo$56129b2o$56130b2o24$56104bo$56104bobo$
56104b2o10$55979bo$55979b2o$55978bobo8$56082bo$56081bo$56081b3o11$
55956bo$55956b2o$55955bobo8$56059bo$56059bobo$56059b2o21$56036bo$
56036bobo$56036b2o19$55902b3o$55904bo$55903bo13$56000bo$55999bo$55999b
3o16$55869bo$55869b2o$55868bobo3$55977bo$55977bobo$55977b2o18$55844b2o
$55845b2o$55844bo110bo$55954bo$55954b3o23$55930bo$55929bo$55929b3o17$
55798b2o$55797bobo$55799bo2$55907bo$55907bobo$55907b2o20$55885bo$
55884bo$55884b3o4$55766bo$55766b2o$55765bobo15$55863bo$55861b2o$55862b
2o21$55839bo$55839bobo$55839b2o7$55717bo$55717b2o$55716bobo12$55817bo$
55815b2o$55816b2o7$55694bo$55694b2o$55693bobo12$55793bobo$55793b2o$
55794bo25$55653b2o111bo$55652bobo111bobo$55654bo111b2o20$55744bo$
55743bo$55743b3o23$55720bo$55718b2o$55719b2o11$55593bo$55593b2o$55592b
obo8$55696bobo$55696b2o$55697bo11$55570bo$55570b2o$55569bobo12$55669bo
bo$55669b2o$55670bo20$55648bo$55646b2o$55647b2o3$55529b2o$55528bobo$
55530bo16$55624bobo$55624b2o$55625bo20$55602bo$55601bo$55601b3o3$
55484b2o$55485b2o$55484bo16$55579bo$55579bobo$55579b2o20$55557bo$
55556bo$55556b3o4$55438b2o$55437bobo$55439bo15$55534bo$55534bobo$
55534b2o13$55406bo$55406b2o$55405bobo14$55504bo$55502b2o$55503b2o30$
55358b2o$55359b2o$55358bo10$55460bo$55458b2o$55459b2o21$55436bo$55436b
obo$55436b2o9$55312b2o$55311bobo$55313bo25$55398bo$55398bobo$55398b2o
3$55280bo$55280b2o$55279bobo15$55376bo$55375bo$55375b3o27$55234b2o$
55235b2o$55234bo$55344bo$55344bobo$55344b2o30$55312bo$55312bobo$55312b
2o16$55181b3o$55183bo$55182bo3$55289bobo$55289b2o$55290bo20$55267bo$
55266bo$55266b3o16$55136bo$55136b2o$55135bobo4$55243bo$55243bobo$
55243b2o21$55220bobo$55220b2o$55221bo3$55102b2o$55103b2o$55102bo20$
55193bo$55193bobo$55193b2o20$55171bo$55170bo$55170b3o7$55049b3o$55051b
o$55050bo22$55138bobo$55138b2o$55139bo19$55004bo$55004b2o$55003bobo18$
55097bo$55097bobo$55097b2o3$54979bo$54979b2o$54978bobo15$55075bo$
55074bo$55074b3o7$54953b3o$54955bo$54954bo12$55053bo$55051b2o$55052b2o
21$55029bobo$55029b2o$55030bo5$54909bo$54909b2o$54908bobo27$54993bo$
54992bo$54992b3o21$54971bo$54969b2o$54970b2o21$54948bo$54946b2o$54947b
2o15$54817bo$54817b2o$54816bobo4$54924bobo$54924b2o$54925bo15$54794bo$
54794b2o$54793bobo3$54903bo$54901b2o$54902b2o21$54879bo$54879bobo$
54879b2o4$54760b2o$54761b2o$54760bo26$54845bo$54844bo$54844b3o6$54724b
2o$54725b2o$54724bo13$54822bo$54822bobo$54822b2o36$54671b3o$54673bo
110bo$54672bo109b2o$54783b2o21$54760bobo$54760b2o$54761bo19$54626bo$
54626b2o$54625bobo36$54588b2o$54589b2o$54588bo44$54542b2o$54541bobo$
54543bo30$54510bo$54510b2o$54509bobo29$54479bo$54479b2o$54478bobo21$
54456bo$54456b2o$54455bobo39$54415b2o$54414bobo$54416bo56$54357bo$
54357b2o$54356bobo21$54334bo$54334b2o$54333bobo39$54293b2o$54292bobo$
54294bo10$54394bo$54393bo$54393b3o38$54354bobo$54354b2o$54355bo2$
54237bo$54237b2o$54236bobo16$54332bo$54331bo$54331b3o3$54214bo$54214b
2o$54213bobo16$54310bo$54308b2o$54309b2o14$54180b2o$54181b2o$54180bo5$
54286bobo$54286b2o$54287bo18$54153bo$54153b2o$54152bobo3$54261bo$
54260bo$54260b3o16$54130bo$54130b2o$54129bobo3$54238bo$54238bobo$
54238b2o20$54216bo$54215bo$54215b3o12$54089b2o$54088bobo$54090bo7$
54193bo$54192bo$54192b3o35$54156bo$54156bobo$54156b2o12$54029bo$54029b
2o$54028bobo6$54134bo$54133bo$54133b3o13$54006bo$54006b2o$54005bobo6$
54111bo$54111bobo$54111b2o23$54086bo$53972b2o112bobo$53973b2o111b2o$
53972bo19$54064bo$54063bo$54063b3o2$53947bo$53947b2o$53946bobo17$
54041bo$54041bobo$54041b2o2$53924bo$53924b2o$53923bobo17$54018bobo$
54018b2o$54019bo13$53890b2o$53891b2o$53890bo5$53996bo$53995bo$53995b3o
22$53972bobo$53972b2o$53973bo20$53951bo$53949b2o$53950b2o25$53923bo$
53922bo$53922b3o21$53900bo$53900bobo$53900b2o30$53869bo$53867b2o$
53868b2o25$53842bo$53840b2o$53841b2o21$53819bo$53817b2o$53818b2o21$
53795bo$53795bobo$53795b2o27$53766bo$53765bo$53765b3o26$53739bo$53737b
2o$53738b2o34$53589b2o$53590b2o$53589bo20$53680bo$53680bobo$53680b2o
27$53651bobo$53651b2o$53652bo10$53526b2o$53527b2o$53526bo9$53629bo$
53627b2o$53628b2o10$53503b2o$53502bobo$53504bo12$53602bobo$53602b2o$
53603bo21$53580bo$53578b2o$53579b2o4$53460bo$53460b2o$53459bobo20$
53552bo$53550b2o$53551b2o23$53526bo$53526bobo$53526b2o22$53502bo$
53502bobo$53502b2o22$53365bo$53365b2o$53364bobo4$53473bo$53471b2o$
53472b2o15$53342bo$53342b2o$53341bobo11$53442bo$53441bo$53441b3o24$
53416bo$53415bo$53301b2o112b3o$53300bobo$53302bo19$53393bo$53393bobo$
53393b2o21$53370bobo$53370b2o$53371bo6$53249bo$53249b2o$53248bobo12$
53349bo$53347b2o$53348b2o7$53226bo$53226b2o$53225bobo13$53324bobo$
53324b2o$53325bo22$53300bobo$53300b2o$53185b2o114bo$53184bobo$53186bo
20$53276bobo$53276b2o$53277bo22$53252bobo$53252b2o$53253bo22$53228bobo
$53114b2o112b2o$53115b2o112bo$53114bo21$53204bobo$53204b2o$53205bo21$
53068b2o$53067bobo110bobo$53069bo110b2o$53181bo22$53156bobo$53156b2o$
53157bo5$53036bo$53036b2o$53035bobo13$53134bo$53133bo$53133b3o19$
53000b2o$53001b2o$53000bo$53110bo$53109bo$53109b3o41$52954b2o$52953bob
o$52955bo6$53059bo$53058bo$53058b3o22$52922bo$52922b2o$52921bobo19$
53014bo$53013bo$53013b3o14$52885bo$52885b2o$52884bobo10$52986bobo$
52986b2o$52987bo9$52862bo$52862b2o$52861bobo11$52962bobo$52962b2o$
52963bo22$52938bobo$52938b2o$52939bo15$52808b3o$52810bo$52809bo5$
52914bobo$52914b2o$52915bo24$52775bo$52775b2o$52774bobo16$52870bobo$
52870b2o$52871bo7$52748b2o$52749b2o$52748bo19$52841bo$52839b2o$52840b
2o30$52695b3o$52697bo109bo$52696bo109bo$52806b3o39$52766bo$52765bo$
52765b3o$52650bo$52650b2o$52649bobo28$52734bo$52732b2o$52733b2o3$
52615bo$52615b2o$52614bobo21$52592bo$52592b2o$52591bobo32$52558b2o$
52559b2o$52558bo37$52632bo$52631bo$52631b3o10$52507bo$52507b2o$52506bo
bo9$52609bo$52609bobo$52609b2o13$52481b3o$52483bo$52482bo8$52584bo$
52584bobo$52584b2o32$52437bo$52437b2o$52436bobo12$52536bo$52535bo$
52535b3o42$52492bobo$52492b2o$52493bo32$52345bo$52345b2o$52344bobo21$
52322bo$52322b2o$52321bobo7$52426bobo$52426b2o$52427bo29$52395bobo$
52395b2o$52396bo12$52268b3o$52270bo$52269bo18$52361bobo$52361b2o$
52362bo11$52235bo$52235b2o$52234bobo23$52210b2o111bo$52211b2o110bobo$
52210bo112b2o44$52164b2o$52163bobo$52165bo30$52132bo$52132b2o$52131bob
o63$52067bo$52067b2o$52066bobo21$52044bo$52044b2o$52043bobo32$52010b2o
$52011b2o$52010bo27$51981bo$51981b2o$51980bobo11$52081bo$52080bo$
52080b3o8$51958bo$51958b2o$51957bobo11$52058bo$52058bobo$52058b2o23$
52033bo$52032bo$52032b3o$51917b2o$51916bobo$51918bo51$51978bo$51976b2o
$51977b2o10$51852b2o$51853b2o$51852bo36$51927bo$51926bo$51926b3o13$
51799b3o$51801bo$51800bo27$51883bo$51883bobo$51883b2o14$51754bo$51754b
2o$51753bobo23$51729bo$51729b2o$51728bobo15$51826bo$51824b2o$51825b2o
4$51706bo$51706b2o$51705bobo18$51799bo$51798bo$51798b3o12$51672b2o$
51673b2o$51672bo31$51639bo$51639b2o$51638bobo5$51746bo$51744b2o$51745b
2o14$51616bo$51616b2o$51615bobo32$51582b2o111bo$51583b2o109bo$51582bo
111b3o27$51553bo$51553b2o$51552bobo21$51530bo$51530b2o$51529bobo32$
51496b2o$51497b2o$51496bo39$51455bo$51455b2o$51454bobo21$51432bo$
51432b2o$51431bobo32$51512bo$51510b2o$51511b2o5$51391b2o$51390bobo$
51392bo46$51456bobo$51456b2o$51457bo4$51337bo$51337b2o$51336bobo21$
51314bo$51314b2o$51313bobo24$51401bo$51401bobo$51401b2o6$51280b2o$
51281b2o$51280bo13$51378bo$51378bobo$51378b2o6$51257bo$51257b2o$51256b
obo21$51234bo$51234b2o$51233bobo29$51316bo$51315bo$51315b3o$51200b2o$
51201b2o$51200bo19$51292bo$51291bo$51291b3o8$51169bo$51169b2o$51168bob
o21$51146bo$51146b2o$51145bobo18$51239bo$51238bo$51238b3o19$51105b2o$
51104bobo$51106bo28$51188bo$51187bo$51187b3o22$51051bo112bo$51051b2o
111bobo$51050bobo111b2o21$51028bo$51028b2o$51027bobo109bo$51138bo$
51138b3o30$50994b2o$50995b2o$50994bo49$50943bo$50943b2o$50942bobo24$
50917b3o$50919bo$50918bo42$50873bo$50873b2o$50872bobo29$50956bo$50954b
2o$50955b2o53$50900bobo$50900b2o$50901bo4$50781bo$50781b2o$50780bobo
21$50758bo$50758b2o$50757bobo24$50845bo$50845bobo$50845b2o6$50724b2o$
50725b2o$50724bo13$50822bo$50822bobo$50822b2o25$50795bo$50795bobo$
50795b2o8$50672b2o$50673b2o$50672bo44$50626b2o$50625bobo$50627bo110bo$
50736b2o$50737b2o24$50711bo$50710bo$50710b3o2$50594bo$50594b2o$50593bo
bo33$50559bo$50559b2o$50558bobo16$50654bo$50654bobo$50654b2o3$50536bo$
50536b2o$50535bobo27$50620bo$50619bo$50619b3o10$50495b2o$50494bobo$
50496bo11$50596bo$50594b2o$50595b2o22$50571bo$50570bo$50570b3o34$
50422b2o$50423b2o$50422bo3$50530bo$50529bo$50529b3o22$50506bo$50506bob
o$50506b2o15$50376b2o$50375bobo$50377bo6$50481bo$50480bo$50480b3o22$
50344bo$50344b2o$50343bobo47$50408bo$50407bo$50407b3o12$50281bo$50281b
2o$50280bobo8$50384bo$50383bo$50383b3o11$50258bo$50258b2o$50257bobo32$
50224b2o$50225b2o$50224bo4$50331bo$50330bo$50330b3o17$50199bo$50199b2o
$50198bobo21$50176bo$50176b2o$50175bobo32$50142b2o$50143b2o$50142bo27$
50113bo$50113b2o$50112bobo21$50090bo$50090b2o$50089bobo32$50170bo$
50168b2o$50169b2o5$50049b2o$50048bobo$50050bo46$50114bobo$50114b2o$
49999bo115bo$49999b2o$49998bobo21$49976bo$49976b2o$49975bobo28$50059bo
$50059bobo$50059b2o9$49935b2o$49934bobo$49936bo10$50036bo$50036bobo$
50036b2o58$49863bo$49863b2o$49862bobo2$49972bo$49971bo$49971b3o17$
49840bo$49840b2o$49839bobo3$49948bo$49947bo$49947b3o34$49799b2o$49798b
obo$49800bo15$49895bo$49894bo$49894b3o31$49749bo$49749b2o$49748bobo6$
49854bo$49853bo$49853b3o16$49723b3o$49725bo$49724bo4$49830bo$49829bo$
49829b3o36$49679bo$49679b2o$49678bobo13$49777bo$49776bo$49776b3o37$
49738bo$49737bo$49737b3o22$49714bo$49714bobo$49714b2o13$49586b2o$
49587b2o$49586bo8$49689bo$49688bo$49688b3o41$49533b3o$49535bo$49534bo
43$49488bo$49488b2o$49487bobo33$49453bo$49453b2o$49452bobo21$49430bo$
49430b2o$49429bobo32$49396b2o$49397b2o$49396bo4$49504bo$49502b2o$
49503b2o45$49343bo$49343b2o$49342bobo6$49448bobo$49448b2o$49449bo13$
49320bo$49320b2o$49319bobo32$49286b2o$49287b2o$49286bo4$49393bo$49393b
obo$49393b2o17$49261bo$49261b2o$49260bobo2$49370bo$49370bobo$49370b2o
17$49238bo$49238b2o$49237bobo32$49204b2o$49205b2o$49204bo3$49312bo$
49311bo$49311b3o22$49288bo$49287bo$49287b3o18$49155bo$49155b2o$49154bo
bo24$49129b3o$49131bo$49130bo5$49235bo$49234bo$49234b3o35$49085bo$
49085b2o$49084bobo6$49190bo$49189bo$49189b3o22$49166bo$49165bo$49165b
3o51$49113bo$49112bo$49112b3o6$48992b2o$48993b2o$48992bo38$49065bobo$
49065b2o$49066bo11$48939b3o$48941bo$48940bo11$49039bo$49039bobo$49039b
2o30$48894bo113bo$48894b2o110b2o$48893bobo111b2o24$48868b2o$48869b2o$
48868bo22$48844b2o$48845b2o$48844bo2$48953bo$48952bo$48952b3o23$48928b
obo$48928b2o$48929bo5$48808b3o$48810bo$48809bo36$48883bo$48882bo$
48882b3o3$48765b3o$48767bo$48766bo36$48840bo$48839bo$48839b3o41$48797b
o$48796bo$48796b3o13$48669bo$48669b2o$48668bobo24$48643bo$48643b2o$
48642bobo53$48588b2o$48587bobo$48589bo58$48528b2o$48529b2o$48528bo18$
48622bo$48620b2o$48621b2o5$48501bo$48501b2o$48500bobo21$48478bo$48478b
2o$48477bobo23$48566bobo$48566b2o$48567bo14$48437b2o$48436bobo$48438bo
37$48511bo$48511bobo$48511b2o21$48488bo$48488bobo$48488b2o8$48365bo$
48365b2o$48364bobo24$48339b3o$48341bo$48340bo42$48295bo$48295b2o$
48294bobo10$48396bo$48395bo$48395b3o22$48372bo$48371bo$48371b3o51$
48319bo$48318bo$48318b3o2$48202b2o$48203b2o$48202bo43$48270bo$48156b2o
111bo$48155bobo111b3o$48157bo21$48246bo$48246bobo$48246b2o7$48124bo$
48124b2o$48123bobo14$48221bo$48220bo$48220b3o10$48096b2o$48097b2o$
48096bo40$48167bo$48166bo$48166b3o9$48043b3o$48045bo$48044bo10$48144bo
$48144bobo$48144b2o23$48119bo$48118bo$48118b3o6$47998bo$47998b2o$
47997bobo31$47965bo$47965b2o$47964bobo21$47942bo$47942b2o$47941bobo
110bo$48052b2o$48053b2o30$47908b2o$47909b2o$47908bo16$48003bo$48002bo$
48002b3o9$47879bo$47879b2o$47878bobo21$47856bo$47856b2o$47855bobo32$
47822b2o$47823b2o$47822bo21$47799bo$47799b2o$47798bobo21$47776bo$
47776b2o$47775bobo32$47742b2o$47743b2o$47742bo12$47842bo$47840b2o$
47841b2o13$47713bo$47713b2o$47712bobo21$47690bo$47690b2o$47689bobo15$
47786bobo$47786b2o$47787bo22$47649b2o$47648bobo$47650bo29$47731bo$
47731bobo$47731b2o21$47708bo$47708bobo$47708b2o6$47587bo$47587b2o$
47586bobo24$47561b3o$47563bo$47562bo28$47644bo$47643bo$47643b3o12$
47517bo$47517b2o$47516bobo8$47620bo$47619bo$47619b3o51$47567bo$47566bo
$47566b3o30$47422b2o$47423b2o$47422bo5$47528bo$47528bobo$47528b2o32$
47494bo$47493bo$47493b3o10$47369b3o$47371bo$47370bo11$47470bo$47468b2o
$47469b2o22$47445bo$47444bo$47444b3o6$47324bo$47324b2o$47323bobo33$
47289bo$47289b2o$47288bobo3$47397bo$47396bo$47396b3o16$47266bo$47266b
2o$47265bobo3$47374bo$47374bobo$47374b2o23$47349bo$47348bo$47348b3o2$
47232b2o$47233b2o$47232bo29$47201bo$47201b2o$47200bobo21$47178bo$
47178b2o$47177bobo32$47144b2o$47145b2o$47144bo47$47095bo$47095b2o$
47094bobo19$47188bo$47186b2o$47072bo114b2o$47072b2o$47071bobo32$47038b
2o$47039b2o$47038bo17$47132bobo$47132b2o$47133bo4$47013bo$47013b2o$
47012bobo21$46990bo$46990b2o$46989bobo24$47077bo$47077bobo$47077b2o13$
46949b2o$46948bobo$46950bo6$47054bo$47054bobo$47054b2o33$47019bo$
47018bo$47018b3o11$46893bo$46893b2o$46892bobo8$46996bo$46996bobo$
46996b2o11$46870bo$46870b2o$46869bobo10$46971bo$46970bo$46970b3o27$
46829b2o$46828bobo$46830bo15$46925bo$46924bo$46924b3o21$46902bo$46902b
obo$46902b2o17$46770b2o$46771b2o$46770bo4$46877bo$46876bo$46876b3o38$
46724b2o$46723bobo$46725bo10$46826bo$46824b2o$46825b2o18$46692bo$
46692b2o$46691bobo28$46775bo$46774bo$46774b3o10$46650b2o$46651b2o$
46650bo51$46597b3o$46599bo$46598bo43$46552bo$46552b2o$46551bobo24$
46526b2o$46527b2o$46526bo22$46502b2o$46503b2o$46502bo32$46582bo$46580b
2o$46466b3o112b2o$46468bo$46467bo41$46423b3o$46425bo$46424bo8$46526bob
o$46526b2o$46527bo53$46471bo$46471bobo$46471b2o21$46448bo$46448bobo$
46333bo114b2o$46333b2o$46332bobo21$46310bo$46310b2o$46309bobo39$46269b
2o$46268bobo$46270bo51$46216b2o$46217b2o$46216bo44$46170b2o$46169bobo$
46171bo110bo$46280b2o$46281b2o28$46138bo$46138b2o$46137bobo23$46226bob
o$46226b2o$46227bo50$46061bo$46061b2o$46060bobo$46171bo$46171bobo$
46171b2o18$46038bo$46038b2o$46037bobo$46148bo$46148bobo$46148b2o29$
46004b2o$46005b2o$46004bo15$46100bo$46100bobo$46100b2o30$45955bo$
45955b2o$45954bobo109bo$46065bo$46065b3o19$45932bo$45932b2o$45931bobo
2$46042bo$46040b2o$46041b2o22$46017bo$46016bo$46016b3o4$45898b2o$
45899b2o$45898bo39$45857bo$45857b2o$45856bobo21$45834bo$45834b2o$
45833bobo$45944bo$45943bo$45943b3o22$45920bo$45919bo$45919b3o5$45800b
2o$45801b2o$45800bo27$45771bo$45771b2o$45770bobo15$45867bo$45866bo$
45866b3o4$45748bo$45748b2o$45747bobo33$45826bo$45826bobo$45826b2o4$
45707b2o$45706bobo$45708bo26$45792bo$45791bo$45791b3o23$45768bo$45766b
2o$45767b2o19$45633bo$45633b2o$45632bobo$45743bo$45742bo$45742b3o21$
45607bo$45607b2o$45606bobo13$45705bo$45704bo$45704b3o21$45682bo$45682b
obo$45682b2o15$45552b2o$45551bobo$45553bo6$45657bo$45656bo$45656b3o50$
45492b2o$45493b2o$45492bo21$45469bo$45469b2o$45468bobo21$45446bo$
45446b2o$45445bobo39$45405b2o$45404bobo$45406bo53$45464bo$45462b2o$
45348b2o113b2o$45349b2o$45348bo51$45295b3o110bobo$45297bo110b2o$45296b
o112bo43$45250bo$45250b2o$45249bobo8$45353bo$45353bobo$45353b2o14$
45224b2o$45225b2o$45224bo5$45330bo$45330bobo$45330b2o15$45200b2o$
45201b2o$45200bo34$45164b3o$45166bo$45165bo13$45262bo$45261bo$45261b3o
15$45132b2o$45131bobo$45133bo5$45238bo$45237bo$45237b3o21$45102b2o$
45103b2o$45102bo28$45185bo$45184bo$45184b3o21$45049b3o$45051bo$45050bo
18$45142bo$45142bobo$45142b2o23$45004bo$45004b2o$45003bobo7$45108bo$
45107bo$45107b3o22$44971bo$44971b2o111bo$44970bobo109b2o$45083b2o20$
44948bo$44948b2o$44947bobo109bo$45058bo$45058b3o30$44914b2o$44915b2o$
44914bo27$44885bo$44885b2o$44884bobo21$44862bo$44862b2o$44861bobo32$
44828b2o$44829b2o$44828bo24$44802b2o$44803b2o$44802bo30$44884bo$44882b
2o$44883b2o12$44756b2o$44755bobo$44757bo30$44724bo$44724b2o$44723bobo
7$44828bobo$44828b2o$44829bo46$44667bo$44667b2o$44666bobo5$44773bo$
44773bobo$44773b2o14$44644bo$44644b2o$44643bobo5$44750bo$44750bobo$
44750b2o25$44610b2o$44611b2o$44610bo19$44702bo$44701bo$44701b3o16$
44571bo$44571b2o$44570bobo4$44678bo$44677bo$44677b3o15$44548bo$44548b
2o$44547bobo32$44514b2o$44515b2o$44514bo110bo$44624bo$44624b3o30$
44480b2o$44481b2o$44480bo13$44578bo$44577bo$44577b3o22$44554bo$44553bo
$44553b3o5$44434b2o$44433bobo$44435bo30$44402bo$44402b2o$44401bobo12$
44501bo$44500bo$44500b3o18$44368b2o$44369b2o$44368bo32$44447bobo$
44447b2o$44448bo10$44322b2o$44321bobo$44323bo12$44421bo$44421bobo$
44421b2o16$44290bo$44290b2o$44289bobo12$44390bo$44388b2o$44389b2o37$
44237bo$44237b2o$44236bobo13$44335bo$44334bo$44334b3o6$44214bo$44214b
2o$44213bobo34$44291bobo$44291b2o$44292bo3$44173b2o$44172bobo$44174bo
19$44265bo$44265bobo$44265b2o30$44234bo$44232b2o$44233b2o3$44115bo$
44115b2o$44114bobo21$44092bo$44092b2o$44091bobo24$44179bo$44178bo$
44178b3o13$44051b2o$44050bobo$44052bo11$44151bo$44150bo$44150b3o21$
44128bo$44128bobo$44128b2o20$43993bo$43993b2o$43992bobo$44103bo$44102b
o$44102b3o18$43970bo$43970b2o$43969bobo32$43936b2o$43937b2o$43936bo40$
43894b2o$43895b2o$43894bo44$43848b2o$43847bobo$43849bo30$43816bo$
43816b2o$43815bobo8$43920bo$43918b2o$43919b2o16$43788b2o$43789b2o$
43788bo35$43864bobo$43864b2o$43865bo7$43742b2o$43741bobo$43743bo30$
43710bo$43710b2o$43709bobo12$43809bo$43809bobo$43809b2o21$43786bo$
43786bobo$43786b2o8$43663bo$43663b2o$43662bobo21$43640bo$43640b2o$
43639bobo19$43732bo$43731bo$43731b3o11$43606b2o$43607b2o$43606bo9$
43708bo$43707bo$43707b3o18$43575bo$43575b2o$43574bobo21$43552bo$43552b
2o$43551bobo8$43655bo$43654bo$43654b3o29$43511b2o$43510bobo$43512bo4$
43618bo$43618bobo$43618b2o32$43584bo$43583bo$43583b3o23$43560bo$43558b
2o$43559b2o3$43441bo$43441b2o$43440bobo17$43535bo$43534bo$43534b3o5$
43415b3o$43417bo$43416bo42$43371bo$43371b2o$43370bobo92$43277bo$43277b
2o$43276bobo15$43374bo$43372b2o$43373b2o4$43254bo$43254b2o$43253bobo
32$43220b2o$43221b2o$43220bo13$43318bobo$43318b2o$43319bo7$43196b3o$
43198bo$43197bo34$43160b2o$43161b2o$43160bo8$43263bo$43263bobo$43263b
2o21$43240bo$43240bobo$43240b2o11$43114b2o$43113bobo$43115bo10$43215bo
$43214bo$43214b3o18$43082bo$43082b2o$43081bobo$43192bo$43192bobo$
43192b2o23$43167bo$43166bo$43166b3o17$43035bo$43035b2o$43034bobo21$
43012bo$43012b2o$43011bobo32$42978b2o$42979b2o$42978bo27$42949bo$
42949b2o$42948bobo21$42926bo$42926b2o$42925bobo39$42885b2o$42884bobo$
42886bo11$42986bo$42984b2o$42985b2o43$42827bo$42827b2o$42826bobo8$
42930bobo$42930b2o$42931bo11$42804bo$42804b2o$42803bobo39$42763b2o$
42762bobo110bo$42764bo110bobo$42875b2o21$42852bo$42852bobo$42852b2o38$
42699bo$42699b2o$42698bobo16$42794bo$42793bo$42793b3o3$42676bo$42676b
2o$42675bobo17$42770bo$42769bo$42769b3o13$42642b2o$42643b2o$42642bo33$
42607bo$42607b2o$42606bobo$42717bo$42716bo$42716b3o18$42584bo$42584b2o
$42583bobo32$42550b2o$42551b2o$42550bo3$42658bo$42657bo$42657b3o22$
42634bo$42633bo$42633b3o16$42503bo$42503b2o$42502bobo21$42480bo$42480b
2o$42479bobo10$42581bo$42580bo$42580b3o25$42554bobo$42554b2o$42439b2o
114bo$42438bobo$42440bo41$42509bo$42508bo$42508b3o11$42383bo$42383b2o$
42382bobo21$42360bo$42360b2o$42359bobo5$42466bo$42465bo$42465b3o32$
42319b2o$42318bobo$42320bo7$42423bo$42422bo$42422b3o34$42274b2o$42275b
2o$42274bo51$42221b3o$42223bo$42222bo43$42176bo$42176b2o$42175bobo30$
42258bo$42256b2o$42257b2o2$42140b2o$42141b2o$42140bo49$42202bobo$
42202b2o$42087b3o113bo$42089bo$42088bo43$42042bo$42042b2o$42041bobo6$
42147bo$42147bobo$42147b2o21$42124bo$42124bobo$42124b2o2$42007bo$
42007b2o$42006bobo24$41981b3o$41983bo$41982bo22$42070bo$42069bo$42069b
3o18$41937bo$41937b2o$41936bobo2$42046bo$42045bo$42045b3o51$41993bo$
41992bo$41992b3o36$41842b2o$41843b2o$41842bo9$41944bo$41943bo$41943b3o
22$41920bo$41920bobo$41920b2o16$41789b3o$41791bo$41790bo5$41895bo$
41894bo$41894b3o36$41744bo$41744b2o$41743bobo25$41717bo$41717b2o$
41716bobo24$41691bo$41691b2o$41690bobo12$41790bo$41789bo$41789b3o22$
41766bo$41765bo$41765b3o15$41636b2o$41635bobo$41637bo34$41713bo$41712b
o$41712b3o22$41576b2o$41577b2o$41576bo9$41678bo$41677bo$41677b3o16$
41547bo$41547b2o$41546bobo4$41654bo$41653bo$41653b3o15$41524bo$41524b
2o$41523bobo32$41490b2o$41491b2o$41490bo110bo$41600bo$41600b3o29$
41457bo$41457b2o$41456bobo15$41553bobo$41553b2o$41554bo4$41434bo$
41434b2o$41433bobo18$41527bo$41527bobo$41527b2o19$41393b2o$41392bobo$
41394bo9$41496bo$41494b2o$41495b2o31$41349bo$41349b2o$41348bobo19$
41441bo$41440bo$41326bo113b3o$41326b2o$41325bobo39$41285b2o$41284bobo$
41286bo2$41394bo$41393bo$41393b3o22$41370bo$41369bo$41369b3o36$41219bo
$41219b2o$41218bobo13$41317bo$41316bo$41316b3o6$41196bo$41196b2o$
41195bobo32$41162b2o$41163b2o$41162bo4$41270bo$41268b2o$41269b2o35$
41119bo$41119b2o$41118bobo11$41219bo$41218bo$41218b3o11$41093b3o$
41095bo$41094bo42$41049bo$41049b2o$41048bobo88$40959bo$40959b2o$40958b
obo21$40936bo$40936b2o$40935bobo8$41040bo$41038b2o$41039b2o29$40895b2o
$40894bobo$40896bo22$40984bobo$40984b2o$40985bo24$40845bo$40845b2o$
40844bobo21$40822bo$40822b2o$40821bobo4$40929bo$40929bobo$40929b2o21$
40906bo$40906bobo$40906b2o10$40781b2o$40780bobo$40782bo62$40717bo$
40717b2o$40716bobo21$40694bo$40694b2o$40693bobo39$40653b2o$40652bobo$
40654bo29$40736bo$40734b2o$40735b2o29$40591bo$40591b2o$40590bobo21$
40568bo$40568b2o110bobo$40567bobo110b2o$40681bo38$40527b2o$40526bobo$
40528bo13$40625bo$40625bobo$40625b2o21$40602bo$40602bobo$40602b2o4$
40483bo$40483b2o$40482bobo21$40460bo$40460b2o$40459bobo13$40558bo$
40558bobo$40558b2o24$40419b2o$40418bobo$40420bo6$40524bo$40523bo$
40523b3o23$40500bo$40498b2o$40499b2o15$40369bo$40369b2o$40368bobo5$
40475bo$40474bo$40474b3o14$40346bo$40346b2o$40345bobo26$40431bo$40430b
o$40430b3o11$40305b2o$40304bobo$40306bo8$40408bo$40408bobo$40408b2o23$
40383bo$40382bo$40382b3o19$40249bo$40249b2o$40248bobo21$40226bo$40226b
2o$40225bobo32$40192b2o$40193b2o$40192bo6$40298bo$40296b2o$40297b2o33$
40149bo$40149b2o$40148bobo13$40247bo$40246bo$40246b3o6$40126bo$40126b
2o$40125bobo39$40085b2o$40084bobo$40086bo7$40190bo$40188b2o$40189b2o
34$40040b2o$40041b2o$40040bo12$40139bo$40138bo$40138b3o37$39987b3o$
39989bo$39988bo43$39942bo$39942b2o$39941bobo37$39903bo$39903b2o$39902b
obo24$39877b3o$39879bo$39878bo17$39972bo$39970b2o$39971b2o23$39833bo$
39833b2o$39832bobo28$39916bobo$39916b2o$39917bo53$39861bo$39861bobo$
39861b2o6$39740b2o$39741b2o$39740bo13$39838bo$39838bobo$39838b2o36$
39687b3o$39689bo$39688bo16$39782bo$39781bo$39781b3o22$39758bo$39757bo$
39757b3o$39642bo$39642b2o$39641bobo30$39610b2o$39611b2o$39610bo16$
39705bo$39704bo$39704b3o33$39557b3o$39559bo$39558bo14$39654bo$39653bo$
39653b3o22$39630bo$39629bo$39629b3o3$39512bo$39512b2o$39511bobo27$
39483bo$39483b2o$39482bobo17$39577bo$39576bo$39576b3o2$39460b2o$39461b
2o$39460bo21$39550bo$39549bo$39549b3o22$39526bo$39525bo$39525b3o3$
39408b3o$39410bo$39409bo44$39362bo$39362b2o$39361bobo109bo$39472bo$
39472b3o25$39333bo$39333b2o$39332bobo10$39434bo$39433bo$39433b3o9$
39310bo$39310b2o$39309bobo11$39410bo$39410bobo$39410b2o19$39276b2o$
39277b2o$39276bo2$39385bo$39384bo$39384b3o17$39253bo$39253b2o$39252bob
o21$39230bo$39230b2o$39229bobo8$39333bo$39332bo$39332b3o21$39310bo$
39310bobo$39310b2o6$39189b2o$39188bobo$39190bo15$39285bo$39284bo$
39284b3o24$39259bo$39258bo$39258b3o19$39125bo$39125b2o$39124bobo109bo$
39236bobo$39236b2o19$39102bo$39102b2o$39101bobo2$39211bo$39210bo$
39210b3o35$39061b2o$39060bobo$39062bo32$39140bo$39139bo$39139b3o21$
39004b2o$39005b2o109bo$39004bo110bo$39115b3o43$38958b2o$38957bobo$
38959bo6$39063bo$39062bo$39062b3o22$38926bo$38926b2o$38925bobo30$
38894b2o111bobo$38895b2o110b2o$38894bo113bo24$38981bo$38981bobo$38981b
2o25$38841b3o$38843bo$38842bo3$38950bo$38948b2o$38949b2o38$38796bo$
38796b2o$38795bobo12$38895bo$38894bo$38894b3o8$38772b2o$38773b2o$
38772bo44$38726b2o$38725bobo110bo$38727bo109bo$38837b3o22$38814bo$
38813bo$38813b3o5$38694bo$38694b2o$38693bobo41$38651bo$38651b2o$38650b
obo$38761bo$38760bo$38760b3o18$38628bo$38628b2o$38627bobo21$38718bo$
38718bobo$38718b2o29$38574b3o$38576bo$38575bo$38684bo$38683bo$38683b3o
23$38660bo$38658b2o$38659b2o3$38541bo$38541b2o$38540bobo17$38635bo$
38634bo$38634b3o5$38515bo$38515b2o$38514bobo21$38492bo$38492b2o$38491b
obo50$38440b2o$38439bobo$38441bo54$38384b2o$38385b2o$38384bo28$38468bo
$38466b2o$38467b2o21$38331b3o$38333bo$38332bo30$38412bobo$38412b2o$
38413bo11$38286bo$38286b2o$38285bobo31$38253bo$38253b2o$38252bobo7$
38357bo$38357bobo$38357b2o12$38230bo$38230b2o$38229bobo7$38334bo$
38334bobo$38334b2o30$38189b2o$38188bobo$38190bo18$38282bo$38281bo$
38281b3o22$38258bo$38257bo$38257b3o20$38123bo$38123b2o$38122bobo21$
38100bo$38100b2o$38099bobo6$38205bo$38204bo$38204b3o31$38059b2o$38058b
obo$38060bo6$38164bo$38163bo$38163b3o22$38140bo$38140bobo$38140b2o16$
38009bo$38009b2o$38008bobo5$38115bo$38114bo$38114b3o14$37986bo$37986b
2o$37985bobo32$37952b2o$37953b2o$37952bo6$38057bo$38056bo$38056b3o21$
38034bo$38034bobo$38034b2o12$37907bo$37907b2o$37906bobo9$38009bo$
38008bo$38008b3o13$37881b3o$37883bo$37882bo42$37837bo$37837b2o$37836bo
bo93$37742b2o$37743b2o$37742bo14$37840bo$37838b2o$37839b2o35$37689b3o$
37691bo$37690bo16$37784bobo$37784b2o$37785bo25$37644bo$37644b2o$37643b
obo26$37729bo$37729bobo$37729b2o11$37603bo$37603b2o$37602bobo8$37706bo
$37706bobo$37706b2o11$37580bo$37580b2o$37579bobo39$37539b2o$37538bobo$
37540bo61$37476b2o$37477b2o$37476bo42$37546bo$37544b2o$37545b2o7$
37423b3o$37425bo$37424bo43$37378bo$37378b2o110bobo$37377bobo110b2o$
37491bo24$37351bo$37351b2o$37350bobo21$37328bo$37328b2o$37327bobo4$
37435bo$37435bobo$37435b2o21$37412bo$37412bobo$37412b2o23$37274b3o$
37276bo$37275bo31$37241bo$37241b2o$37240bobo23$37216b2o$37217b2o$
37216bo44$37170b2o$37169bobo$37171bo30$37138bo$37138b2o$37137bobo12$
37238bo$37236b2o$37237b2o23$37099bo$37099b2o$37098bobo21$37076bo$
37076b2o$37075bobo5$37182bobo$37182b2o$37183bo32$37035b2o$37034bobo$
37036bo19$37127bo$37127bobo$37127b2o21$37104bo$37104bobo$37104b2o15$
36974b2o$36975b2o$36974bo41$37044bo$37043bo$37043b3o$36928b2o$36927bob
o$36929bo19$37020bo$37019bo$37019b3o9$36896bo$36896b2o$36895bobo40$
36967bo$36966bo$36966b3o11$36841bo$36841b2o$36840bobo24$36815b3o$
36817bo$36816bo19$36908bo$36906b2o$36907b2o21$36771bo$36771b2o$36770bo
bo25$36857bo$36856bo$36856b3o56$36799bo$36798bo$36798b3o8$36676b2o$
36677b2o$36676bo11$36776bo$36776bobo$36776b2o23$36751bo$36750bo$36750b
3o13$36623b3o$36625bo$36624bo28$36706bo$36706bobo$36706b2o13$36578bo$
36578b2o$36577bobo17$36672bo$36671bo$36671b3o6$36551bo$36551b2o$36550b
obo15$36648bo$36646b2o$36647b2o4$36528b2o$36529b2o$36528bo16$36623bo$
36622bo$36622b3o32$36476b3o$36478bo$36477bo109bo$36586bo$36586b3o21$
36564bo$36564bobo$36564b2o19$36430bo$36430b2o$36429bobo2$36539bo$
36538bo$36538b3o55$36369bo$36369b2o$36368bobo12$36468bo$36467bo$36467b
3o7$36346bo$36346b2o$36345bobo13$36444bo$36443bo$36443b3o24$36305b2o$
36304bobo$36306bo25$36391bo$36390bo$36390b3o26$36250b2o$36251b2o$
36250bo23$36338bo$36337bo$36337b3o19$36204b2o$36203bobo$36205bo$36314b
o$36313bo$36313b3o27$36172bo$36172b2o$36171bobo22$36261bo$36260bo$
36260b3o20$36126b2o$36127b2o$36126bo2$36235bo$36234bo$36234b3o21$
36212bo$36212bobo$36212b2o17$36080b2o$36079bobo$36081bo4$36187bo$
36186bo$36186b3o24$36048bo$36048b2o$36047bobo16$36143bo$36142bo$36142b
3o21$36120bo$36120bobo$36120b2o2$36003bo$36003b2o$36002bobo19$36095bo$
36094bo$35980bo113b3o$35980b2o$35979bobo32$35946b2o$35947b2o$35946bo
21$36036bo$36035bo$36035b3o2$35919bo$35919b2o$35918bobo18$36012bo$
36011bo$36011b3o$35896bo$35896b2o$35895bobo39$35855b2o$35854bobo$
35856bo7$35959bo$35958bo$35958b3o34$35810b2o$35811b2o$35810bo$35920bo$
35919bo$35919b3o22$35896bo$35895bo$35895b3o24$35757b3o$35759bo$35758bo
25$35843bo$35842bo$35842b3o16$35712bo$35712b2o$35711bobo20$35803bobo$
35803b2o$35804bo10$35678b2o$35679b2o$35678bo12$35777bo$35777bobo$
35777b2o30$35746bo$35744b2o$35745b2o5$35625b3o$35627bo$35626bo43$
35580bo$35580b2o$35579bobo109bo$35690bo$35690b3o23$35553bo$35553b2o$
35552bobo12$35652bo$35652bobo$35652b2o7$35530bo$35530b2o$35529bobo23$
35618bo$35617bo$35617b3o23$35594bo$35592b2o$35593b2o2$35476b3o$35478bo
$35477bo18$35569bo$35568bo$35568b3o11$35443bo$35443b2o$35442bobo23$
35418b2o$35419b2o$35418bo44$35372b2o$35371bobo110bo$35373bo109bo$
35483b3o22$35460bo$35459bo$35459b3o5$35340bo$35340b2o$35339bobo38$
35300b2o$35301b2o$35300bo4$35407bo$35406bo$35406b3o27$35378bobo$35378b
2o$35379bo16$35247b3o$35249bo$35248bo25$35333bo$35332bo$35332b3o16$
35202bo$35202b2o$35201bobo23$35290bo$35289bo$35289b3o6$35169bo$35169b
2o$35168bobo21$35146bo$35146b2o$35145bobo10$35247bo$35246bo$35246b3o
27$35105b2o$35104bobo$35106bo16$35200bo$35200bobo$35200b2o32$35166bo$
35165bo$35051bo113b3o$35051b2o$35050bobo21$35028bo113bo$35028b2o110b2o
$35027bobo111b2o22$35117bo$35116bo$35116b3o15$34987b2o$34986bobo$
34988bo28$35070bo$35070bobo$35070b2o14$34941bo$34941b2o$34940bobo16$
35036bo$35035bo$35035b3o3$34918bo$34918b2o$34917bobo18$35012bo$35010b
2o$35011b2o19$34877b2o$34876bobo$34878bo$34987bo$34986bo$34986b3o47$
34825bo$34825b2o$34824bobo21$34802bo$34802b2o$34801bobo4$34910bo$
34908b2o$34909b2o33$34761b2o$34760bobo$34762bo13$34859bo$34858bo$
34858b3o53$34691bo$34691b2o$34690bobo10$34792bo$34791bo$34791b3o9$
34668bo$34668b2o$34667bobo11$34768bo$34767bo$34767b3o26$34627b2o$
34626bobo$34628bo23$34715bo$34714bo$34714b3o33$34567bo$34567b2o$34566b
obo21$34544bo$34544b2o$34543bobo39$34503b2o$34502bobo$34504bo61$34440b
2o$34441b2o$34440bo2$34550bo$34548b2o$34549b2o40$34394b2o$34393bobo$
34395bo11$34494bobo$34494b2o$34495bo17$34362bo$34362b2o$34361bobo34$
34439bo$34439bobo$34439b2o6$34318b2o$34319b2o$34318bo13$34416bo$34416b
obo$34416b2o25$34389bo$34388bo$34388b3o9$34265b3o$34267bo$34266bo10$
34366bo$34366bobo$34366b2o23$34341bo$34340bo$34340b3o6$34220bo$34220b
2o$34219bobo25$34193bo$34193b2o$34192bobo21$34170bo$34170b2o$34169bobo
52$34116b3o$34118bo$34117bo31$34083bo$34083b2o$34082bobo23$34058b2o$
34059b2o$34058bo8$34162bo$34160b2o$34161b2o34$34012b2o$34011bobo$
34013bo17$34106bobo$34106b2o$34107bo11$33980bo$33980b2o$33979bobo37$
33941bo$33941b2o$33940bobo$34051bo$34051bobo$34051b2o18$33918bo$33918b
2o$33917bobo$34028bo$34028bobo$34028b2o36$33877b2o$33876bobo$33878bo4$
33984bo$33984bobo$33984b2o32$33950bo$33949bo$33949b3o14$33821bo$33821b
2o$33820bobo7$33926bo$33924b2o$33925b2o12$33798bo$33798b2o$33797bobo8$
33901bo$33900bo$33900b3o29$33757b2o$33756bobo$33758bo59$33696b2o$
33697b2o$33696bo44$33650b2o$33649bobo$33651bo30$33618bo$33618b2o$
33617bobo6$33724bo$33722b2o$33723b2o45$33563bo$33563b2o$33562bobo6$
33668bobo$33668b2o$33669bo16$33537b3o$33539bo$33538bo35$33613bo$33613b
obo$33613b2o5$33493bo$33493b2o$33492bobo14$33590bo$33590bobo$33590b2o
39$33549bo$33548bo$33548b3o21$33526bo$33526bobo$33526b2o13$33398b2o$
33399b2o$33398bo8$33501bo$33500bo$33500b3o38$33461bo$33460bo$33460b3o$
33345b3o$33347bo$33346bo18$33438bo$33438bobo$33438b2o23$33300bo112bo$
33300b2o110bo$33299bobo110b3o25$33273bo$33273b2o$33272bobo23$33362bo$
33247bo112b2o$33247b2o112b2o$33246bobo47$33311bo$33310bo$33310b3o4$
33192b2o$33191bobo$33193bo42$33261bo$33260bo$33260b3o14$33132b2o$
33133b2o$33132bo5$33238bo$33238bobo$33238b2o18$33105bo$33105b2o$33104b
obo3$33213bo$33212bo$33212b3o16$33082bo$33082b2o$33081bobo32$33048b2o$
33049b2o$33048bo27$33132bo$33131bo$33131b3o10$33007bo$33007b2o$33006bo
bo10$33108bo$33107bo$33107b3o12$32981b3o$32983bo$32982bo37$33055bo$
33054bo$33054b3o3$32937bo$32937b2o$32936bobo47$33001bobo$33001b2o$
33002bo36$32850b2o$32851b2o$32850bo17$32944bobo$32944b2o$32945bo32$
32797b3o$32799bo$32798bo5$32903bobo$32903b2o$32904bo20$32881bo$32880bo
$32880b3o14$32752bo$32752b2o$32751bobo8$32855bo$32855bobo$32855b2o21$
32719bo$32719b2o$32718bobo21$32696bo$32696b2o$32695bobo10$32798bo$
32796b2o$32797b2o24$32771bo$32770bo$32770b3o$32655b2o$32654bobo$32656b
o45$32722bo$32720b2o$32721b2o7$32599bo$32599b2o$32598bobo24$32573b3o$
32575bo$32574bo13$32671bo$32670bo$32670b3o27$32529bo$32529b2o$32528bob
o4$32636bo$32635bo$32635b3o22$32612bo$32612bobo$32612b2o23$32587bo$
32586bo$32586b3o30$32442b2o$32443b2o$32442bo6$32547bo$32546bo$32546b3o
21$32524bo$32524bobo$32524b2o20$32389b3o$32391bo$32390bo$32499bo$
32498bo$32498b3o40$32344bo$32344b2o$32343bobo5$32450bo$32450bobo$
32450b2o22$32313bo$32313b2o$32312bobo8$32416bo$32415bo$32415b3o11$
32290bo$32290b2o$32289bobo10$32392bo$32390b2o$32391b2o20$32256b2o$
32257b2o$32256bo110bo$32366bo$32366b3o33$32219bo$32219b2o$32218bobo21$
32196bo$32196b2o$32195bobo32$32162b2o$32163b2o$32162bo28$32132b2o$
32133b2o$32132bo44$32086b2o$32085bobo$32087bo4$32194bo$32192b2o$32193b
2o24$32054bo$32054b2o$32053bobo27$32138bobo$32138b2o$32139bo6$32017bo$
32017b2o$32016bobo21$31994bo$31994b2o$31993bobo22$32083bo$32083bobo$
32083b2o8$31960b2o$31961b2o$31960bo11$32060bo$32060bobo$32060b2o8$
31937bo$31937b2o$31936bobo21$31914bo$31914b2o$31913bobo39$31873b2o$
31872bobo$31874bo3$31982bo$31980b2o$31981b2o48$31931bo$31930bo$31930b
3o5$31811bo$31811b2o$31810bobo21$31788bo$31788b2o$31787bobo32$31754b2o
$31755b2o$31754bo29$31723bo$31723b2o$31722bobo21$31700bo$31700b2o$
31699bobo32$31666b2o$31667b2o$31666bo8$31770bo$31768b2o$31769b2o31$
31623bo$31623b2o$31622bobo20$31714bobo$31714b2o$31715bo2$31597bo$
31597b2o$31596bobo49$31659bo$31659bobo$31659b2o2$31542b2o$31541bobo$
31543bo17$31636bo$31636bobo$31636b2o39$31482b2o$31483b2o$31482bo6$
31587bo$31586bo$31586b3o21$31451bo112bo$31451b2o111bobo$31450bobo111b
2o21$31428bo$31428b2o$31427bobo109bo$31538bo$31538b3o37$31387b2o$
31386bobo$31388bo28$31470bo$31469bo$31469b3o22$31446bo$31445bo$31445b
3o26$31305bo$31305b2o$31304bobo21$31282bo$31282b2o$31281bobo109bo$
31392bo$31392b3o37$31241b2o$31240bobo$31242bo2$31350bo$31349bo$31349b
3o22$31326bo$31325bo$31325b3o28$31183bo$31183b2o$31182bobo21$31160bo
112bo$31160b2o110bo$31159bobo110b3o39$31119b2o111bo$31118bobo110bo$
31120bo110b3o22$31208bo$31207bo$31207b3o48$31045bo$31045b2o$31044bobo$
31155bo$31154bo$31154b3o21$31019b3o$31021bo$31020bo42$30975bo$30975b2o
$30974bobo86$30887bo$30887b2o$30886bobo13$30986bo$30984b2o$30985b2o6$
30864bo$30864b2o$30863bobo39$30823b2o$30822bobo$30824bo4$30930bobo$
30930b2o$30931bo38$30777bo$30777b2o$30776bobo13$30875bo$30875bobo$
30875b2o6$30754bo$30754b2o$30753bobo13$30852bo$30852bobo$30852b2o24$
30713b2o$30712bobo$30714bo58$30653bo$30653b2o$30652bobo21$30630bo$
30630b2o$30629bobo39$30589b2o$30588bobo$30590bo23$30678bo$30676b2o$
30677b2o38$30524b2o$30525b2o$30524bo13$30622bobo$30622b2o$30623bo36$
30471b3o$30473bo$30472bo15$30567bo$30567bobo$30567b2o21$30544bo$30544b
obo$30544b2o3$30426bo$30426b2o$30425bobo27$30397bo$30397b2o$30396bobo
21$30374bo$30374b2o$30373bobo110bo$30484b2o$30485b2o30$30340b2o$30341b
2o$30340bo16$30435bo$30434bo$30434b3o25$30295bo$30295b2o$30294bobo21$
30272bo$30272b2o$30271bobo32$30238b2o$30239b2o$30238bo33$30203bo$
30203b2o$30202bobo21$30180bo$30180b2o$30179bobo32$30146b2o$30147b2o$
30146bo4$30254bo$30252b2o$30253b2o21$30117bo$30117b2o$30116bobo21$
30094bo$30094b2o$30093bobo7$30198bobo$30198b2o$30199bo30$30053b2o$
30052bobo$30054bo21$30143bo$30143bobo$30143b2o21$30120bo$30120bobo$
30120b2o18$29987bo$29987b2o$29986bobo9$30089bo$30088bo$30088b3o10$
29964bo$29964b2o$29963bobo9$30066bo$30066bobo$30066b2o21$29930b2o$
29931b2o$29930bo110bo$30040bo$30040b3o24$29902b2o$29903b2o$29902bo40$
29974bo$29972b2o$29973b2o2$29856b2o$29855bobo$29857bo30$29824bo$29824b
2o$29823bobo12$29923bo$29922bo$29922b3o30$29778b2o$29779b2o$29778bo51$
29725b3o$29727bo$29726bo43$29680bo$29680b2o$29679bobo33$29645bo$29645b
2o$29644bobo3$29754bo$29752b2o$29753b2o19$29619b3o$29621bo$29620bo32$
29698bobo$29698b2o$29699bo8$29575bo$29575b2o$29574bobo43$29643bo$
29643bobo$29643b2o21$29620bo$29620bobo$29620b2o14$29491bo$29491b2o$
29490bobo21$29468bo$29468b2o$29467bobo19$29560bo$29559bo$29559b3o11$
29434b2o$29435b2o$29434bo9$29536bo$29535bo$29535b3o16$29405bo$29405b2o
$29404bobo21$29382bo$29382b2o$29381bobo10$29483bo$29482bo$29482b3o27$
29341b2o$29340bobo$29342bo2$29450bo$29449bo$29449b3o22$29426bo$29425bo
$29425b3o33$29278b2o$29279b2o$29278bo16$29373bo$29372bo$29372b3o23$
29348bobo$29348b2o$29349bo8$29225b3o$29227bo$29226bo33$29303bo$29302bo
$29302b3o8$29180bo$29180b2o$29179bobo22$29156b2o$29157b2o$29156bo7$
29260bo$29259bo$29259b3o35$29110b2o$29109bobo$29111bo4$29217bo$29216bo
$29216b3o24$29078bo$29078b2o$29077bobo22$29168bo$29166b2o$29167b2o21$
29031bo$29031b2o$29030bobo21$29008bo$29008b2o$29007bobo2$29117bo$
29116bo$29116b3o28$28974b2o$28975b2o$28974bo23$28949bo$28949b2o$28948b
obo21$28926bo$28926b2o$28925bobo32$28892b2o$28893b2o$28892bo37$28853bo
$28853b2o$28852bobo21$28830bo$28830b2o$28829bobo14$28928bo$28926b2o$
28927b2o16$28796b2o$28797b2o$28796bo27$28767bo$28767b2o$28766bobo6$
28872bobo$28872b2o$28873bo13$28744bo$28744b2o$28743bobo32$28710b2o$
28711b2o$28710bo4$28817bo$28817bobo$28817b2o21$28794bo$28680b2o112bobo
$28681b2o111b2o$28680bo44$28634b2o$28633bobo$28635bo13$28732bo$28731bo
$28731b3o15$28602bo$28602b2o$28601bobo5$28708bo$28707bo$28707b3o28$
28565bo$28565b2o$28564bobo21$28542bo112bo$28542b2o110bo$28541bobo110b
3o32$28508b2o$28509b2o$28508bo9$28610bo$28609bo$28609b3o22$28586bo$
28586bobo$28586b2o8$28463bo$28463b2o$28462bobo13$28561bo$28560bo$
28560b3o6$28440bo$28440b2o$28439bobo32$28406b2o$28407b2o$28406bo31$
28373bo$28373b2o$28372bobo21$28350bo$28350b2o$28349bobo32$28316b2o$
28317b2o$28316bo31$28283bo$28283b2o$28282bobo11$28384bo$28382b2o$
28383b2o8$28260bo$28260b2o$28259bobo32$28226b2o$28227b2o$28226bo9$
28328bobo$28328b2o$28329bo16$28197bo$28197b2o$28196bobo21$28174bo$
28174b2o$28173bobo12$28273bo$28273bobo$28273b2o21$28250bo$28250bobo$
28250b2o2$28133b2o$28132bobo$28134bo50$28194bo$28193bo$28193b3o22$
28170bo$28056b2o111bo$28057b2o110b3o$28056bo22$28032b2o$28033b2o$
28032bo26$28117bo$28116bo$28116b3o15$27987b2o$27988b2o$27987bo33$
28066bo$28064b2o$28065b2o3$27947b2o$27948b2o$27947bo43$28015bo$28014bo
$28014b3o26$27874b2o$27875b2o$27874bo51$27821b3o$27823bo$27822bo2$
27930bo$27929bo$27929b3o22$27906bo$27905bo$27905b3o15$27776bo$27776b2o
$27775bobo23$27751bo$27751b2o$27750bobo9$27853bo$27852bo$27852b3o10$
27728bo$27728b2o$27727bobo30$27809bobo$27809b2o$27694b2o114bo$27695b2o
$27694bo22$27783bo$27783bobo$27783b2o20$27648b2o$27649b2o$27648bo8$
27752bo$27750b2o$27751b2o41$27595b3o$27597bo$27596bo9$27697bo$27696bo$
27696b3o32$27550bo$27550b2o$27549bobo7$27654bo$27654bobo$27654b2o22$
27517bo$27517b2o$27516bobo8$27620bo$27619bo$27619b3o11$27494bo$27494b
2o$27493bobo10$27596bo$27594b2o$27595b2o20$27460b2o$27461b2o$27460bo
110bo$27570bo$27570b3o25$27431bo$27431b2o$27430bobo21$27408bo$27408b2o
$27407bobo39$27367b2o$27366bobo$27368bo54$27311bo$27311b2o$27310bobo
21$27288bo$27288b2o$27287bobo14$27386bo$27384b2o$27385b2o23$27247b2o$
27246bobo$27248bo28$27330bobo$27330b2o$27331bo41$27174b2o$27175b2o$
27174bo10$27275bo$27275bobo$27275b2o10$27150b2o$27151b2o$27150bo9$
27252bo$27252bobo$27252b2o32$27105b2o$27106b2o$27105bo9$27207bo$27206b
o$27206b3o21$27184bo$27184bobo$27184b2o4$27065b2o$27066b2o$27065bo17$
27159bo$27158bo$27158b3o48$26996b2o$26997b2o$26996bo51$26943b3o$26945b
o$26944bo43$26898bo$26898b2o$26897bobo18$26992bo$26990b2o$26991b2o15$
26861bo$26861b2o$26860bobo21$26838bo$26838b2o$26837bobo13$26936bobo$
26936b2o$26937bo24$26797b2o$26796bobo$26798bo27$26881bo$26881bobo$
26881b2o21$26858bo$26858bobo$26858b2o8$26735bo$26735b2o$26734bobo24$
26709b3o$26711bo$26710bo38$26782bo$26781bo$26781b3o2$26665bo$26665b2o$
26664bobo18$26758bo$26757bo$26757b3o51$26705bo$26704bo$26704b3o11$
26579bo$26579b2o$26578bobo21$26556bo$26556b2o$26555bobo18$26649bobo$
26649b2o$26650bo19$26515b2o$26514bobo$26516bo3$26623bo$26623bobo$
26623b2o30$26592bo$26590b2o$26591b2o27$26449bo$26449b2o$26448bobo21$
26426bo$26426b2o$26425bobo109bo$26536bo$26536b3o30$26392b2o$26393b2o$
26392bo13$26490bo$26489bo$26489b3o13$26362b2o$26363b2o$26362bo7$26466b
o$26466bobo$26466b2o23$26441bo$26440bo$26440b3o10$26316b2o$26315bobo$
26317bo30$26284bo$26284b2o$26283bobo51$26231bo$26231b2o$26230bobo21$
26208bo$26208b2o$26207bobo32$26174b2o$26175b2o$26174bo25$26147bo$
26147b2o$26146bobo3$26256bo$26254b2o$26255b2o19$26121b3o$26123bo$
26122bo32$26200bobo$26200b2o$26201bo8$26077bo$26077b2o$26076bobo43$
26145bo$26145bobo$26145b2o21$26122bo$26122bobo$26122b2o18$25989bo$
25989b2o$25988bobo21$25966bo$25966b2o$25965bobo$26076bo$26075bo$26075b
3o22$26052bo$26051bo$26051b3o12$25925b2o$25924bobo$25926bo37$25999bo$
25998bo$25998b3o16$25868b2o$25869b2o$25868bo31$25948bo$25947bo$25947b
3o11$25822b2o$25821bobo$25823bo9$25924bo$25923bo$25923b3o19$25790bo$
25790b2o$25789bobo30$25871bo$25870bo$25870b3o35$25721bo$25721b2o$
25720bobo15$25817bobo$25817b2o$25818bo4$25698bo$25698b2o$25697bobo18$
25791bo$25791bobo$25791b2o12$25664b2o$25665b2o$25664bo16$25760bo$
25758b2o$25759b2o6$25638b2o$25639b2o$25638bo44$25592b2o111bo$25591bobo
110bo$25593bo110b3o30$25560bo$25560b2o$25559bobo45$25513bo$25513b2o$
25512bobo21$25490bo$25490b2o$25489bobo39$25449b2o$25448bobo$25450bo19$
25542bo$25540b2o$25541b2o29$25397bo$25397b2o$25396bobo21$25374bo$
25374b2o110bobo$25373bobo110b2o$25487bo38$25333b2o$25332bobo$25334bo
13$25431bo$25431bobo$25431b2o21$25408bo$25408bobo$25408b2o26$25267bo$
25267b2o$25266bobo21$25244bo$25244b2o$25243bobo59$25183b2o$25184b2o$
25183bo21$25160b3o$25162bo$25161bo21$25137bo$25137b2o$25136bobo7$
25242bo$25240b2o$25241b2o12$25114bo$25114b2o$25113bobo39$25073b2o111bo
bo$25072bobo111b2o$25074bo112bo53$25131bo$25131bobo$25131b2o3$25013bo$
25013b2o$25012bobo16$25108bo$25108bobo$25108b2o3$24990bo$24990b2o$
24989bobo38$25063bo$24949b2o111bo$24948bobo111b3o$24950bo20$25040bo$
25040bobo$25040b2o23$25015bo$25014bo$25014b3o14$24886b2o$24887b2o$
24886bo44$24840b2o$24839bobo$24841bo30$24808bo$24808b2o$24807bobo41$
24765bo$24765b2o$24764bobo21$24742bo$24742b2o$24741bobo6$24848bo$
24846b2o$24847b2o24$24708b2o$24709b2o$24708bo27$24792bobo$24792b2o$
24793bo22$24655bo$24655b2o$24654bobo21$24632bo$24632b2o$24631bobo6$
24737bo$24737bobo$24737b2o21$24714bo$24714bobo$24714b2o$24598b2o$
24599b2o$24598bo41$24555bo$24555b2o$24554bobo21$24532bo$24532b2o$
24531bobo32$24498b2o$24499b2o$24498bo21$24475bo$24475b2o$24474bobo21$
24452bo$24452b2o$24451bobo12$24552bo$24550b2o$24551b2o25$24411b2o$
24410bobo$24412bo26$24496bobo$24496b2o$24497bo22$24359bo$24359b2o$
24358bobo21$24336bo$24336b2o$24335bobo6$24441bo$24441bobo$24441b2o21$
24418bo$24418bobo$24418b2o8$24295b2o$24294bobo$24296bo18$24388bobo$
24388b2o$24389bo43$24343bo$24342bo$24342b3o11$24217bo$24217b2o$24216bo
bo21$24194bo$24194b2o$24193bobo5$24300bo$24299bo$24299b3o25$24160b2o$
24161b2o$24160bo14$24257bo$24256bo$24256b3o5$24137bo$24137b2o$24136bob
o21$24114bo$24114b2o$24113bobo39$24073b2o$24072bobo$24074bo52$24019bo$
24019b2o$24018bobo21$23996bo$23996b2o$23995bobo20$24088bo$24086b2o$
24087b2o17$23955b2o$23954bobo$23956bo34$24032bobo$24032b2o$24033bo2$
23915bo$23915b2o$23914bobo21$23892bo$23892b2o$23891bobo26$23977bo$
23977bobo$23977b2o11$23851b2o$23850bobo$23852bo8$23954bo$23954bobo$
23954b2o32$23807bo$23807b2o$23806bobo21$23784bo$23784b2o110bo$23783bob
o109bo$23895b3o22$23872bo$23871bo$23871b3o14$23743b2o$23742bobo$23744b
o35$23819bo$23818bo$23818b3o21$23683bo$23683b2o$23682bobo20$23774bo$
23660bo112bo$23660b2o111b3o$23659bobo21$23750bo$23750bobo$23750b2o9$
23626b2o$23627b2o$23626bo12$23725bo$23724bo$23724b3o13$23597bo$23597b
2o$23596bobo21$23574bo$23574b2o$23573bobo39$23533b2o$23532bobo111bo$
23534bo109b2o$23645b2o48$23595bo$23594bo$23594b3o5$23475bo$23475b2o$
23474bobo21$23452bo$23452b2o$23451bobo39$23411b2o$23410bobo$23412bo74$
23335bo$23335b2o$23334bobo23$23424bo$23309b3o110b2o$23311bo111b2o$
23310bo42$23265bo$23265b2o$23264bobo8$23368bobo$23368b2o$23369bo53$
23313bo$23313bobo$23313b2o21$23290bo$23290bobo$23290b2o4$23171bo$
23171b2o$23170bobo21$23148bo$23148b2o$23147bobo15$23244bo$23244bobo$
23244b2o22$23107b2o$23106bobo$23108bo8$23210bo$23209bo$23209b3o23$
23186bo$23184b2o$23185b2o22$23161bo$23160bo$23160b3o5$23041bo$23041b2o
$23040bobo21$23018bo$23018b2o$23017bobo39$22977b2o$22976bobo$22978bo
54$22921bo$22921b2o$22920bobo21$22898bo$22898b2o$22897bobo39$22857b2o$
22856bobo$22858bo9$22960bo$22958b2o$22959b2o50$22794b2o$22795b2o$
22794bo$22904bobo$22904b2o$22905bo41$22748b2o$22747bobo$22749bo10$
22849bo$22849bobo$22849b2o18$22716bo$22716b2o$22715bobo$22826bo$22826b
obo$22826b2o28$22683bo$22683b2o$22682bobo16$22778bo$22778bobo$22778b2o
3$22660bo$22660b2o$22659bobo27$22744bo$22743bo$22743b3o10$22619b2o$
22618bobo$22620bo11$22720bo$22718b2o$22719b2o22$22695bo$22694bo$22694b
3o7$22573bo$22573b2o$22572bobo21$22550bo$22550b2o$22549bobo32$22516b2o
$22517b2o$22516bo32$22482b2o$22483b2o$22482bo51$22429b3o$22431bo$
22430bo19$22522bo$22520b2o$22521b2o22$22384bo$22384b2o$22383bobo27$
22355bo$22355b2o$22354bobo109bobo$22466b2o$22467bo19$22332bo$22332b2o$
22331bobo32$22411bo$22411bobo$22411b2o5$22291b2o$22290bobo$22292bo14$
22388bo$22388bobo$22388b2o36$22237bo$22237b2o$22236bobo21$22214bo$
22214b2o$22213bobo9$22316bo$22315bo$22315b3o21$22180b2o$22181b2o109bo$
22180bo110bo$22291b3o30$22147bo$22147b2o$22146bobo19$22239bo$22238bo$
22124bo113b3o$22124b2o$22123bobo32$22090b2o$22091b2o$22090bo18$22183bo
bo$22183b2o$22184bo18$22050b2o$22051b2o$22050bo4$22157bo$22157bobo$
22157b2o30$22126bo$22124b2o$22125b2o6$22004b2o$22003bobo$22005bo30$
21972bo$21972b2o$21971bobo12$22071bo$22070bo$22070b3o29$21927bo$21927b
2o$21926bobo21$21904bo$21904b2o110bo$21903bobo109bo$22015b3o22$21992bo
$21991bo$21991b3o7$21870b2o$21871b2o$21870bo29$21839bo$21839b2o$21838b
obo11$21939bo$21938bo$21938b3o11$21813b3o$21815bo$21814bo14$21910bobo$
21910b2o$21911bo26$21769bo$21769b2o$21768bobo15$21865bo$21864bo$21864b
3o41$21822bo$21821bo$21821b3o32$21675bo$21675b2o$21674bobo7$21779bo$
21778bo$21778b3o12$21652bo$21652b2o$21651bobo39$21611b2o$21610bobo$
21612bo5$21718bo$21716b2o$21717b2o48$21667bo$21666bo$21666b3o3$21549bo
$21549b2o$21548bobo21$21526bo$21526b2o$21525bobo32$21492b2o$21493b2o$
21492bo21$21469bo$21469b2o$21468bobo21$21446bo$21446b2o$21445bobo39$
21405b2o$21404bobo$21406bo35$21482bo$21480b2o$21481b2o33$21333bo$
21333b2o$21332bobo18$21426bobo$21426b2o$21427bo4$21307b3o$21309bo$
21308bo42$21263bo$21263b2o$21262bobo3$21371bo$21371bobo$21371b2o21$
21348bo$21348bobo$21348b2o44$21302bo$21302bobo$21302b2o11$21176b2o$
21177b2o$21176bo19$21268bo$21267bo$21267b3o23$21244bo$21242b2o$21243b
2o5$21123b3o$21125bo$21124bo15$21219bo$21218bo$21218b3o26$21078bo$
21078b2o$21077bobo25$21051bo$21051b2o$21050bobo21$21028bo$21028b2o$
21027bobo$21138bo$21137bo$21137b3o22$21114bo$21113bo$21113b3o12$20987b
2o$20986bobo$20988bo37$21061bo$21060bo$21060b3o17$20929bo$20929b2o$
20928bobo21$20906bo$20906b2o$20905bobo10$21007bobo$21007b2o$21008bo24$
20981bo$20981bobo$20981b2o$20865b2o$20864bobo$20866bo27$20950bo$20948b
2o$20949b2o35$20799bo$20799b2o$20798bobo15$20895bo$20894bo$20894b3o7$
20773b3o$20775bo$20774bo42$20729bo$20729b2o$20728bobo82$20645bo$20645b
2o$20644bobo21$20622bo$20622b2o$20621bobo24$20710bo$20708b2o$20709b2o
13$20581b2o$20580bobo$20582bo38$20654bobo$20654b2o$20655bo11$20528b2o$
20529b2o$20528bo40$20599bo$20599bobo$20599b2o9$20475b3o$20477bo$20476b
o10$20576bo$20576bobo$20576b2o31$20430bo$20430b2o$20429bobo33$20508bo$
20507bo$20507b3o22$20484bo$20483bo$20483b3o4$20365bo$20365b2o$20364bob
o21$20342bo$20342b2o$20341bobo22$20431bo$20430bo$20430b3o15$20301b2o$
20300bobo$20302bo22$20390bo$20389bo$20389b3o22$20366bo$20365bo$20365b
3o2$20249bo$20249b2o$20248bobo21$20226bo$20226b2o$20225bobo24$20313bo$
20312bo$20312b3o13$20185b2o$20184bobo$20186bo37$20259bobo$20259b2o$
20260bo17$20127bo$20127b2o$20126bobo5$20233bo$20233bobo$20233b2o14$
20104bo$20104b2o$20103bobo14$20202bo$20200b2o$20201b2o23$20063b2o$
20062bobo$20064bo27$20147bo$20146bo$20146b3o10$20022b2o$20023b2o$
20022bo29$20104bo$20103bo$20103b3o20$19969b3o$19971bo$19970bo109bo$
20080bobo$20080b2o23$20055bo$20054bo$20054b3o16$19924bo$19924b2o$
19923bobo45$19877bo$19877b2o$19876bobo21$19854bo$19854b2o$19853bobo32$
19820b2o$19821b2o$19820bo22$19796b3o$19798bo$19797bo39$19755bo$19755b
2o$19754bobo3$19864bo$19862b2o$19863b2o16$19732bo$19732b2o$19731bobo
35$19808bobo$19808b2o$19809bo2$19691b2o$19690bobo$19692bo49$19753bo$
19753bobo$19753b2o7$19631bo$19631b2o$19630bobo12$19730bo$19730bobo$
19730b2o7$19608bo$19608b2o$19607bobo32$19574b2o$19575b2o$19574bo$
19684bo$19684bobo$19684b2o20$19549bo$19549b2o$19548bobo10$19650bo$
19649bo$19649b3o9$19526bo$19526b2o$19525bobo12$19626bo$19624b2o$19625b
2o18$19492b2o$19493b2o$19492bo2$19601bo$19600bo$19600b3o28$19458b2o$
19459b2o$19458bo33$19536bo$19535bo$19535b3o9$19412b2o$19411bobo$19413b
o11$19512bo$19511bo$19511b3o17$19380bo$19380b2o$19379bobo32$19459bo$
19458bo$19344b2o112b3o$19345b2o$19344bo44$19298b2o$19297bobo$19299bo
30$19266bo$19266b2o$19265bobo38$19226b2o$19227b2o$19226bo40$19298bo$
19296b2o$19297b2o9$19173b3o$19175bo$19174bo42$19242bobo$19128bo113b2o$
19128b2o113bo$19127bobo34$19092b2o$19093b2o$19092bo16$19187bo$19187bob
o$19187b2o21$19164bo$19164bobo$19164b2o10$19039b3o$19041bo$19040bo42$
19108bo$18994bo112bo$18994b2o111b3o$18993bobo21$19084bo$19083bo$19083b
3o8$18961bo$18961b2o$18960bobo21$18938bo$18938b2o$18937bobo18$19031bo$
19030bo$19030b3o12$18904b2o$18905b2o$18904bo23$18879bo$18879b2o$18878b
obo21$18856bo$18856b2o$18855bobo39$18815b2o$18814bobo$18816bo75$18852b
o$18850b2o$18851b2o3$18733bo$18733b2o$18732bobo24$18707b3o$18709bo$
18708bo22$18796bobo$18796b2o$18797bo18$18663bo$18663b2o$18662bobo33$
18741bo$18741bobo$18741b2o21$18718bo$18718bobo$18718b2o35$18568b2o$
18569b2o$18568bo19$18660bo$18659bo$18659b3o22$18636bo$18635bo$18635b3o
6$18515b3o$18517bo$18516bo43$18470bo112bo$18470b2o110bo$18469bobo110b
3o22$18446b2o$18447b2o$18446bo9$18548bo$18547bo$18547b3o11$18422b2o$
18423b2o$18422bo9$18524bo$18523bo$18523b3o23$18386b3o$18388bo$18387bo
26$18471bo$18470bo$18470b3o2$18354b2o$18353bobo$18355bo33$18319bo$
18319b2o$18318bobo15$18415bobo$18415b2o$18416bo4$18296bo$18296b2o$
18295bobo18$18389bo$18389bobo$18389b2o19$18255b2o$18254bobo$18256bo9$
18358bo$18356b2o$18357b2o52$18303bo$18302bo$18302b3o17$18171bo$18171b
2o$18170bobo21$18148bo$18148b2o$18147bobo32$18114b2o$18115b2o$18114bo
23$18089bo$18089b2o$18088bobo21$18066bo$18066b2o$18065bobo36$18142bo$
18140b2o$18141b2o$18025b2o$18024bobo$18026bo50$18086bobo$18086b2o$
18087bo4$17967bo$17967b2o$17966bobo21$17944bo$17944b2o$17943bobo24$
18031bo$18031bobo$18031b2o6$17910b2o$17911b2o$17910bo13$18008bo$18008b
obo$18008b2o21$17872b2o$17873b2o$17872bo29$17954bo$17953bo$17953b3o13$
17826b2o$17825bobo$17827bo7$17930bo$17929bo$17929b3o21$17794bo$17794b
2o$17793bobo26$17766b2o$17767b2o$17766bo110bo$17876bo$17876b3o49$
17713b3o110bo$17715bo109bo$17714bo110b3o22$17802bo$17801bo$17801b3o19$
17668bo$17668b2o$17667bobo30$17749bo$17748bo$17748b3o9$17625bo$17625b
2o$17624bobo21$17602bo$17602b2o$17601bobo15$17698bo$17697bo$17697b3o
15$17568b2o$17569b2o$17568bo5$17674bo$17673bo$17673b3o21$17538b2o$
17539b2o$17538bo28$17621bo$17620bo$17620b3o21$17485b3o$17487bo$17486bo
16$17580bo$17579bo$17579b3o22$17556bo$17556bobo$17556b2o$17440bo$
17440b2o$17439bobo20$17531bo$17530bo$17530b3o25$17391bo$17391b2o$
17390bobo19$17484bo$17482b2o$17368bo114b2o$17368b2o$17367bobo32$17334b
2o$17335b2o$17334bo12$17433bo$17432bo$17432b3o11$17307bo$17307b2o$
17306bobo21$17284bo$17284b2o$17283bobo2$17393bo$17393bobo$17393b2o28$
17250b2o$17251b2o$17250bo25$17223bo$17223b2o111bo$17222bobo109b2o$
17335b2o20$17200bo$17200b2o$17199bobo2$17309bo$17308bo$17308b3o35$
17159b2o$17158bobo$17160bo5$17265bo$17265bobo$17265b2o47$17103bo$
17103b2o$17102bobo7$17208bo$17206b2o$17207b2o12$17080bo$17080b2o$
17079bobo10$17181bo$17180bo$17180b3o27$17039b2o$17038bobo$17040bo9$
17141bo$17141bobo$17141b2o39$16987bo$16987b2o$16986bobo15$17084bo$
17082b2o$17083b2o4$16964bo$16964b2o$16963bobo18$17057bo$17056bo$17056b
3o12$16930b2o$16931b2o$16930bo36$17006bo$17004b2o$17005b2o11$16879bo$
16879b2o$16878bobo21$16856bo$16856b2o$16855bobo12$16955bo$16954bo$
16954b3o25$16815b2o$16814bobo$16816bo38$16888bo$16887bo$16887b3o14$
16759bo$16759b2o$16758bobo6$16864bo$16863bo$16863b3o13$16736bo$16736b
2o$16735bobo36$16811bo$16810bo$16810b3o$16695b2o$16694bobo$16696bo30$
16776bo$16775bo$16775b3o22$16752bo$16752bobo$16752b2o13$16624b2o$
16625b2o$16624bo8$16727bo$16726bo$16726b3o41$16571b3o$16573bo$16572bo
43$16526bo$16526b2o$16525bobo21$16503bo$16503b2o$16502bobo24$16477bo$
16477b2o$16476bobo29$16560bo$16558b2o$16559b2o22$16422b2o$16421bobo$
16423bo29$16504bobo$16504b2o$16505bo27$16362b2o$16363b2o$16362bo24$
16449bo$16449bobo$16449b2o2$16332b2o$16333b2o$16332bo17$16426bo$16426b
obo$16426b2o25$16286b2o$16285bobo$16287bo30$16254bo$16254b2o$16253bobo
30$16222b2o$16223b2o$16222bo44$16176b2o$16175bobo$16177bo28$16260bo$
16258b2o$16144bo114b2o$16144b2o$16143bobo37$16105bo$16105b2o$16104bobo
12$16204bobo$16204b2o$16205bo7$16082bo$16082b2o$16081bobo32$16048b2o$
16049b2o$16048bo10$16149bo$16149bobo$16149b2o15$16019bo$16019b2o$
16018bobo4$16126bo$16126bobo$16126b2o15$15996bo$15996b2o$15995bobo14$
16093bo$16093bobo$16093b2o23$15955b2o$15954bobo$15956bo31$16036bo$
16034b2o$16035b2o10$15910b2o$15911b2o$15910bo12$16009bo$16008bo$16008b
3o30$15864b2o$15863bobo$15865bo20$15956bo$15954b2o$15955b2o8$15832bo$
15832b2o$15831bobo38$15792b2o111bo$15793b2o109bo$15792bo111b3o51$
15739b3o$15741bo$15740bo4$15846bo$15845bo$15845b3o22$15822bo$15821bo$
15821b3o13$15694bo$15694b2o$15693bobo36$15769bo$15768bo$15768b3o9$
15645bo$15645b2o$15644bobo24$15619bo$15619b2o$15618bobo6$15724bo$
15724bobo$15724b2o32$15690bo$15689bo$15689b3o11$15564b2o$15563bobo$
15565bo10$15666bo$15664b2o$15665b2o22$15641bo$15640bo$15640b3o22$
15504b2o$15505b2o$15504bo29$15473bo$15473b2o$15472bobo21$15450bo$
15450b2o$15449bobo50$15398b2o$15397bobo$15399bo42$15468bo$15466b2o$
15467b2o4$15348b3o$15350bo$15349bo26$15320b2o$15321b2o$15320bo19$
15412bobo$15412b2o$15413bo23$15274b2o$15273bobo$15275bo28$15357bo$
15357bobo$15242bo114b2o$15242b2o$15241bobo19$15334bo$15334bobo$15334b
2o$15218b2o$15219b2o$15218bo50$15280bo$15165b3o110b2o$15167bo111b2o$
15166bo43$15120bo$15120b2o$15119bobo2$15229bo$15228bo$15228b3o18$
15096b2o$15097b2o$15096bo47$15047b2o$15048b2o$15047bo35$15010b2o$
15011b2o$15010bo56$15066bo$15064b2o$15065b2o14$14936b2o$14937b2o$
14936bo37$15010bobo$15010b2o$15011bo8$14887b2o$14888b2o$14887bo43$
14842bo112bo$14842b2o111bobo$14841bobo111b2o21$14932bo$14932bobo$
14932b2o31$14899bo$14899bobo$14899b2o50$14734b3o$14736bo$14735bo4$
14842bo$14840b2o$14841b2o22$14704b2o$14705b2o$14704bo110bo$14814bo$
14814b3o28$14785bo$14785bobo$14785b2o12$14658b2o$14657bobo$14659bo30$
14626bo$14626b2o$14625bobo10$14728bo$14726b2o$14727b2o24$14701bo$
14700bo$14700b3o11$14575bo$14575b2o$14574bobo21$14552bo$14552b2o$
14551bobo20$14644bo$14642b2o$14643b2o17$14511b2o$14510bobo$14512bo29$
14593bo$14592bo$14592b3o25$14453bo$14453b2o$14452bobo21$14430bo$14430b
2o$14429bobo23$14518bo$14517bo$14517b3o22$14494bo$14493bo$14493b3o3$
14376b3o$14378bo$14377bo31$14343bo$14343b2o$14342bobo13$14441bo$14440b
o$14440b3o10$14316b2o$14317b2o$14316bo28$14400bo$14398b2o$14399b2o21$
14263b3o$14265bo$14264bo25$14349bo$14348bo$14348b3o16$14218bo$14218b2o
$14217bobo20$14309bo$14308bo$14308b3o15$14179bo$14179b2o$14178bobo4$
14286bo$14286bobo$14286b2o15$14156bo$14156b2o$14155bobo6$14261bo$
14260bo$14260b3o31$14115b2o$14114bobo$14116bo$14225bo$14224bo$14224b3o
21$14202bo$14202bobo$14202b2o23$14177bo$14176bo$14176b3o8$14054b2o$
14055b2o$14054bo22$14030b2o$14031b2o$14030bo43$13985b2o$13986b2o$
13985bo38$13945b2o$13946b2o$13945bo59$13998bo$13996b2o$13997b2o11$
13871bo$13871b2o$13870bobo21$13848bo$13848b2o$13847bobo17$13942bobo$
13942b2o$13943bo13$13814b2o$13815b2o$13814bo23$13789bo$13789b2o$13788b
obo13$13887bo$13887bobo$13887b2o6$13766bo$13766b2o$13765bobo13$13864bo
$13864bobo$13864b2o17$13732b2o$13733b2o$13732bo23$13820bo$13820bobo$
13820b2o14$13691bo$13691b2o$13690bobo16$13786bo$13785bo$13785b3o3$
13668bo$13668b2o$13667bobo18$13762bo$13760b2o$13761b2o12$13634b2o$
13635b2o$13634bo8$13737bo$13736bo$13736b3o26$13596b2o$13597b2o$13596bo
20$13687bo$13687bobo$13687b2o22$13550b2o$13549bobo$13551bo30$13518bo$
13518b2o$13517bobo110bo$13628b2o$13629b2o24$13603bo$13602bo$13602b3o
13$13475bo$13475b2o$13474bobo21$13452bo$13452b2o$13451bobo20$13544bo$
13542b2o$13543b2o17$13411b2o$13410bobo$13412bo29$13493bo$13492bo$
13492b3o24$13354b2o$13355b2o$13354bo51$13301b3o$13303bo110bo$13302bo
109b2o$13413b2o42$13256bo$13256b2o$13255bobo4$13363bo$13362bo$13362b3o
27$13221bo$13221b2o$13220bobo21$13198bo$13198b2o$13197bobo30$13280bo$
13278b2o$13164b2o113b2o$13165b2o$13164bo21$13141bo$13141b2o$13140bobo
21$13118bo$13118b2o$13117bobo109bo$13228bo$13228b3o30$13084b2o$13085b
2o$13084bo27$13055bo$13055b2o$13054bobo5$13161bo$13160bo$13160b3o14$
13032bo$13032b2o$13031bobo5$13138bo$13138bobo$13138b2o23$13113bo$
13112bo$13112b3o7$12991b2o$12990bobo$12992bo58$12931bo$12931b2o$12930b
obo21$12908bo$12908b2o$12907bobo39$12867b2o$12866bobo$12868bo27$12952b
o$12950b2o$12951b2o23$12813bo$12813b2o$12812bobo21$12790bo$12790b2o$
12789bobo5$12896bobo$12896b2o$12897bo32$12749b2o$12748bobo$12750bo19$
12841bo$12841bobo$12841b2o21$12818bo$12818bobo$12818b2o5$12698b2o$
12699b2o$12698bo22$12787bo$12786bo$12786b3o21$12764bo$12764bobo$12764b
2o4$12645b3o$12647bo$12646bo17$12739bo$12738bo$12738b3o24$12600bo$
12600b2o$12599bobo24$12574b2o$12575b2o$12574bo44$12528b2o$12527bobo$
12529bo30$12496bo$12496b2o$12495bobo39$12455bo$12455b2o$12454bobo7$
12560bo$12558b2o$12559b2o12$12432bo$12432b2o$12431bobo32$12398b2o$
12399b2o$12398bo5$12504bobo$12504b2o$12505bo15$12374b2o$12375b2o$
12374bo36$12449bo$12449bobo$12449b2o13$12321b3o$12323bo$12322bo6$
12426bo$12426bobo$12426b2o35$12276bo$12276b2o$12275bobo9$12378bo$
12377bo$12377b3o12$12251bo$12251b2o$12250bobo8$12354bo$12353bo$12353b
3o11$12228bo$12228b2o$12227bobo38$12301bo$12187b2o111bo$12186bobo111b
3o$12188bo40$12258bo$12257bo$12257b3o22$12234bo$12233bo$12233b3o22$
12097bo$12097b2o$12096bobo21$12074bo$12074b2o$12073bobo4$12181bo$
12180bo$12180b3o26$12040b2o$12041b2o$12040bo9$12142bo$12142bobo$12142b
2o12$12015bo$12015b2o$12014bobo18$12108bo$12107bo$12107b3o$11992bo$
11992b2o$11991bobo20$12084bo$12082b2o$12083b2o17$11951b2o$11950bobo$
11952bo3$12059bo$12058bo$12058b3o39$11905bo$11905b2o$11904bobo21$
11882bo$11882b2o$11881bobo6$11988bo$11986b2o$11987b2o31$11841b2o$
11840bobo$11842bo15$11937bo$11936bo$11936b3o20$11802b3o$11804bo$11803b
o5$11908bobo$11908b2o$11909bo17$11776b2o$11777b2o$11776bo22$11752b2o$
11753b2o$11752bo110bo$11862bo$11862b3o41$11707b2o111bo$11708b2o109bo$
11707bo111b3o38$11667b2o$11668b2o$11667bo$11777bo$11776bo$11776b3o32$
11743bo$11742bo$11742b3o16$11612b2o$11613b2o$11612bo3$11720bo$11720bob
o$11720b2o23$11695bo$11694bo$11694b3o17$11563b2o$11564b2o$11563bo33$
11641bo$11640bo$11526b2o112b3o$11527b2o$11526bo19$11618bo$11618bobo$
11618b2o23$11593bo$11592bo$11592b3o2$11476b2o$11477b2o$11476bo44$
11430b2o$11429bobo$11431bo11$11530bo$11529bo$11529b3o17$11398bo$11398b
2o$11397bobo3$11506bo$11505bo$11505b3o37$11354b2o$11355b2o$11354bo12$
11453bo$11452bo$11452b3o37$11301b3o$11303bo$11302bo10$11402bo$11401bo$
11401b3o22$11378bo$11378bobo$11378b2o7$11256bo$11256b2o$11255bobo14$
11353bo$11352bo$11352b3o9$11229bo$11229b2o$11228bobo21$11206b2o$11207b
2o$11206bo50$11154b3o$11156bo$11155bo44$11108bo$11108b2o$11107bobo24$
11082b2o$11083b2o$11082bo6$11188bo$11186b2o$11187b2o36$11036b2o$11035b
obo$11037bo15$11132bobo$11132b2o$11133bo13$11004bo$11004b2o$11003bobo
38$11077bo$11077bobo$11077b2o19$10943bo$10943b2o$10942bobo109bo$11054b
obo$11054b2o19$10920bo$10920b2o$10919bobo29$11002bo$11001bo$11001b3o8$
10879b2o$10878bobo$10880bo12$10978bo$10977bo$10977b3o51$10925bo$10924b
o$10924b3o$10809bo$10809b2o$10808bobo24$10783b3o$10785bo$10784bo10$
10884bo$10884bobo$10884b2o30$10739bo$10739b2o$10738bobo109bo$10849bo$
10849b3o23$10826bo$10824b2o$10825b2o22$10801bo$10800bo$10800b3o41$
10645bo$10645b2o$10644bobo21$10622bo$10622b2o$10621bobo7$10726bo$
10725bo$10725b3o22$10702bo$10701bo$10701b3o6$10581b2o$10580bobo$10582b
o43$10649bo$10648bo$10648b3o11$10523bo$10523b2o$10522bobo21$10500bo$
10500b2o110bobo$10499bobo110b2o$10613bo38$10459b2o$10458bobo$10460bo
12$10559bo$10557b2o$10558b2o30$10526bo$10526bobo$10526b2o7$10404b2o$
10405b2o$10404bo44$10358b2o$10357bobo$10359bo109bo$10468bo$10468b3o28$
10326bo$10326b2o$10325bobo10$10428bo$10426b2o$10427b2o40$10272b2o$
10273b2o$10272bo6$10377bo$10376bo$10376b3o43$10219b3o$10221bo$10220bo
35$10296bo$10294b2o$10295b2o6$10174bo$10174b2o$10173bobo23$10149bo$
10149b2o$10148bobo15$10245bo$10244bo$10244b3o7$10123b3o$10125bo$10124b
o37$10197bobo$10197b2o$10198bo3$10079bo$10079b2o$10078bobo19$10171bo$
10171bobo$10171b2o30$10140bo$10138b2o$10139b2o51$9973bo$9973b2o110bo$
9972bobo109bo$10084b3o20$9950bo$9950b2o$9949bobo32$9916b2o$9917b2o$
9916bo$10026bo$10025bo$10025b3o21$9890b2o$9891b2o109bo$9890bo110bo$
10001b3o43$9844b2o$9843bobo$9845bo6$9949bo$9948bo$9948b3o22$9812bo$
9812b2o$9811bobo7$9916bo$9915bo$9915b3o22$9892bo$9891bo$9891b3o21$
9756b2o$9757b2o$9756bo28$9839bo$9838bo$9838b3o14$9710b2o$9709bobo$
9711bo19$9802bo$9802bobo$9802b2o9$9678bo$9678b2o$9677bobo21$9768bo$
9767bo$9767b3o13$9640b2o$9641b2o$9640bo8$9744bo$9742b2o$9743b2o22$
9719bo$9718bo$9718b3o10$9594b2o$9593bobo$9595bo30$9562bo$9562b2o$9561b
obo19$9654bo$9653bo$9653b3o20$9519bo$9519b2o$9518bobo109bo$9629bo$
9629b3o19$9496bo$9496b2o$9495bobo30$9577bo$9576bo$9576b3o7$9455b2o$
9454bobo$9456bo22$9544bo$9543bo$9543b3o22$9520bo$9519bo$9519b3o10$
9395bo$9395b2o$9394bobo21$9372bo$9372b2o$9371bobo16$9467bo$9466bo$
9466b3o14$9338b2o$9339b2o$9338bo24$9312b2o$9313b2o$9312bo3$9420bo$
9419bo$9419b3o22$9396bo$9396bobo$9396b2o15$9266b2o$9265bobo$9267bo6$
9371bo$9370bo$9370b3o22$9234bo$9234b2o$9233bobo20$9325bo$9324bo$9324b
3o21$9302bo$9302bobo$9187bo114b2o$9187b2o$9186bobo21$9164bo112bo$9164b
2o110bo$9163bobo110b3o32$9130b2o$9131b2o$9130bo39$9089bo$9089b2o$9088b
obo21$9066bo$9066b2o$9065bobo59$9005b2o$9006b2o$9005bo21$8982b3o$8984b
o$8983bo8$9086bo$9084b2o$9085b2o12$8958b2o$8959b2o$8958bo39$9030bobo$
9030b2o$9031bo3$8912b2o$8911bobo$8913bo30$8880bo$8880b2o$8879bobo16$
8975bo$8975bobo$8975b2o21$8952bo$8952bobo$8952b2o5$8832b2o$8833b2o$
8832bo44$8786b2o$8785bobo$8787bo$8896bo$8895bo$8895b3o22$8872bo$8871bo
$8871b3o3$8754bo$8754b2o$8753bobo46$8819bo$8818bo$8818b3o3$8701bo$
8701b2o$8700bobo18$8794bobo$8794b2o$8795bo$8678bo$8678b2o$8677bobo32$
8644b2o$8645b2o$8644bo6$8749bo$8748bo$8748b3o23$8611bo$8611b2o$8610bob
o16$8706bo$8705bo$8705b3o3$8588bo$8588b2o$8587bobo32$8554b2o$8555b2o$
8554bo2$8663bo$8662bo$8662b3o34$8514b2o$8515b2o$8514bo17$8608bo$8607bo
$8607b3o22$8584bo$8583bo$8583b3o8$8461b3o$8463bo$8462bo41$8531bo$8530b
o$8416bo113b3o$8416b2o$8415bobo22$8392b2o$8393b2o$8392bo9$8494bo$8494b
obo$8494b2o32$8460bo$8459bo$8459b3o2$8343b2o$8344b2o$8343bo19$8436bo$
8434b2o$8435b2o14$8306b2o$8307b2o$8306bo6$8411bo$8410bo$8410b3o58$
8238b2o$8239b2o$8238bo44$8192b2o$8191bobo$8193bo30$8160bo$8160b2o$
8159bobo25$8133bo$8133b2o$8132bobo21$8110bo$8110b2o$8109bobo39$8069b2o
$8068bobo$8070bo23$8157bo$8157bobo$8157b2o23$8019bo$8019b2o$8018bobo5$
8126bo$8124b2o$8125b2o14$7996bo$7996b2o$7995bobo28$8079bo$8078bo$8078b
3o2$7962b2o$7963b2o$7962bo18$8055bo$8055bobo$8055b2o2$7938b3o$7940bo$
7939bo40$8009bobo$8009b2o$8010bo$7893bo$7893b2o$7892bobo21$7870bo$
7870b2o$7869bobo24$7957bo$7956bo$7956b3o13$7829b2o$7828bobo$7830bo30$
7911bo$7909b2o$7910b2o24$7771bo$7771b2o$7770bobo13$7869bo$7869bobo$
7869b2o6$7748bo$7748b2o$7747bobo13$7846bo$7846bobo$7846b2o17$7714b2o$
7715b2o$7714bo30$7682b2o$7683b2o$7682bo2$7791bo$7791bobo$7791b2o30$
7760bo$7758b2o$7759b2o15$7629b3o$7631bo$7630bo27$7713bo$7712bo$7712b3o
14$7584bo$7584b2o$7583bobo16$7679bo$7679bobo$7679b2o7$7557bo$7557b2o$
7556bobo24$7531b3o$7533bo$7532bo9$7633bobo$7633b2o$7634bo31$7487bo$
7487b2o$7486bobo17$7581bo$7580bo$7580b3o45$7535bo$7533b2o$7534b2o20$
7399bo$7399b2o$7398bobo17$7493bo$7493bobo$7493b2o2$7376bo$7376b2o$
7375bobo17$7470bo$7470bobo$7470b2o20$7335b2o$7334bobo$7336bo32$7415bo$
7413b2o$7414b2o30$7269bo$7269b2o$7268bobo7$7373bo$7373bobo$7373b2o12$
7246bo$7246b2o$7245bobo7$7350bo$7350bobo$7350b2o23$7212b2o$7213b2o$
7212bo4$7319bo$7319bobo$7319b2o23$7181bo$7181b2o$7180bobo5$7288bo$
7286b2o$7287b2o14$7158bo$7158b2o$7157bobo28$7241bo$7240bo$7240b3o2$
7124b2o$7125b2o$7124bo20$7215bo$7215bobo$7215b2o$7099bo$7099b2o$7098bo
bo21$7076bo$7076b2o$7075bobo18$7169bobo$7169b2o$7170bo19$7035b2o$7034b
obo$7036bo29$7117bo$7116bo$7116b3o32$6970b2o$6971b2o$6970bo13$7069bo$
7067b2o$7068b2o36$6917b3o$6919bo$6918bo$7027bo$7027bobo$7027b2o21$
7004bo$7004bobo$7004b2o17$6872bo$6872b2o$6871bobo31$6839bo$6839b2o$
6838bobo2$6949bo$6947b2o$6948b2o17$6816bo$6816b2o$6815bobo20$6907bo$
6907bobo$6907b2o10$6782b2o$6783b2o$6782bo9$6884bo$6884bobo$6884b2o25$
6857bo$6856bo$6856b3o19$6723bo$6723b2o$6722bobo21$6700bo$6700b2o$6699b
obo14$6798bo$6796b2o$6797b2o16$6666b2o$6667b2o$6666bo31$6633bo$6633b2o
$6632bobo2$6742bo$6742bobo$6742b2o17$6610bo$6610b2o$6609bobo5$6716bo$
6716bobo$6716b2o25$6576b2o$6577b2o$6576bo33$6541bo$6541b2o$6540bobo10$
6643bo$6641b2o$6642b2o9$6518bo$6518b2o$6517bobo28$6601bo$6601bobo$
6601b2o2$6484b2o$6485b2o$6484bo17$6578bo$6578bobo$6578b2o10$6453bo$
6453b2o$6452bobo17$6547bo$6546bo$6546b3o2$6430bo$6430b2o$6429bobo28$
6513bo$6513bobo$6513b2o2$6396b2o$6397b2o$6396bo17$6490bo$6490bobo$
6490b2o28$6347bo$6347b2o$6346bobo$6457bo$6456bo$6456b3o18$6324bo$6324b
2o$6323bobo12$6423bo$6423bobo$6423b2o18$6290b2o$6291b2o$6290bo$6400bo$
6400bobo$6400b2o24$6261bo$6261b2o$6260bobo18$6355bo$6353b2o$6354b2o$
6238bo$6238b2o$6237bobo36$6313bo$6313bobo$6313b2o$6197b2o$6196bobo$
6198bo18$6290bo$6290bobo$6290b2o34$6141bo$6141b2o$6140bobo6$6247bo$
6245b2o$6246b2o13$6118bo$6118b2o$6117bobo24$6205bo$6205bobo$6205b2o6$
6084b2o$6085b2o$6084bo13$6182bo$6182bobo$6182b2o10$6057bo$6057b2o$
6056bobo21$6034bo$6034b2o$6033bobo15$6131bo$6129b2o$6130b2o22$5993b2o$
5992bobo$5994bo15$6089bo$6089bobo$6089b2o21$6066bo$6066bobo$6066b2o9$
5942b2o$5943b2o$5942bo24$6029bo$6029bobo$6029b2o25$5889b3o$5891bo$
5890bo3$5998bo$5996b2o$5997b2o38$5844bo$5844b2o$5843bobo4$5951bo$5950b
o$5950b3o22$5814b2o111bo$5815b2o109bo$5814bo111b3o32$5893bo$5893bobo$
5893b2o10$5768b2o$5767bobo$5769bo9$5870bo$5870bobo$5870b2o19$5736bo$
5736b2o$5735bobo8$5839bo$5838bo$5838b3o12$5712b2o$5713b2o$5712bo18$
5805bo$5805bobo$5805b2o21$5782bo$5782bobo$5782b2o8$5659b3o$5661bo$
5660bo23$5747bo$5747bobo$5747b2o18$5614bo$5614b2o$5613bobo10$5716bo$
5714b2o$5715b2o18$5582b2o$5583b2o$5582bo24$5669bo$5668bo$5668b3o18$
5536b2o$5535bobo$5537bo22$5625bo$5625bobo$5625b2o6$5504bo$5504b2o$
5503bobo22$5594bo$5592b2o$5593b2o23$5455bo$5455b2o$5454bobo19$5547bo$
5546bo$5432bo113b3o$5432b2o$5431bobo39$5391b2o$5390bobo$5392bo21$5481b
o$5481bobo$5481b2o30$5450bo$5448b2o$5449b2o5$5329bo$5329b2o$5328bobo
21$5306bo$5306b2o$5305bobo14$5403bo$5402bo$5402b3o16$5272b2o$5273b2o$
5272bo26$5244b2o111bo$5245b2o109bo$5244bo111b3o32$5323bo$5323bobo$
5323b2o17$5191b3o$5193bo$5192bo2$5300bo$5300bobo$5300b2o27$5271bo$
5270bo$5270b3o10$5146bo$5146b2o$5145bobo20$5237bo$5237bobo$5237b2o7$
5115bo$5115b2o$5114bobo12$5214bo$5214bobo$5214b2o10$5089b3o$5091bo$
5090bo38$5163bo$5161b2o$5162b2o2$5045bo$5045b2o$5044bobo35$5121bo$
5121bobo$5121b2o21$5098bo$5098bobo$5098b2o28$4955bo$4955b2o$4954bobo
21$4932bo$4932b2o111bo$4931bobo109b2o$5044b2o31$4898b2o$4899b2o$4898bo
6$5003bo$5003bobo$5003b2o21$4980bo$4980bobo$4980b2o4$4861bo$4861b2o$
4860bobo17$4955bo$4954bo$4954b3o2$4838bo$4838b2o$4837bobo28$4921bo$
4921bobo$4921b2o2$4804b2o$4805b2o$4804bo17$4898bo$4898bobo$4898b2o11$
4772b2o$4773b2o$4772bo41$4843bo$4841b2o$4842b2o$4726b2o$4725bobo$4727b
o30$4694bo$4694b2o$4693bobo4$4801bo$4801bobo$4801b2o21$4778bo$4778bobo
$4778b2o32$4631bo$4631b2o$4630bobo16$4727bo$4725b2o$4726b2o3$4608bo$
4608b2o$4607bobo32$4574b2o$4575b2o$4574bo110bo$4685bobo$4685b2o19$
4551bo$4551b2o$4550bobo109bo$4662bobo$4662b2o19$4528bo$4528b2o$4527bob
o51$4588bo$4587bo$4587b3o6$4467b2o$4468b2o$4467bo21$4444b3o$4446bo$
4445bo7$4548bo$4547bo$4547b3o13$4420b2o$4421b2o$4420bo28$4503bo$4502bo
$4502b3o14$4374b2o$4373bobo$4375bo6$4479bo$4478bo$4478b3o22$4342bo$
4342b2o$4341bobo47$4293bo$4293b2o$4292bobo8$4397bo$4395b2o$4396b2o11$
4270bo$4270b2o$4269bobo26$4355bo$4355bobo$4355b2o4$4236b2o$4237b2o$
4236bo15$4332bo$4332bobo$4332b2o23$4194b2o$4195b2o$4194bo110bo$4305bob
o$4305b2o30$4274bo$4272b2o$4273b2o17$4141b3o$4143bo$4142bo25$4227bo$
4226bo$4226b3o16$4096bo$4096b2o$4095bobo8$4199bo$4198bo$4198b3o21$
4063bo$4063b2o$4062bobo9$4165bo$4165bobo$4165b2o13$4037bo$4037b2o$
4036bobo6$4142bo$4142bobo$4142b2o31$4109bo$4108bo$4108b3o12$3982b2o$
3981bobo$3983bo18$4075bo$4075bobo$4075b2o21$4052bo$4052bobo$4052b2o15$
3922b2o$3923b2o$3922bo25$3895bo$3895b2o$3894bobo20$3987bo$3872bo112b2o
$3872b2o112b2o$3871bobo38$3945bo$3831b2o112bobo$3830bobo112b2o$3832bo
20$3922bo$3922bobo$3922b2o36$3771bo$3771b2o$3770bobo9$3873bo$3872bo$
3872b3o10$3748bo$3748b2o$3747bobo20$3839bo$3839bobo$3839b2o10$3714b2o$
3715b2o$3714bo9$3816bo$3816bobo$3816b2o18$3683bo$3683b2o$3682bobo21$
3660bo$3660b2o$3659bobo33$3739bo$3737b2o$3738b2o4$3619b2o$3618bobo$
3620bo33$3697bo$3697bobo$3697b2o6$3576b2o$3577b2o$3576bo13$3674bo$
3674bobo$3674b2o36$3523b3o$3525bo$3524bo43$3478bo$3478b2o$3477bobo3$
3586bo$3586bobo$3586b2o17$3454b2o$3455b2o$3454bo24$3541bobo$3541b2o$
3542bo21$3405b2o$3406b2o$3405bo110bo$3516bobo$3516b2o33$3368b2o$3369b
2o$3368bo37$3443bo$3441b2o$3442b2o39$3401bo$3401bobo$3401b2o3$3283bo$
3283b2o$3282bobo16$3378bo$3378bobo$3378b2o3$3260bo$3260b2o$3259bobo39$
3219b2o$3218bobo$3220bo10$3321bo$3319b2o$3320b2o39$3279bo$3279bobo$
3279b2o3$3161bo$3161b2o$3160bobo16$3256bo$3256bobo$3256b2o3$3138bo$
3138b2o$3137bobo28$3221bo$3220bo$3220b3o9$3097b2o$3096bobo$3098bo21$
3187bo$3187bobo$3187b2o21$3164bo$3164bobo$3164b2o22$3027bo$3027b2o$
3026bobo7$3131bo$3130bo$3130b3o12$3004bo$3004b2o$3003bobo18$3097bo$
3097bobo$3097b2o12$2970b2o$2971b2o$2970bo7$3074bo$3074bobo$3074b2o12$
2947bo$2947b2o$2946bobo21$2924bo$2924b2o$2923bobo32$2890b2o$2891b2o$
2890bo21$2980bo$2980bobo$2980b2o8$2857bo$2857b2o$2856bobo21$2834bo$
2834b2o$2833bobo10$2935bobo$2935b2o$2936bo20$2800b2o$2801b2o$2800bo$
2910bo$2910bobo$2910b2o25$2770b2o$2771b2o$2770bo32$2849bo$2849bobo$
2849b2o17$2717b3o$2719bo$2718bo11$2818bo$2816b2o$2817b2o30$2672bo$
2672b2o$2671bobo12$2771bo$2770bo$2770b3o10$2646b2o$2647b2o$2646bo12$
2745bo$2744bo$2744b3o32$2711bo$2711bobo$2711b2o3$2593b3o$2595bo$2594bo
16$2688bo$2688bobo$2688b2o25$2548bo$2548b2o$2547bobo8$2651bo$2650bo$
2650b3o13$2523bo$2523b2o$2522bobo17$2617bo$2617bobo$2617b2o5$2497bo$
2497b2o$2496bobo14$2594bo$2594bobo$2594b2o25$2567bo$2566bo$2566b3o10$
2442b2o$2441bobo$2443bo20$2533bo$2533bobo$2533b2o21$2510bo$2510bobo$
2510b2o13$2382b2o$2383b2o$2382bo26$2354b2o$2355b2o$2354bo25$2441bo$
2439b2o$2440b2o17$2308b2o$2307bobo$2309bo20$2399bo$2399bobo$2399b2o8$
2276bo$2276b2o$2275bobo11$2376bo$2376bobo$2376b2o30$2231bo$2231b2o$
2230bobo15$2327bo$2327bobo$2327b2o4$2208bo$2208b2o$2207bobo38$2281bobo
$2167b2o112b2o$2166bobo113bo$2168bo38$2127bo$2127b2o$2126bobo9$2229bo$
2228bo$2228b3o10$2104bo$2104b2o$2103bobo39$2063b2o112bo$2062bobo110b2o
$2064bo111b2o39$2135bo$2135bobo$2135b2o9$2011bo$2011b2o$2010bobo10$
2112bo$2112bobo$2112b2o9$1988bo$1988b2o$1987bobo36$2064bo$2062b2o$
2063b2o$1947b2o$1946bobo$1948bo47$2011bo$2011bobo$2011b2o4$1892b2o$
1893b2o$1892bo15$1988bo$1988bobo$1988b2o34$1839b3o$1841bo109bo$1840bo
109bo$1950b3o32$1917bo$1917bobo$1917b2o8$1794bo$1794b2o$1793bobo11$
1894bo$1894bobo$1894b2o16$1763bo$1763b2o$1762bobo21$1740bo$1740b2o$
1739bobo7$1845bo$1843b2o$1844b2o30$1699b2o$1698bobo$1700bo7$1803bo$
1803bobo$1803b2o21$1780bo$1780bobo$1780b2o19$1646b2o$1647b2o$1646bo35$
1723bo$1721b2o$1722b2o14$1593b3o$1595bo$1594bo23$1681bo$1681bobo$1681b
2o18$1548bo$1548b2o$1547bobo$1658bo$1658bobo$1658b2o21$1522b2o$1523b2o
$1522bo2$1631bo$1630bo$1630b3o18$1498b2o$1499b2o$1498bo12$1597bo$1597b
obo$1597b2o20$1462b3o$1464bo109bo$1463bo110bobo$1574b2o23$1549bo$1548b
o$1548b3o15$1419b3o$1421bo$1420bo15$1515bo$1515bobo$1515b2o21$1492bo$
1492bobo$1492b2o29$1461bo$1460bo$1460b3o27$1319bo$1319b2o$1318bobo3$
1427bo$1427bobo$1427b2o16$1296bo$1296b2o$1295bobo3$1404bo$1404bobo$
1404b2o21$1381bo$1381bobo$1381b2o4$1262b2o$1263b2o$1262bo22$1238b2o$
1239b2o$1238bo14$1335bobo$1335b2o$1336bo28$1192b2o$1191bobo$1193bo20$
1283bo$1282bo$1282b3o8$1160bo$1160b2o$1159bobo71$1087bo$1087b2o$1086bo
bo20$1178bo$1178bobo$1178b2o2$1061b3o$1063bo$1062bo39$1133bobo$1133b2o
$1134bo$1017bo$1017b2o$1016bobo20$1108bo$1108bobo$1108b2o23$1083bo$
1083bobo$1083b2o38$930b2o$931b2o$930bo4$1037bobo$1037b2o$1038bo41$881b
2o$882b2o$881bo7$985bo$984bo$984b3o26$844b2o$845b2o$844bo33$923bo$921b
2o$922b2o12$795bo$795b2o$794bobo21$772bo$772b2o$771bobo2$881bo$881bobo
$881b2o21$858bo$858bobo$858b2o12$731b2o$730bobo$732bo58$784bo$783bo$
783b3o2$667bo$667b2o$666bobo21$644bo$644b2o$643bobo11$744bo$743bo$743b
3o26$603b2o$602bobo$604bo15$699bo$698bo$698b3o22$675bo$674bo$674b3o17$
543bo$543b2o$542bobo17$637bo$637bobo$637b2o2$520bo$520b2o$519bobo32$
486b2o$487b2o$486bo6$591bobo$591b2o$592bo33$443bo$443b2o$442bobo15$
539bo$538bo$538b3o7$417b3o$419bo$418bo42$373bo$373b2o$372bobo10$475bo$
473b2o$474b2o39$433bo$433bobo$433b2o21$410bo$410bobo$410b2o16$279bo$
279b2o$278bobo9$381bo$380bo$380b3o10$256bo$256b2o$255bobo20$347bo$347b
obo$347b2o17$215b2o$214bobo$216bo2$324bo$324bobo$324b2o31$291bo$290bo$
290b3o$175bo$175b2o$174bobo21$152bo$152b2o$151bobo6$257bo$257bobo$257b
2o21$234bo$234bobo$234b2o8$111b2o$110bobo$112bo15$207bo$206bo$206b3o
32$173bo$173bobo$173b2o13$45bo$45b2o$44bobo6$150bo$150bobo$150b2o13$
16b2o4bo$7b2o7b2o4b2o$8bo12bobo$8bobo$2bo6b2o$2b3o$5bo$4b2o3$5b2o$5b2o
$22b2o$22bobo$24bo$24b2o7$18b2o93bo$18bo93bo$19b3o90b3o$21bo4$2b2o$bob
o$bo25b2o$2o25bo$8b2o15bobo$8b2o15b2o12$7b2o7b3o$6bobo8bo$6bo8b3o$5b2o
7$79bo$79bobo$79b2o6$15b2o$6b2o7b2o$7bo$7bobo$8b2o3$22b2o$22bobo$24bo$
24b2o3$45b2o$45bo$46b3o7bo$49bo6bobo$48b2o6b2o$63b2o$6b2o55bo$5bobo52b
2obo$5bo53bo2bo27b2o$4b2o54b2o28b2o$30b2o13b2o$30b2o13b2o5$6b2o$6b2o$
32b2o6bob2o$32bobo3b3ob2o$34bo2bo$6b2o26b2o2b3ob2o$6b2o32bobo$20b2o18b
obo10b2o$20bobo18bo11b2o$22bo$12b2o8b2o$13bo$10b3o$10bo!
