x = 39023, y = 39084, rule = B3/S23
38689b2o$38689b2o49$38674b2o$38674b2o7bo$38682bobo4bo$38681bo2bo3bobo$
38666bo15b2o4bo2bo$38665bobo21b2o28bo$38664bo2bo49b3o$38665b2o26bo22bo
$38681bo11b3o20b2o$38679b3o14bo$38663bo14bo16b2o$38663b3o12b2o$38666bo
$38665b2o3$38666b2o$38666b2o17b2o$38685b2o6$38682b2o32b2o$38682bo20b2o
11b2o$38683b3o18bo$38685bo15b3o$38679b2o20bo$38679bo49b2o$38680b3o47bo
$38682bo5bo14b2o22b3o$38687bobo13b2o22bo$38686bo2bo$38687b2o3$38688b2o
46b2o$38688bo42b2o3b2o$38669b2o15bobo42b2o$38669b2o15b2o2$38730b2o12b
2o$38731bo5b2o5bo$38722b2o4b3o6b2o6b3o$38721bo2bo3bo18bo$38722bobo$
38723bo5$38668b2o$38667bobo$38667bo$38666b2o61b2o$38729b2o7bo$38737bob
o4bo$38736bo2bo3bobo$38721bo15b2o4bo2bo$38720bobo21b2o28bo$38719bo2bo
49b3o$38720b2o26bo22bo$38668b2o66bo11b3o20b2o$38667bo2bo7b2o54b3o14bo$
38668b2o8b2o38bo14bo16b2o$38718b3o12b2o$38672bo48bo$38671bobo46b2o$
38671bobo$38672bo$38667b2o31b2o19b2o$38668bo19b2o10bobo18b2o17b2o$
38668bobo17bo7b2o3bo38b2o$38669b2o15bobo7bo$38681bo4b2o9b3o$38680bobo
16bo$38680bobo6b2o$38669b2o10bo7b2o$38668bobo66b2o32b2o$38668bo68bo20b
2o11b2o$38667b2o69b3o18bo$38682b2o56bo15b3o$38682bo51b2o20bo$38683b3o
48bo49b2o$38685bo49b3o47bo$38737bo5bo14b2o22b3o$38742bobo13b2o22bo$
38741bo2bo$38742b2o3$38743b2o46b2o$38743bo42b2o3b2o$38724b2o15bobo42b
2o$38724b2o15b2o2$38785b2o12b2o$38786bo5b2o5bo$38777b2o4b3o6b2o6b3o$
38776bo2bo3bo18bo$38777bobo$38778bo5$38723b2o$38722bobo$38722bo$38721b
2o61b2o$38784b2o7bo$38792bobo4bo$38791bo2bo3bobo$38776bo15b2o4bo2bo$
38775bobo21b2o28bo$38774bo2bo49b3o$38775b2o26bo22bo$38723b2o66bo11b3o
20b2o$38722bo2bo7b2o54b3o14bo$38723b2o8b2o38bo14bo16b2o$38773b3o12b2o$
38727bo48bo$38726bobo46b2o$38726bobo$38727bo$38722b2o31b2o19b2o$38723b
o19b2o10bobo18b2o17b2o$38723bobo17bo7b2o3bo38b2o$38724b2o15bobo7bo$
38736bo4b2o9b3o$38735bobo16bo$38735bobo6b2o$38724b2o10bo7b2o$38723bobo
66b2o32b2o$38723bo68bo20b2o11b2o$38722b2o69b3o18bo$38737b2o56bo15b3o$
38737bo51b2o20bo$38738b3o48bo49b2o$38740bo49b3o47bo$38792bo5bo14b2o22b
3o$38797bobo13b2o22bo$38796bo2bo$38797b2o3$38798b2o46b2o$38798bo42b2o
3b2o$38779b2o15bobo42b2o$38779b2o15b2o2$38840b2o12b2o$38841bo5b2o5bo$
38832b2o4b3o6b2o6b3o$38831bo2bo3bo18bo$38832bobo$38833bo5$38778b2o$
38777bobo$38777bo$38776b2o61b2o$38839b2o7bo$38847bobo4bo$38846bo2bo3bo
bo$38831bo15b2o4bo2bo$38830bobo21b2o28bo$38829bo2bo49b3o$38830b2o26bo
22bo$38778b2o66bo11b3o20b2o$38777bo2bo7b2o54b3o14bo$38778b2o8b2o38bo
14bo16b2o$38828b3o12b2o$38782bo48bo$38781bobo46b2o$38781bobo$38782bo$
38777b2o31b2o19b2o$38778bo19b2o10bobo18b2o17b2o$38778bobo17bo7b2o3bo
38b2o$38779b2o15bobo7bo$38791bo4b2o9b3o$38790bobo16bo$38790bobo6b2o$
38779b2o10bo7b2o$38778bobo66b2o32b2o$38778bo68bo20b2o11b2o$38777b2o69b
3o18bo$38792b2o56bo15b3o$38792bo51b2o20bo$38793b3o48bo49b2o$38795bo49b
3o47bo$38847bo5bo14b2o22b3o$38852bobo13b2o22bo$38851bo2bo$38852b2o3$
38853b2o46b2o$38853bo42b2o3b2o$38834b2o15bobo42b2o$38834b2o15b2o2$
38895b2o12b2o$38896bo5b2o5bo$38887b2o4b3o6b2o6b3o$38886bo2bo3bo18bo$
38887bobo$38888bo5$38833b2o$38832bobo$38832bo$38831b2o61b2o$38894b2o7b
o$38902bobo4bo$38901bo2bo3bobo$38886bo15b2o4bo2bo$38885bobo21b2o28bo$
38884bo2bo49b3o$38885b2o26bo22bo$38833b2o66bo11b3o20b2o$38832bo2bo7b2o
54b3o14bo$38833b2o8b2o38bo14bo16b2o$38883b3o12b2o$38837bo48bo$38836bob
o46b2o$38836bobo$38837bo$38832b2o31b2o19b2o$38833bo19b2o10bobo18b2o17b
2o$38833bobo17bo7b2o3bo38b2o$38834b2o15bobo7bo$38846bo4b2o9b3o$38845bo
bo16bo$38845bobo6b2o$38834b2o10bo7b2o$38833bobo66b2o32b2o$38833bo68bo
20b2o11b2o$38832b2o69b3o18bo$38847b2o56bo15b3o$38847bo51b2o20bo$38848b
3o48bo49b2o$38850bo49b3o47bo$38902bo5bo14b2o22b3o$38907bobo13b2o22bo$
38906bo2bo$38907b2o3$38908b2o46b2o$38908bo42b2o3b2o$38889b2o15bobo42b
2o$38889b2o15b2o2$38950b2o12b2o$38951bo5b2o5bo$38942b2o4b3o6b2o6b3o$
38941bo2bo3bo18bo$38942bobo$38943bo5$38888b2o$38887bobo$38887bo$38886b
2o61b2o$38949b2o7bo$38957bobo4bo$38956bo2bo3bobo$38941bo15b2o4bo2bo$
38940bobo21b2o28bo$38939bo2bo49b3o$38940b2o26bo22bo$38888b2o66bo11b3o
20b2o$38887bo2bo7b2o54b3o14bo$38888b2o8b2o38bo14bo16b2o$38938b3o12b2o$
38892bo48bo47bo$38891bobo46b2o46b3o$38891bobo97bo$38892bo94b3ob2o$
38887b2o31b2o19b2o43bo3b2o$38888bo19b2o10bobo18b2o17b2o25bo$38888bobo
17bo7b2o3bo38b2o25bobo$38889b2o15bobo7bo$38901bo4b2o9b3o$38900bobo16bo
$38900bobo6b2o80b2o$38889b2o10bo7b2o79bo2bo$38888bobo66b2o31b3o$38888b
o68bo20b2o11b2o$38887b2o69b3o18bo$38891bo10b2o56bo15b3o$38891b2o9bo51b
2o20bo$38890bobo10b3o48bo49b2o$38905bo49b3o47bo$38957bo5bo14b2o22b3o$
38962bobo13b2o22bo$38961bo2bo$38962b2o3$38963b2o46b2o$38963bo42b2o3b2o
$38944b2o15bobo42b2o$38944b2o15b2o2$39005b2o12b2o$39006bo5b2o5bo$
38997b2o4b3o6b2o6b3o$38996bo2bo3bo18bo$38997bobo$38998bo5$38943b2o$
38942bobo$38942bo$38941b2o61b2o$39004b2o6$38911bobo$38911b2o30b2o$
38912bo29bo2bo7b2o$38943b2o8b2o2$38947bo$38946bobo$38946bobo$38947bo$
38942b2o31b2o$38943bo19b2o10bobo$38943bobo17bo7b2o3bo$38944b2o15bobo7b
o$38948b2o6bo4b2o9b3o$38947bo2bo4bobo16bo$38948b2o5bobo6b2o$38944b2o
10bo7b2o$38943bobo$38943bo$38942b2o$38957b2o$38957bo$38958b3o$38960bo
65$38878b2o$38877bobo$38879bo21$38745bo$38745b2o$38744bobo125$38728bo$
38728b2o$38727bobo31$38585bo$38585b2o$38584bobo115$38578b2o$38577bobo$
38579bo30$38436b2o$38437b2o$38436bo116$38428b2o$38427bobo$38429bo68$
38193bo$38193bobo$38193b2o78$38278b2o$38277bobo$38279bo34$38187bobo$
38187b2o$38188bo29$38046bo$38045bo$38045b3o81$38128bo$38128b2o$38127bo
bo22$37994b2o$37993bobo$37995bo10$38037bobo$38037b2o$38038bo31$37894bo
$37894bobo$37894b2o79$37978b2o$37977bobo$37979bo27$37839b3o$37841bo$
37840bo5$37887bobo$37887b2o$37888bo32$37743bo$37742bo$37742b3o78$
37828b2o$37827bobo$37829bo34$37737bobo$37737b2o$37738bo112$37678bo$
37678b2o$37677bobo34$37587bobo$37587b2o$37588bo2$37528b2o$37527bobo$
37529bo28$37443bobo$37443b2o$37444bo78$37528b2o$37527bobo$37529bo34$
37437bobo$37437b2o$37438bo$37379b2o$37380b2o$37379bo118$37369bo$37369b
2o$37368bobo22$37235b3o$37237bo$37236bo124$37219b2o$37218bobo$37220bo
65$37207bo$37207bobo$37207b2o81$37069b2o$37068bobo$37070bo148$36919bo$
36919b2o$36918bobo21$36786b2o$36787b2o$36786bo137$36757b3o$36759bo$
36758bo3$36642b2o$36643b2o$36642bo68$36462b3o$36464bo$36463bo3$36347b
3o$36349bo$36348bo$36234bo$36234b2o$36233bobo63$36444bo$36443bo$36443b
3o54$36553b3o$36555bo$36554bo7$36434b2o$36435b2o$36434bo3$36319bo$
36319b2o$36318bobo45$36437bobo$36437b2o$36438bo12$36148b3o$36150bo$
36149bo3$36033bo$36033b2o$36032bobo6$35915b3o$35917bo$35916bo60$36403b
2o$36404b2o$36403bo2$36289b2o$36288bobo$36290bo4$36173b3o$36175bo$
36174bo49$36287bobo$36287b2o$36288bo12$35998b3o$36000bo$35999bo2$
35884b3o$35886bo$35885bo2$35770b3o$35772bo$35771bo9$36144bo$36143bo$
36143b3o54$36253b2o$36254b2o$36253bo6$36135b2o$36136b2o$36135bo5$
36018b2o$36017bobo$36019bo44$36137bobo$36137b2o$36138bo12$35848b2o$
35847bobo$35849bo20$35991bobo$35991b2o$35992bo34$35625bo$35625bobo$
35625b2o15$36103b2o$36102bobo$36104bo7$35984b2o$35983bobo$35985bo5$
35867b3o$35869bo$35868bo42$35988bo$35987bo$35987b3o13$35698b3o$35700bo
$35699bo3$35583b3o$35585bo$35584bo13$35843bo$35842bo$35842b3o3$35619bo
$35617b2o$35618b2o28$35479bo$35477b2o$35478b2o18$35953b3o$35955bo$
35954bo2$35839b2o$35838bobo$35840bo55$35837bobo$35837b2o$35838bo3$
35612bobo$35612b2o$35613bo7$35658b3o$35660bo$35659bo2$35544b3o$35546bo
$35545bo2$35430b3o$35432bo$35431bo15$35468bo$35468bobo$35468b2o27$
35329bo$35328bo$35328b3o74$35748bo$35748b2o$35747bobo7$35629b2o$35630b
2o$35462bobo164bo$35462b2o$35463bo$35514b3o$35516bo$35515bo13$35554bo$
35553bo$35553b3o13$35320bo$35318b2o$35319b2o30$35177bobo162b3o$35177b
2o165bo$35178bo164bo3$35227bo$35227b2o$35226bobo3$35112b2o$35113b2o$
35112bo27$35688bo$35687bo$35687b3o32$35545bo$35543b2o53bo$35544b2o52b
2o$35597bobo5$35481b2o$35480bobo$35482bo2$35312bobo$35312b2o$35313bo$
35364bo$35364b2o$35363bobo15$35402bobo$35402b2o$35403bo12$35168bo$
35167bo$35167b3o28$35029bo163bo$35027b2o164b2o$35028b2o162bobo7$35074b
2o$35075b2o$35074bo2$34960b2o$34959bobo$34961bo26$35537bobo$35537b2o$
35538bo32$35393bo54bo$35392bo55b2o$35392b3o52bobo7$35329b2o$35330b2o$
35162bobo164bo$35162b2o$35163bo51b3o$35217bo$35216bo15$35254bo$35252b
2o$35253b2o13$35018bo$35018bobo$35018b2o27$34879bo$34878bo164bo$34878b
3o162b2o$35042bobo39$35387bobo$35387b2o$35388bo32$35243bo54b2o$35243bo
bo51bobo$35243b2o54bo4$35182b2o$35181bobo$35183bo2$35068b2o$35012bobo
52bobo$35012b2o55bo$35013bo16$35104bo$35103bo$35103b3o13$34870bo$
34868b2o$34869b2o29$34893b2o$34892bobo$34894bo2$34779b2o$34723bobo54b
2o$34723b2o54bo$34724bo2$34664b2o$34665b2o$34664bo30$35237bobo$35237b
2o$35238bo31$35095bo$35093b2o53b2o$35094b2o51bobo$35149bo2$35034b2o$
35033bobo$35035bo2$34920b2o$34919bobo$34921bo$34862bobo$34862b2o$
34863bo18$34952bobo$34952b2o$34953bo13$34718bo$34716b2o$34717b2o27$
34743b2o$34742bobo$34744bo4$34573bo$34571b2o$34572b2o51bo$34625b2o$
34624bobo4$34509b3o$34511bo$34510bo25$35087bobo$35087b2o$35088bo32$
34943bo54b2o$34942bo54bobo$34942b3o54bo3$34883b2o$34882bobo$34884bo3$
34768bo$34712bobo53b2o$34712b2o53bobo$34713bo24$34797bo$34795b2o$
34796b2o6$34569bo$34567b2o$34568b2o28$34593b2o$34592bobo$34594bo7$
34474b2o$34475b2o$34474bo30$34937bobo$34937b2o$34938bo32$34848b2o$
34792bo54bobo$34792bobo54bo$34792b2o3$34732bo$34732b2o$34731bobo2$
34563bo$34562bo$34562b3o22$34649bobo$34649b2o$34650bo39$34553bo$34553b
2o$34552bobo8$34433b3o$34435bo$34434bo7$34314bo$34314b2o$34313bobo20$
34787bobo$34787b2o$34788bo27$34208bo$34207bo$34207b3o3$34643bo54b2o$
34643bobo51bobo$34643b2o54bo31$34500bobo$34500b2o$34501bo27$34362bo$
34360b2o$34361b2o11$34513b2o$34512bobo$34514bo6$34395bo$34395b2o$
34394bobo4$34279b3o$34281bo$34280bo19$34203bo$34202bo$34202b3o4$34637b
obo$34637b2o$34638bo21$34065bo$34063b2o$34064b2o10$34492bo$34491bo$
34491b3o25$34356bo$34354b2o$34355b2o34$34484b2o$34483bobo$34485bo4$
34368b2o$34367bobo$34369bo3$34198bobo$34198b2o$34199bo51bo$34251b2o$
34250bobo27$34057bo$34056bo$34056b3o8$34487bobo$34487b2o$34488bo21$
34079b2o$34078bobo$34080bo2$33911bo$33909b2o$33910b2o437bo$34347b2o$
34348b2o$33960b3o$33962bo$33961bo7$33841b2o$33840bobo$33842bo56$34333b
2o$34334b2o$34333bo2$34219b2o$34218bobo$34220bo4$34049bo$34047b2o$
34048b2o51bo$34101b2o$34100bobo18$34136bobo$34136b2o$34137bo9$33905bo$
33904bo$33904b3o30$33928b2o$33929b2o$33928bo2$33814bo$33814b2o$33813bo
bo5$33697b2o$33696bobo$33698bo27$34273bo$34273bobo$34273b2o33$34128bob
o52b2o$34128b2o54b2o$34129bo53bo5$34066bo$34066b2o$34065bobo$33899bo$
33897b2o$33898b2o51bo$33951b2o$33950bobo19$33986bo$33984b2o$33985b2o7$
33757bo$33755b2o$33756b2o31$33778b2o$33612bo166b2o$33611bo166bo$33611b
3o$33664b2o$33665b2o$33664bo34$34123bo$34123bobo$34123b2o32$33979bo$
33979bobo51b2o$33979b2o53b2o$34033bo4$33917b2o$33918b2o$33917bo2$
33748bobo52b2o$33748b2o54b2o$33749bo53bo23$33833bo$33832bo$33832b3o7$
33605bo$33603b2o$33604b2o29$33628b2o$33629b2o$33628bo2$33514b2o$33513b
obo$33515bo4$33398b2o$33397bobo$33399bo28$33974bo$33972b2o$33973b2o33$
33829bo53b2o$33827b2o55b2o$33828b2o53bo2$33769b2o$33768bobo$33770bo4$
33599bo$33597b2o53b3o$33598b2o54bo$33653bo18$33688bo$33686b2o$33687b2o
11$33454bobo$33454b2o$33455bo29$33478b2o$33479b2o$33478bo2$33364b2o$
33365b2o$33364bo5$33247b2o$33246bobo$33248bo27$33823bo$33823bobo$
33823b2o30$33681bo$33681bobo$33681b2o$33733b2o$33734b2o$33733bo4$
33617bo$33617b2o$33616bobo2$33449bo$33447b2o$33448b2o$33500b2o$33501b
2o$33500bo15$33538bobo$33538b2o$33539bo43$33328b3o$33330bo$33329bo3$
33213b2o$33214b2o$33213bo2$33099bo$33099b2o$33098bobo15$33247bo$33247b
obo$33247b2o12$33673bo$33673bobo$33673b2o31$33530bobo$33530b2o$33531bo
51b3o$33585bo$33584bo7$33464b3o$33466bo$33465bo6$33346b2o$33347b2o$
33346bo18$33381bo$33381bobo$33381b2o27$33242bo$33241bo$33241b3o7$
33178b3o$33180bo$33179bo3$33063b2o$33064b2o$33063bo6$32945b2o$32946b2o
$32945bo25$33524bo$33522b2o$33523b2o33$33433b2o$33377bo56b2o$33377bobo
53bo$33377b2o4$33316b3o$33318bo$33317bo2$33202b2o$33203b2o$33202bo18$
33237bobo$33237b2o$33238bo38$33087bobo$33087b2o$33088bo2$33028b3o$
33030bo$33029bo3$32913b2o$32912bobo$32914bo33$33373bo$33373bobo$33373b
2o24$32798bo$32796b2o$32797b2o7$33283b2o$33284b2o$33283bo3$33168b3o$
33170bo$33169bo53$33168bo$33167bo$33167b3o9$32937bobo$32937b2o$32938bo
2$32988b2o$32989b2o$32988bo2$32874bo$32874b2o$32873bobo5$32757b2o$
32758b2o$32757bo8$33022bo$33022bobo$33022b2o9$32791bobo$32791b2o$
32792bo67$33162bobo$33162b2o$33163bo32$33073bo$33017bo55b2o$33017bobo
52bobo$33017b2o$32959bo$32959b2o$32958bobo3$32844b2o$32845b2o$32787bob
o54bo$32787b2o$32788bo25$32870bobo$32870b2o$32871bo35$32668bo$32668b2o
$32667bobo6$32550b2o$32549bobo$32551bo3$32435b3o$32437bo$32436bo26$
33012bobo$33012b2o$33013bo24$32436bo$32435bo$32435b3o6$32923bo$32923b
2o$32866bobo53bobo$32866b2o$32867bo$32808b3o$32810bo$32809bo$32695bo$
32695b2o$32694bobo24$32724bo$32723bo$32723b3o30$32582bo$32582bobo$
32582b2o7$32518bo$32518b2o$32517bobo5$32401b2o$32402b2o$32401bo25$
32429bo$32429bobo$32429b2o5$32862bobo$32862b2o$32863bo32$32773bo$
32717bobo53b2o$32717b2o53bobo$32718bo4$32656b3o$32658bo$32657bo21$
32578bo$32578bobo$32578b2o43$32423bobo52bo$32423b2o53b2o$32424bo52bobo
2$32364bo$32364b2o$32363bobo5$32247bo$32247b2o$32246bobo28$32712bobo$
32712b2o$32713bo22$32138bobo$32138b2o$32139bo2$32574bo$32573bo$32573b
3o58$32569bo$32569b2o$32568bobo3$32454bo$32454b2o$32453bobo8$32334b2o$
32333bobo$32335bo4$32273bobo$32273b2o$32274bo21$32361bo$32359b2o$
32360b2o8$32130bo$32130bobo$32130b2o19$32164b2o$32163bobo$32165bo2$
32050b2o$32049bobo$32051bo7$31986bo$31986bobo$31986b2o36$32498bobo$
32498b2o$32499bo22$32419b2o$32418bobo$32420bo4$32303bo$32303b2o$32302b
obo2$32354bo$32354bobo$32354b2o4$32183b2o$32182bobo$32184bo2$32124bo$
32123bo$32123b3o18$32214bo$32213bo$32213b3o13$31979bo$31978bo$31978b3o
18$32014b2o$32013bobo$32015bo2$31900b2o$31899bobo$31901bo4$31784b2o$
31783bobo$31785bo39$32348bobo$32348b2o$32349bo22$32269b2o$32268bobo$
32270bo6$32151bo54bobo$32151b2o53b2o$32150bobo54bo4$32035b2o$32036b2o$
32035bo4$31975bo$31973b2o$31974b2o17$32065bo$32064bo$32064b3o34$31864b
2o$31863bobo$31865bo5$31747bo$31747b2o$31746bobo4$31631b2o$31630bobo$
31632bo20$31775bo$31773b2o$31774b2o14$32198bobo$32198b2o$32199bo22$
32119b2o$32118bobo$32120bo2$32005b2o$32004bobo$32006bo2$31891b2o$
31890bobo162bo$31892bo162bobo$32055b2o33$31911bo$31909b2o$31910b2o28$
31771bo$31714b2o53b2o$31713bobo54b2o$31715bo4$31598b2o$31597bobo$
31599bo2$31484b2o$31483bobo$31485bo27$31620bo$31619bo$31619b3o9$32050b
o$32048b2o$32049b2o16$31481bobo$31481b2o$31482bo5$31969bo$31969b2o$
31968bobo4$31853b2o$31852bobo$31854bo2$31739b2o164bo$31740b2o161b2o$
31739bo164b2o26$31767bo$31765b2o$31766b2o35$31564b2o$31563bobo$31565bo
$31617bo$31450b2o163b2o$31449bobo164b2o$31451bo2$31336b2o$31335bobo$
31337bo24$31476bo$31474b2o$31475b2o15$31898bobo$31898b2o$31899bo22$
31819b2o$31818bobo$31820bo5$31702b2o$31701bobo$31703bo8$31582b3o$
31584bo$31583bo49$31696bobo$31696b2o$31697bo5$31414bo$31414b2o$31413bo
bo$31467bo$31300bo164b2o$31300b2o164b2o$31299bobo3$31185b2o$31186b2o$
31185bo14$31554bo$31554bobo$31554b2o8$31324bo$31323bo$31323b3o34$
31178bo$31177bo$31177b3o2$31669b2o$31668bobo$31670bo6$31551bo$31551b2o
$31550bobo7$31432b2o$31433b2o$31432bo14$31692bo$31690b2o$31691b2o32$
31547bobo$31547b2o$31548bo6$31264bo$31264b2o$31263bobo$31316bo$31316bo
bo$31316b2o2$31147b3o$31149bo$31148bo20$31400bobo$31400b2o$31401bo8$
31170bobo$31170b2o$31171bo35$31518b3o$31520bo$31519bo7$31399b2o$31400b
2o$31399bo8$31279b3o$31281bo$31280bo11$31542bo$31540b2o$31541b2o33$
31396bo$31395bo$31395b3o5$31114bo$31114b2o$31113bobo$31166bo$31166bobo
$31166b2o19$31255bo$31254bo$31254b3o49$31369b2o$31368bobo$31370bo7$
31250b2o$31249bobo$31251bo3$31135b2o$31134bobo$31136bo17$31392bo$
31390b2o$31391b2o12$30827bobo$30827b2o$30828bo16$31250bo$31248b2o$
31249b2o8$30964b2o$30963bobo$30965bo7$30845bo$30845b2o$30844bobo5$
30728bo$30728b2o$30727bobo4$31108bo$31106b2o$31107b2o26$30969bobo$
30969b2o$30970bo23$31219b2o$31218bobo$31220bo5$31102b2o$31103b2o$
31102bo4$30821bo$30821bobo161b2o$30821b2o163b2o$30985bo17$31242bo$
31240b2o$31241b2o14$30675bo$30674bo$30674b3o13$31101bo$31099b2o$31100b
2o9$30814bo$30814b2o$30813bobo4$30698bo$30698b2o$30697bobo7$30579b2o$
30578bobo382bo$30580bo382bobo$30963b2o38$30814bo$30812b2o$30813b2o17$
31069bo$31069b2o$31068bobo5$30952b3o$30954bo$30953bo5$30670bo$30669bo
164b2o$30669b3o163b2o$30834bo16$31091bobo$31091b2o$31092bo17$30523bo$
30521b2o$30522b2o21$30664bo$30664b2o$30663bobo5$30547b3o$30549bo$
30548bo6$30429b2o$30430b2o$30429bo29$30893bo$30892bo$30892b3o8$30663bo
$30663bobo$30663b2o17$30919b2o$30918bobo$30920bo4$30803bo$30748bo54b2o
$30746b2o54bobo$30747b2o8$30517bobo$30517b2o$30518bo29$30377bo$30375b
2o$30376b2o25$30624bo$30624b2o$30623bobo8$30504b3o$30506bo381bo$30505b
o382bobo$30888b2o6$30385bo$30385b2o$30384bobo25$30743bo$30742bo$30742b
3o8$30513bo$30513bobo$30513b2o17$30769b2o$30768bobo$30770bo2$30600bobo
$30600b2o$30601bo7$30371bo$30371bobo$30371b2o38$30221bo$30221bobo$
30221b2o20$30584b2o$30583bobo$30585bo3$30469bo$30469b2o$30468bobo4$
30739bo$30737b2o$30738b2o$30350b2o$30349bobo$30351bo27$30597bo$30595b
2o$30596b2o11$30363bobo$30363b2o$30364bo18$30453bobo$30453b2o$30454bo
14$30217bo$30217bobo$30217b2o32$30073bo$30073bobo$30073b2o8$30558b3o$
30560bo$30559bo6$30440b2o$30439bobo$30441bo15$30588bobo$30588b2o$
30589bo32$30445bo$30443b2o$30444b2o9$30213bo$30213bobo$30213b2o3$
30263b2o$30264b2o$30263bo2$30149bo$30149b2o$30148bobo6$30031b3o$30033b
o$30032bo2$30302bo$30302bobo$30302b2o11$30069bo$30069bobo$30069b2o31$
29927bo$29925b2o$29926b2o36$30438bo$30438bobo$30438b2o29$30297bobo$
30297b2o$30298bo$30349bo$30349b2o$30348bobo2$30235b2o$30234bobo$30236b
o4$30119b2o$30063bo56b2o$30063bobo53bo$30063b2o23$30149bo$30147b2o$
30148b2o6$29920bo$29920bobo$29920b2o29$29944bo$29944b2o$29943bobo3$
29829b3o$29774bo56bo$29772b2o56bo$29773b2o$29715b2o$29714bobo$29716bo
30$30288bo$30288bobo$30288b2o32$30144bo54bo$30144bobo52b2o$30144b2o52b
obo5$30082b2o$30081bobo$30083bo2$29914bo$29912b2o$29913b2o$29965b3o$
29967bo$29966bo22$29997bo$29995b2o$29996b2o7$29767bobo$29767b2o$29768b
o26$29794bo$29794b2o$29793bobo2$29625bo$29625bobo$29625b2o2$29676b2o$
29675bobo$29677bo4$29560b3o$29562bo$29561bo25$30138bobo$30138b2o$
30139bo32$30049bo$30049b2o$29993bo54bobo$29991b2o$29992b2o$29934b2o$
29933bobo$29935bo4$29764bo53bo$29762b2o54b2o$29763b2o52bobo19$29852bo$
29851bo$29851b3o13$29618bo$29616b2o$29617b2o26$29644bo$29644b2o$29643b
obo$29476bo$29476bobo$29476b2o5$29524b3o$29526bo$29525bo2$29410bo$
29410b2o$29409bobo25$29989bo$29987b2o$29988b2o30$29846bo$29846bobo$
29846b2o51bo$29899b2o$29898bobo5$29782b2o$29783b2o$29782bo2$29613bo$
29613bobo$29613b2o19$29703bo$29701b2o$29702b2o11$29470bo$29468b2o$
29469b2o28$29604bo$29604b2o$29603bobo2$29490bo$29490b2o$29489bobo3$
29375b2o$29376b2o$29375bo30$29839bo$29837b2o$29838b2o29$29697bo$29697b
obo$29697b2o12$29463bo$29463bobo$29463b2o20$29552bo$29550b2o$29551b2o
19$29695b2o$29696b2o$29695bo7$29576bo$29576b2o$29575bobo4$29460b2o$
29459bobo$29461bo45$29689bo$29687b2o$29688b2o11$29290b2o$29291b2o$
29290bo3$29175b2o$29176b2o$29175bo13$29545bo$29545bobo$29545b2o10$
29314bo$29312b2o$29313b2o22$29399bobo$29399b2o$29400bo17$29545b2o$
29546b2o$29545bo3$29430b2o$29429bobo$29431bo2$29316b2o$29317b2o$29316b
o32$29117bo$29117bobo$29117b2o17$29538bobo$29538b2o$29539bo11$29140b2o
$29141b2o$29140bo2$28972bo53bo$28970b2o54b2o$28971b2o52bobo2$28912bo$
28912b2o$28911bobo11$29394bo$29393bo$29393b3o29$29253bo$29253bobo$
29253b2o21$29395b2o$29396b2o$29395bo4$29279b3o$29113bo167bo$29113bobo
164bo$29113b2o3$29163b2o$29164b2o$29163bo33$28963bo$28962bo$28962b3o
13$29389bo$29387b2o$29388b2o11$28990b2o$28991b2o$28990bo3$28875bo$
28875b2o$28874bobo2$28761b2o$28760bobo$28762bo8$29247bo$29245b2o$
29246b2o25$29109bo$29109bobo$29109b2o27$29245b3o$29247bo$29246bo7$
29126b2o$29127b2o$28960bo165bo$28958b2o$28959b2o$29011b3o$29013bo$
29012bo31$28813bo$28812bo$28812b3o13$29239bo$29237b2o$29238b2o11$
28840b2o$28841b2o$28840bo6$28667bo54b3o$28667bobo54bo$28667b2o54bo$
28609bo$28609b2o$28608bobo60$29043bo$29041b2o$29042b2o51b3o$29097bo$
29096bo$28982bo$28982b2o$28981bobo6$28810bo$28808b2o$28809b2o16$28901b
o$28901bobo$28901b2o16$28664bo$28662b2o$28663b2o26$28800b3o$28802bo$
28801bo6$28518bo$28516b2o163b2o$28517b2o163b2o$28681bo3$28566b3o$
28568bo$28567bo25$29035bo$29033b2o$29034b2o30$28892bo$28892bobo$28892b
2o11$28659bo$28659bobo$28659b2o23$28744bobo$28744b2o$28745bo9$28514bo$
28512b2o$28513b2o8$28888b2o$28889b2o$28888bo6$28770b3o$28772bo$28771bo
$28657bo$28657b2o$28656bobo11$28369bo$28368bo$28368b3o33$28885bo$
28883b2o$28884b2o14$28483b3o$28485bo$28484bo$28370bo$28370b2o$28369bob
o13$28741bo$28739b2o$28740b2o9$28510bo$28508b2o$28509b2o24$28593bobo$
28593b2o$28594bo9$28363bo$28361b2o$28362b2o7$28738b2o$28739b2o$28738bo
3$28623b2o$28624b2o$28623bo15$28221bo$28220bo$28220b3o35$28734bobo$
28734b2o$28735bo14$28443b2o$28444b2o$28443bo2$28329bo$28329b2o$28328bo
bo14$28589bo$28587b2o$28588b2o8$28359bo$28357b2o$28358b2o24$28442bobo$
28442b2o$28443bo4$28216bo$28215bo$28215b3o33$28071bo$28070bo$28070b3o
35$28584bo$28528bo55bobo$28528b2o54b2o$28527bobo3$28413b2o$28414b2o$
28413bo2$28299b2o$28300b2o$28299bo24$28438bobo$28438b2o$28439bo8$
28208bo$28208bobo$28208b2o17$28299bo$28298bo$28298b3o9$28123bo$28123b
2o$28122bobo4$28007b2o53bobo$28006bobo53b2o$28008bo54bo4$27891bo$
27891b2o$27890bobo26$27919bo$27917b2o$27918b2o32$28435bo$28378bo54b2o$
28378b2o54b2o$28377bobo4$28262b2o$28263b2o$28262bo2$28148b3o$28150bo$
28149bo22$28289bo$28289bobo$28289b2o9$28058bo$28058bobo$28058b2o22$
28144bobo$28144b2o$28145bo4$27973b2o$27972bobo$27974bo4$27912bobo$
27856b2o54b2o$27855bobo55bo$27857bo4$27740b2o$27739bobo$27741bo60$
28228b2o54bo$28227bobo52b2o$28229bo53b2o7$28109b3o$28111bo$28110bo6$
27991b2o$27992b2o$27991bo16$28138bo$28137bo$28137b3o8$27908bo$27908bob
o$27908b2o25$27992bo$27990b2o$27991b2o$27823b2o$27822bobo$27824bo3$
27708b2o$27707bobo53bo$27709bo51b2o$27762b2o6$27589bo$27589b2o$27588bo
bo59$28078b2o53bo$28077bobo53bobo$28079bo53b2o3$27963bo$27963b2o$
27962bobo6$27845bo$27845b2o$27844bobo21$27988bo$27986b2o$27987b2o7$
27758bo$27758bobo$27758b2o20$27847bo$27845b2o$27846b2o6$27673bo$27673b
2o$27672bobo6$27555b2o$27556b2o$27555bo40$27568bobo$27568b2o$27569bo
23$27928b2o54bo$27927bobo52b2o$27929bo53b2o2$27814b2o$27815b2o$27814bo
4$27698b2o$27697bobo$27699bo2$27420bo$27418b2o$27419b2o18$27839bo$
27838bo$27838b3o27$27701bo$27699b2o$27700b2o10$27523b2o$27522bobo$
27524bo4$27407b2o$27408b2o$27407bo6$27289b3o$27291bo$27290bo271bo$
27561bo$27561b3o39$27412bo$27410b2o$27411b2o16$27778b2o54bo$27777bobo
52b2o$27779bo53b2o30$27691bobo$27691b2o$27692bo23$27557bo$27555b2o$
27556b2o16$27593bo$27593b2o$27592bobo4$27477b3o$27479bo$27478bo2$
27363b2o$27364b2o$27363bo10$27407bo$27405b2o$27406b2o51$27684bo$27682b
2o$27683b2o60$27566bo$27566b2o$27565bobo5$27449bo$27449b2o$27448bobo5$
27332bo$27332b2o$27331bobo4$27492bo$27490b2o$27491b2o34$27345bobo$
27345b2o$27346bo17$27161bo$27161b2o$27160bobo4$27045bo$27045b2o$27044b
obo161bobo$27208b2o$27209bo5$26926b2o$26927b2o$26926bo39$27051bo$
27049b2o$27050b2o7$27481bo$27481bobo$27481b2o8$27416bo$27416b2o$27415b
obo2$27302bo$27302b2o$27301bobo2$27188bo$27188b2o$27187bobo12$27340bo$
27338b2o$27339b2o25$27202bo$27201bo$27201b3o24$27011bo$27011b2o$27010b
obo8$26891b3o$26893bo$26892bo2$26777bo$26777b2o$26776bobo4$27047bo$
27045b2o$27046b2o37$26898bo$26896b2o$26897b2o4$27332bo$27330b2o$27331b
2o9$27265b3o$27267bo$27266bo2$27151b2o$27150bobo$27152bo12$27193bo$
27191b2o$26750bobo439b2o$26750b2o$26751bo36$27043bo$27041b2o$27042b2o
14$26971bo$26971b2o$26970bobo5$26854b2o$26855b2o$26854bo2$26740bo$
26740b2o$26739bobo11$26893bo$26891b2o$26892b2o34$26746bobo$26746b2o$
26747bo32$26602bo$26602bobo$26602b2o33$27118bo$27116b2o$27117b2o5$
27055b3o$27057bo$27056bo$26942bo$26942b2o$26941bobo3$26827b2o$26826bob
o$26828bo19$26971bobo$26971b2o$26972bo7$26743bo$26741b2o$26742b2o25$
26826bo$26824b2o$26825b2o7$26596bo$26596bobo51b3o$26596b2o54bo$26651bo
2$26536b2o$26537b2o$26536bo4$26420bo$26420b2o$26419bobo56$26968bo$
26966b2o$26967b2o5$26905b3o$26907bo$26906bo$26792bo$26792b2o$26791bobo
24$26822bo$26820b2o$26821b2o7$26592bo$26592bobo$26592b2o22$26678bo$
26677bo$26677b3o11$26610b2o$26609bobo$26611bo4$26494b2o$26495b2o$
26494bo4$26378bo$26378b2o$26377bobo30$26401bobo$26401b2o$26402bo22$
26818bo$26816b2o$26817b2o5$26755b2o$26754bobo$26756bo8$26250bobo$
26250b2o$26251bo17$26672bo$26670b2o$26671b2o26$26533bo$26533bobo$
26533b2o16$26570b2o$26571b2o$26570bo2$26456b2o$26457b2o$26456bo2$
26342b2o$26343b2o$26342bo$26394bobo$26394b2o$26395bo36$26246bo$26246bo
bo$26246b2o17$26668bo$26666b2o$26667b2o16$26099bobo$26099b2o$26100bo
14$26523bobo$26523b2o$26524bo22$26389bo$26389bobo$26389b2o12$26540b2o$
26539bobo$26541bo2$26426b2o$26427b2o$26426bo3$26311b3o$26313bo$26312bo
15$26239bobo$26239b2o$26240bo32$26096bo$26094b2o$26095b2o13$26135b2o$
26134bobo$26136bo$26517bo$26021b2o494bobo$26022b2o493b2o$26021bo8$
25901b3o$25903bo$25902bo6$25948bobo$25948b2o$25949bo51$26390bo$26390b
2o$26389bobo2$26276b2o$26275bobo$26277bo8$26156b3o$26158bo161bo$26157b
o161bo$26319b3o9$26089bobo$26089b2o$26090bo20$26177bobo$26177b2o$
26178bo12$25944bo$25942b2o$25943b2o11$25985bo$25985b2o$25984bobo8$
25865b2o$25864bobo$25866bo5$25803bo$25803bobo$25803b2o$25745b2o$25746b
2o$25745bo34$26314bo$26314bobo$26314b2o19$26238b2o$26239b2o$26238bo6$
26120b2o$26119bobo$26121bo4$26169bobo$26169b2o$26170bo$26001b2o$26000b
obo$26002bo5$25939bo$25939bobo$25939b2o25$26022bo$26022bobo$26022b2o2$
25798bo$25797bo$25797b3o18$25833b2o$25834b2o$25833bo2$25719b3o$25721bo
$25720bo6$25601b2o$25602b2o$25601bo40$26164bo$26164bobo$26164b2o19$
26088b2o$26089b2o$26088bo4$25972b2o$25971bobo$25973bo6$25854b2o$25855b
2o162bo$25854bo162b2o$26018b2o7$25790bo$25788b2o$25789b2o21$25877bo$
25875b2o$25876b2o26$25683b2o$25684b2o$25683bo5$25566b3o$25568bo$25567b
o2$25452bo$25452b2o$25451bobo41$26014bo$26014bobo$26014b2o19$25938b2o$
25939b2o$25938bo2$25824b3o$25826bo$25825bo2$25710bo$25710b2o$25709bobo
2$25871bobo$25871b2o$25872bo10$25639bo$25639bobo$25639b2o19$25729bo$
25727b2o$25728b2o28$25533b2o$25534b2o$25533bo7$25414bo$25414b2o$25413b
obo21$25446bo$25445bo$25445b3o20$25864bo$25864bobo$25864b2o19$25788b2o
$25292bo496b2o$25292bobo493bo$25292b2o$25674b2o$25673bobo$25675bo5$
25557bo$25557b2o163bo$25556bobo161b2o$25721b2o34$25575bobo$25575b2o$
25576bo22$25442bo$25440b2o$25441b2o$25383b2o$25382bobo$25384bo6$25265b
o$25265b2o$25264bobo3$25150bo$25150b2o$25149bobo26$25288bo$25286b2o$
25287b2o11$25715bo$25713b2o$25714b2o19$25638b2o$25639b2o$25638bo3$
25523b2o$25524b2o$25523bo7$25570bo$25568b2o$25569b2o25$25432bo$25431bo
$25431b3o32$25343b2o$25344b2o$25343bo2$25229bo$25229b2o$25228bobo51bo$
25281bo$25281b3o46$25564bobo$25564b2o$25565bo18$24994bo$24994bobo$
24994b2o60$25427b2o$25428b2o$25427bo2$25313b2o$25314b2o$25313bo2$
25199b2o$25200b2o$25199bo$25362bo$25360b2o$25361b2o8$25131bobo$25131b
2o$25132bo18$25221bo$25220bo$25220b3o9$24991bo$24989b2o$24990b2o21$
25022b2o$25023b2o$25022bo7$24903b2o$24904b2o$24903bo2$24844bo$24788b2o
54bobo$24789b2o53b2o$24788bo34$25358bo$25356b2o$25357b2o23$25277b2o$
25278b2o$25277bo6$25159bo$25159b2o$25158bobo52bo$25211b2o$25212b2o3$
25042b2o$25043b2o$25042bo4$24981bobo$24981b2o$24982bo20$25069bo$25068b
o$25068b3o8$24839bobo$24839b2o$24840bo20$24872b2o$24873b2o$24872bo5$
24755b2o$24754bobo$24756bo$24697bo$24697bobo$24640b2o55b2o$24641b2o$
24640bo36$25207bo$25206bo$25206b3o23$25127b2o$25128b2o$25127bo2$25013b
2o$25014b2o$25013bo$25066bo$25064b2o$25065b2o2$24896b3o$24898bo$24897b
o7$24832bo$24831bo$24831b3o18$24922bo$24921bo$24921b3o9$24691bo$24690b
o$24690b3o22$24722b2o$24723b2o$24722bo2$24608bo$24608b2o$24607bobo2$
24494bo$24494b2o$24493bobo7$24541bo$24539b2o$24540b2o32$25056bobo$
25056b2o$25057bo22$24977b2o$24978b2o$24977bo2$24863b2o$24864b2o$24863b
o2$24749b2o$24750b2o$24749bo162bo$24912bobo$24912b2o8$24682bo$24681bo$
24681b3o20$24770bobo$24770b2o$24771bo12$24536bo$24535bo$24535b3o17$
24572b3o$24574bo$24573bo49$24906bobo$24906b2o$24907bo22$24827b3o$
24829bo$24828bo4$24766bo$24765bo$24765b3o$24708bo$24708b2o$24707bobo5$
24591b2o$24590bobo$24592bo3$24531bobo$24531b2o$24532bo22$24617bobo$
24617b2o$24618bo28$24422b3o$24424bo$24423bo4$24306b2o$24307b2o$24306bo
43$24756bobo$24756b2o$24757bo22$24677b3o$24679bo$24678bo2$24563b3o$
24565bo$24564bo2$24614bo$24613bo$24613b3o$24446b3o$24448bo$24447bo31$
24468bobo$24468b2o$24469bo23$24333bo$24333bobo$24333b2o4$24272b3o$
24274bo$24273bo3$24157b3o$24159bo$24158bo7$24038bo$24038b2o$24037bobo
26$24175bo$24175bobo$24175b2o7$24606bobo$24606b2o$24607bo22$24527b3o$
24529bo$24528bo2$24413b2o$24414b2o$24413bo2$24464bobo$24464b2o$24465bo
3$24294b3o$24296bo$24295bo23$24324bobo$24324b2o$24325bo35$24122b3o$
24124bo$24123bo3$24007b2o$24008b2o161bo$24007bo163bobo$24171b2o5$
23889b2o$23890b2o$23889bo30$24022bo$24022bobo$24022b2o3$24457bo$24456b
o$24456b3o23$24377b3o$24379bo$24378bo3$24262bo55bo$24262b2o52b2o$
24261bobo53b2o7$24143b2o$24142bobo$24144bo29$24167bo$24167bobo$24167b
2o28$23972b2o$23973b2o$23972bo6$23854bo$23854b2o$23853bobo161bo$24017b
obo$24017b2o2$23738b2o$23737bobo$23739bo59$24227b3o$24229bo$23731bo
496bo$23729b2o$23730b2o36$24243bo$24241b2o$24242b2o33$24042b3o52bo$
24044bo51bo$24043bo52b3o2$23928b2o$23929b2o$23928bo4$23868bo$23811b2o
53b2o$23812b2o53b2o$23811bo16$23958bobo$23958b2o$23959bo11$23725bo$
23725bobo$23725b2o35$23579bo$23577b2o$23578b2o34$24092bo$24092bobo$
24092b2o22$24013b2o$24012bobo$24014bo3$23898b2o$23899b2o51bo$23898bo
52bo$23951b3o$23784b2o$23785b2o$23784bo10$23717bobo$23717b2o$23718bo
18$23807bobo$23807b2o$23808bo12$23573bo$23573bobo$23573b2o18$23608b2o$
23607bobo$23609bo7$23489b3o$23433bo57bo$23432bo57bo$23376bo55b3o$
23376b2o$23375bobo37$23943bo$23941b2o$23942b2o22$23863b2o$23862bobo$
23864bo8$23743b2o54bo$23744b2o51b2o$23743bo54b2o3$23628b3o$23630bo$
23629bo4$23568bo$23566b2o$23567b2o19$23656bo$23656bobo$23656b2o11$
23423bobo$23423b2o$23424bo18$23458b2o$23457bobo$23459bo3$23343b3o$
23345bo$23344bo2$23229b3o$23231bo$23230bo6$23277bo$23275b2o$23276b2o
32$23792bo$23792bobo$23792b2o22$23713bo$23713b2o$23712bobo5$23651bobo$
23595b2o54b2o$23596b2o54bo$23595bo4$23479b2o$23478bobo$23480bo5$23418b
o$23416b2o$23417b2o21$23504bo$23503bo$23503b3o11$23272bo$23270b2o$
23271b2o16$23308bo$23308b2o$23307bobo3$23193bo$23193b2o$23192bobo3$
23078b2o$23077bobo$23079bo6$23125bo$23125bobo$23125b2o31$23642bo$
23642bobo$23642b2o23$23562b3o$23564bo$23563bo5$23445b2o$23444bobo$
23446bo$23498bo$23496b2o$23497b2o5$23325b2o$23326b2o$23325bo$23267bo$
23267bobo$23267b2o25$23350bo$23350bobo$23350b2o7$23121bo$23121bobo$
23121b2o16$23158bo$23158b2o$23157bobo4$23042b3o$23044bo$23043bo5$
22925b3o$22927bo$22926bo36$23493bo$23491b2o$23492b2o22$23413bo$23413b
2o$23412bobo6$23295b2o$23296b2o$23295bo2$23346bo$23346bobo$23179bo166b
2o$23179b2o$23178bobo5$23117bo$23117bobo$23117b2o22$23203bo$23203bobo$
23203b2o10$22971bo$22971bobo$22971b2o16$23008bo$23008b2o$23007bobo6$
22890b2o$22891b2o$22890bo4$22774b2o$22775b2o$22774bo35$23342bo$23342bo
bo$23342b2o22$23263bo$23263b2o$23262bobo3$23148b3o$23150bo$23149bo2$
23199bo$23198bo$23198b3o2$23030b2o$23031b2o$23030bo6$22967bo$22967bobo
$22967b2o21$23054bo$23053bo$23053b3o10$22822bo$22821bo$22821b3o17$
22858bo$22858b2o$22857bobo3$22743b2o$22742bobo$22744bo6$22625b2o$
22624bobo$22626bo36$23193bo$23191b2o$23192b2o22$23113b2o$23112bobo$
23114bo3$22998b2o$22999b2o$22998bo$23050bo$23049bo$23049b3o11$22817bo$
22817bobo$22817b2o19$22907bo$22905b2o$22906b2o31$22818b2o$22817bobo$
22819bo3$22703b3o$22705bo$22704bo4$22587b2o$22586bobo$22588bo20$22621b
o$22619b2o$22620b2o16$23042bo$23042bobo$23042b2o20$22470bo$22470bobo$
22470b2o11$22898bo$22896b2o$22897b2o29$22757bo$22755b2o$22756b2o17$
22902b3o$22904bo$22903bo2$22788b3o$22790bo$22789bo2$22674b2o$22673bobo
$22675bo$22617bo$22615b2o$22616b2o38$22466bo$22466bobo$22466b2o12$
22893bo$22891b2o$22892b2o8$22497b2o$22498b2o$22497bo4$22381bo$22381b2o
$22380bobo$22323bo$22322bo$22322b3o10$22751bo$22751bobo$22751b2o27$
22613bo$22611b2o$22612b2o23$22752b2o$22753b2o$22752bo5$22635bo$22635b
2o$22634bobo6$22462bo54bo$22461bo55b2o$22461b3o52bobo32$22318bo$22318b
obo$22318b2o14$22743bo$22741b2o$22742b2o8$22347b2o$22348b2o$22347bo4$
22231b2o$22175bo56b2o$22174bo56bo$22174b3o5$22113b3o$22115bo$22114bo
59$22602b3o$22604bo$22545bo57bo$22544bo$22544b3o$22487bo$22487b2o$
22486bobo5$22370b3o$22372bo$22371bo2$22311bobo$22311b2o$22312bo24$
22395bobo$22395b2o$22396bo7$22166bo$22165bo$22165b3o22$22197b3o$22199b
o$22198bo2$22083b2o$22082bobo$22084bo39$22537bo$22536bo$22536b3o28$
22452b3o$22454bo$22453bo2$22338b2o$22337bobo$22339bo$22390bobo$22224b
2o164b2o$22223bobo165bo$22225bo6$22161bobo$22161b2o$22162bo24$22245bo$
22245bobo$22245b2o31$22047b2o$22048b2o$22047bo5$21930b3o$21932bo$
21931bo19$21964bo$21964bobo$21964b2o15$22387bo$22386bo$22386b3o28$
22302b2o$22303b2o$22302bo4$22241bobo$22185bo55b2o$22185b2o55bo$22184bo
bo2$22071bo$22071b2o$22070bobo24$22100bo$22099bo$22099b3o28$21960bo$
21960bobo$21960b2o6$21897b2o$21898b2o$21897bo2$21783b2o$21784b2o$
21783bo2$21669b2o$21670b2o$21669bo35$22237bo$22236bo$22236b3o28$22152b
2o$22153b2o$22152bo3$22092bo$22092bobo$22092b2o$22034b3o$22036bo$
22035bo2$21920b2o$21919bobo$21921bo17$21956bo$21955bo$21955b3o15$
21609bo$21609bobo$21609b2o25$21747b2o$21748b2o$21747bo2$21633b2o$
21632bobo$21634bo2$21519b2o$21520b2o$21519bo36$21756bo329bobo$21756bob
o327b2o$21756b2o329bo27$22002b2o$22003b2o$22002bo2$21888bo$21888b2o$
21887bobo2$21774bo$21774b2o$21773bobo5$21602bo$21601bo$21601b3o42$
21888bobo$21888b2o$21889bo14$21597b2o$21598b2o$21597bo4$21481b3o$
21483bo$21482bo3$21751bo$21365b2o383bo$21366b2o382b3o$21365bo43$21595b
o$21594bo$21594b3o16$21852b2o$21853b2o$21852bo3$21737bo$21737b2o$
21736bobo2$21623b2o$21622bobo$21624bo16$21880bobo$21880b2o$21881bo23$
21745bo$21744bo$21744b3o21$21447b2o$21448b2o$21447bo3$21332b2o$21333b
2o$21332bo51$21444bobo$21444b2o$21445bo15$21537bo164b2o$21536bo166b2o$
21536b3o163bo2$21588bo$21588b2o$21587bobo7$21304bobo$21304b2o$21305bo
33$21160bo$21158b2o$21159b2o25$21407b2o$21408b2o$21407bo2$21293bo$
21293b2o$21292bobo2$21179bo$21179b2o$21178bobo2$21670bo$21669bo$21669b
3o30$21528bo$21528bobo$21528b2o11$21295bo$21294bo$21294b3o16$21552b3o$
21554bo$21553bo2$21438b2o$21439b2o$21382bo55bo$21380b2o$21381b2o7$
21152bobo$21152b2o$21153bo32$21008bobo$21008b2o$21009bo24$21257b3o$
21259bo$21258bo6$21139b2o$21140b2o$21139bo3$21519bobo$21519b2o$21520bo
2$21020b2o$21021b2o$21020bo29$21374bo$21374bobo$21374b2o8$21144bobo$
21144b2o$21145bo20$21232bobo$21232b2o$21233bo6$21004bo$21003bo$21003b
3o41$21346bo$21346b2o$21345bobo4$21230b2o$21229bobo$21231bo4$21114bo$
21114b2o$21113bobo18$21369bobo$21369b2o$21370bo33$21224bobo$21224b2o$
21225bo6$20941bo$20941b2o$20940bobo51bobo$20994b2o$20995bo$20826b2o$
20827b2o$20826bo12$21088bo$21086b2o$21087b2o49$20706bobo$20706b2o$
20707bo3$21196bo$21196b2o$21195bobo3$21081b2o$21082b2o$21081bo2$20967b
2o$20968b2o$20967bo21$21219bobo$21219b2o$21220bo29$21078bobo$21078b2o$
21079bo10$20791bo$20791b2o53bo$20790bobo51b2o$20845b2o3$20675b3o$
20677bo$20676bo6$20557b3o$20559bo$20558bo12$20928bo$20927bo$20927b3o8$
20698bo$20698bobo$20698b2o35$21046bo$21046b2o$21045bobo4$20930b2o$
20929bobo$20931bo7$20811b2o$20812b2o$20811bo14$21070bo$21069bo$21069b
3o34$20924bo$20923bo$20923b3o7$20640b3o$20642bo51bobo$20641bo52b2o$
20695bo5$20522b2o$20521bobo$20523bo4$20406b2o$20407b2o$20406bo7$20782b
o$20782bobo$20782b2o49$20896b2o$20895bobo$20897bo3$20506bo$20506bobo$
20506b2o3$20776b3o$20778bo$20777bo19$20920bo$20919bo$20919b3o32$20776b
o$20775bo$20775b3o8$20601b2o$20600bobo$20602bo7$20482b3o$20484bo$
20483bo2$20368b2o$20367bobo$20369bo4$20637bo$20636bo$20636b3o28$20497b
o$20497bobo$20497b2o37$20348bo$20348bobo$20348b2o16$20771bo$20769b2o$
20770b2o14$20204bobo$20204b2o$20205bo10$20687b2o$20686bobo$20688bo2$
20628bo$20572b2o53bo$20571bobo53b3o$20573bo3$20457b2o$20458b2o$20457bo
17$20494bo$20492b2o$20493b2o38$20344bo$20342b2o$20343b2o4$20282b2o$
20281bobo$20283bo2$20168b2o$20169b2o$20168bo3$20053b3o$20055bo$20054bo
18$20198bo$20197bo$20197b3o17$20619bobo$20619b2o$20620bo25$20537b2o$
20536bobo$20538bo3$20422b2o$20423b2o$20422bo2$20308b3o$20310bo$20309bo
47$20424bo$20423bo$20423b3o9$20193bo$20193bobo$20193b2o4$20132bo$
20132b2o$20131bobo3$20017b2o$20018b2o$20017bo5$19900bo$19900b2o$19899b
obo2$20281bo$20280bo$20280b3o57$20387b2o$20386bobo$20388bo2$20273b2o$
20272bobo$20274bo$19995bo$19994bo$19994b3o15$20419bo$20417b2o$20418b2o
30$20276bo$20275bo$20275b3o17$20092b2o$20091bobo$20093bo6$19974b3o$
19976bo$19975bo4$19858b2o$19857bobo$19859bo271bo$20130bo$20130b3o28$
19991bo$19990bo$19990b3o37$19842bo$19841bo$19841b3o12$20268bo$20268bob
o$20268b2o13$19703bo$19703bobo$19703b2o15$20181b3o$20183bo$20182bo2$
20122bobo$20122b2o$20123bo$20064b2o$20063bobo$20065bo4$19948b2o$19947b
obo$19949bo14$19987bo$19986bo$19986b3o38$19837bo$19836bo$19836b3o4$
19776b3o$19778bo$19777bo3$19661b2o$19662b2o$19661bo6$19543b2o$19544b2o
$19543bo12$19694bo$19693bo$19693b3o14$20118bo$20118bobo$20118b2o21$
19545bo$19545bobo$19545b2o7$20031b2o$20032b2o$20031bo5$19914b3o$19916b
o$19915bo2$19800b2o$19801b2o$19800bo47$19916bo$19916bobo$19916b2o8$
19686bobo$19686b2o$19687bo3$19626b3o$19628bo$19627bo3$19511b2o$19510bo
bo$19512bo12$19772bobo$19772b2o$19773bo9$19541bo$19540bo$19540b3o43$
19881b3o$19883bo$19882bo7$19762b3o$19764bo$19763bo4$19646b2o$19645bobo
$19647bo7$19912bo$19911bo$19911b3o34$19766bobo$19766b2o$19767bo8$
19536bobo$19536b2o$19537bo3$19476b3o$19478bo$19477bo4$19360b2o$19359bo
bo$19361bo5$19243b2o$19244b2o$19243bo2$19624bo$19623bo$19623b3o56$
19731b2o$19732b2o$19731bo4$19340bobo$19340b2o272b3o$19341bo274bo$
19615bo6$19496bo$19496b2o$19495bobo8$19761bobo$19761b2o$19762bo30$
19619bo$19619bobo$19619b2o16$19326b3o$19328bo$19327bo3$19211b2o$19212b
2o$19211bo13$19471bo$19471bobo$19471b2o23$19337bo$19335b2o$19336b2o29$
19580b3o$19582bo$19581bo3$19465b3o$19467bo$19466bo$19352bo$19352b2o$
19351bobo13$19612bo$19611bo$19611b3o34$19466bobo$19466b2o$19467bo14$
19175b3o$19177bo$19176bo5$19058b2o$19057bobo$19059bo3$18943b2o$18942bo
bo382bobo$18944bo382b2o$19328bo15$18980bo$18979bo$18979b3o43$19430b2o$
19431b2o$19430bo7$19311b2o$19310bobo$19312bo3$19196b2o$19197b2o$19196b
o8$19461bobo$19461b2o$19462bo$19128bobo$19128b2o$19129bo40$18977bo$
18975b2o$18976b2o4$19025b2o$19024bobo$19026bo6$18907b2o$18908b2o$
18907bo2$18793b3o$18795bo$18794bo24$19263bo$19261b2o$19262b2o27$19123b
o$19123bobo$19123b2o6$19280b2o$19279bobo$19281bo3$19165bo$19165b2o$
19164bobo30$18968bo$18968bobo$18968b2o36$18985b3o$18987bo$18986bo4$
18869b2o$18870b2o$18869bo382bobo$19252b2o$19253bo22$19118bo$19118bobo$
19118b2o78$18819bo$18817b2o$18818b2o15$19076b3o$19078bo$19077bo5$
18959b2o$18904bo55b2o$18902b2o55bo$18903b2o5$18841b3o$18843bo$18842bo
50$18625bo$18623b2o$18624b2o6$18671b3o$18673bo$18672bo2$18557b3o$
18559bo$18558bo6$18439b2o$18440b2o601bo$18439bo603bobo$19043b2o15$
18476bobo$18476b2o$18477bo15$18899bo$18899bobo$18899b2o26$18926b2o$
18927b2o$18926bo3$18756bobo52b3o$18756b2o55bo$18757bo54bo24$18620bo$
18620bobo$18620b2o36$18472bo$18471bo$18471b3o4$18631b2o$18632b2o$
18631bo7$18512bo$18512b2o$18511bobo2$18894bo$18892b2o$18396b3o494b2o$
18398bo$18397bo30$18749bo$18748bo$18748b3o25$18612bobo$18612b2o$18613b
o38$18462bobo$18462b2o$18463bo18$18717bo$18717b2o$18716bobo3$18602b2o$
18603b2o$18602bo3$18487b3o$18489bo$18488bo17$18744bo$18742b2o$18743b2o
38$18263bo$18262bo$18262b3o4$18312b2o$18311bobo$18313bo7$18193bo$
18193b2o$18192bobo3$18078b2o$18077bobo$18079bo29$18542bo$18542bobo$
18542b2o28$18567bo$18567b2o$18566bobo$18399bo$18398bo$18398b3o3$18449b
2o$18448bobo$18450bo3$18334b2o$18335b2o$18334bo18$18260bo$18258b2o$
18259b2o40$18162b2o$18161bobo$18163bo4$18046b2o$18047b2o$18046bo$
18538bo$18537bo$18537b3o4$17927bo$17927b2o$17926bobo12$17969bo$17967b
2o$17968b2o14$18392bo$18392bobo$18392b2o25$18255bo$18254bo$18254b3o$
18417b2o$18416bobo$18418bo2$18303bo$18303b2o$18302bobo5$18186b2o$
18187b2o$18186bo21$18108bo$18108bobo$18108b2o36$17960bo$17960bobo$
17960b2o$18012bo$18012b2o$18011bobo3$17897b2o$17898b2o$17897bo2$18388b
o$18387bo$18387b3o$17780b2o$17779bobo$17781bo21$17812bobo$17812b2o$
17813bo36$18104bobo$18104b2o$18105bo161b2o$18266bobo$18268bo2$18153b2o
$18152bobo$18154bo5$18036bo$18036b2o$18035bobo11$18188bo$18187bo$
18187b3o12$17954bobo$17954b2o$17955bo34$17808bo$17808bobo51bo$17808b2o
52b2o$17861bobo6$17744bo$17744b2o$17743bobo57$18180bo$18179bo$18179b3o
7$18116b3o$18118bo$18117bo2$18002b3o$18004bo$18003bo2$17888b3o$17890bo
$17889bo13$18039bo$18037b2o$18038b2o12$17804bobo$17804b2o$17805bo22$
17890bo$17889bo$17889b3o11$17712b2o$17711bobo$17713bo8$17592b2o$17593b
2o$17592bo42$17604bo$17602b2o$17603b2o12$18029bobo$18029b2o$18030bo5$
17967b2o$17966bobo$17968bo2$17853b2o$17854b2o$17853bo3$17738b3o$17740b
o$17739bo5$17456bobo$17456b2o$17457bo9$17885bo$17885bobo$17885b2o34$
17739bo$17738bo$17738b3o10$17562b2o$17561bobo$17563bo6$17444b3o$17446b
o$17445bo4$17328b2o$17327bobo$17329bo2$17600bo$17598b2o$17599b2o37$
17450bobo$17450b2o$17451bo8$17880bo$17879bo$17879b3o6$17817bo$17817b2o
$17816bobo4$17701b3o$17703bo$17702bo4$17585b2o$17586b2o$17585bo4$
17305bo$17303b2o$17304b2o9$17733bo$17733bobo$17733b2o26$17596bo$17594b
2o$17595b2o16$17412bo$17412b2o$17411bobo5$17295b2o$17294bobo$17296bo5$
17178b2o$17179b2o$17178bo6$17446bo$17444b2o$17445b2o35$17298bobo$
17298b2o$17299bo7$17729bobo$17729b2o$17730bo6$17666b3o$17668bo$17667bo
2$17552b3o$17554bo$17553bo2$17438b3o$17440bo$17439bo64$17262b2o$17261b
obo$17263bo7$17143b2o383bo$17142bobo382bo$17144bo382b3o11$17295bo$
17294bo$17294b3o25$17378bo$17377bo$17377b3o24$17517b2o$17516bobo$
17518bo2$17403b2o$17404b2o$17403bo46$17520bo$17519bo$17519b3o21$17222b
2o$17221bobo$17223bo8$17102b3o$17104bo$17103bo2$17373bobo$17373b2o$
17374bo2$16984bo$16984b2o$16983bobo29$17228bo$17227bo$17227b3o28$
17088bo$17088bobo$17088b2o32$16944bobo$16944b2o$16945bo12$17370bo$
17314b2o53bo$17315b2o52b3o$17314bo4$17198bo$17198b2o$17197bobo8$17078b
2o$17077bobo$17079bo17$17224bo$17223bo$17223b3o28$17084bo$17083bo$
17083b3o8$16909b2o$16910b2o$16909bo6$16791b2o$16792b2o$16791bo5$16674b
2o$16675b2o$16674bo7$16941bo$16939b2o$16940b2o31$16797bobo$16797b2o$
16798bo15$17220bo$17164b2o53bo$17165b2o52b3o$17164bo8$17044b3o$17046bo
$17045bo6$16926b2o$16927b2o$16926bo4$16646bo$16644b2o$16645b2o40$
16933bobo$16933b2o$16934bo7$16759b2o$16760b2o$16759bo2$16645b2o$16646b
2o$16645bo14$17014bo$16793bo219bo$16792bo220b3o$16792b3o41$16640bo$
16640bobo$16640b2o9$17014b2o$17015b2o$17014bo4$16898b2o$16897bobo$
16899bo8$16778b2o$16779b2o$16778bo7$16494bo$16494bobo$16494b2o33$
17009bo$17008bo$17008b3o4$16783bobo$16783b2o$16784bo7$16609b2o$16610b
2o$16609bo2$16495b2o$16496b2o$16495bo4$16379b2o$16380b2o$16379bo9$
16863bo$16863bobo$16863b2o7$16634bo$16633bo$16633b3o35$16487bo$16487bo
bo$16487b2o6$16864b3o$16866bo$16865bo6$16746b2o$16747b2o$16746bo3$
16631bo$16631b2o$16630bobo7$16348bo$16346b2o$16347b2o36$16859bo$16858b
o$16858b3o13$16459b3o$16461bo$16460bo5$16342b2o$16343b2o$16342bo4$
16226b3o$16228bo$16227bo7$16712bobo$16712b2o$16713bo7$16483bobo$16483b
2o$16484bo21$16570bo$16570bobo$16570b2o6$16342bo$16341bo$16341b3o11$
16714b3o$16716bo$16715bo2$16600b3o$16602bo$16601bo2$16486b3o$16488bo$
16487bo50$16709bo$16708bo$16708b3o13$16309b3o$16311bo$16310bo7$16190b
3o$16192bo$16191bo9$16565bo$16563b2o$16564b2o9$16333bobo$16333b2o$
16334bo22$16419bo$16419bobo$16419b2o18$16564b3o$16566bo$16565bo$16451b
o$16451b2o$16450bobo34$16141bo$16139b2o$16140b2o19$16559bo$16558bo$
16558b3o13$16269b3o$16271bo$16270bo7$16150b2o$16149bobo$16151bo7$
16031b2o$16032b2o$16031bo383bo$16413b2o$16414b2o32$16270bobo$16270b2o$
16271bo26$16132bobo$16132b2o$16133bo50$16355b3o$16357bo$16356bo51bobo$
16408b2o$16409bo2$16239b3o$16241bo$16240bo2$16125b3o$16127bo$16126bo9$
15839bobo$15839b2o$15840bo15$16262bobo$16262b2o$16263bo23$16127bo$
16126bo$16126b3o10$15950b3o$15952bo$15951bo$15837bo$15837b2o$15836bobo
3$15722bo$15722b2o$15721bobo18$15977bo$15976bo$15976b3o30$15835bo$
15835bobo$15835b2o13$16205b3o$16207bo51bo$16206bo51bo$16258b3o$16091b
3o$16093bo$16092bo2$15977b3o$15979bo$15978bo13$15688bo$15686b2o$15687b
2o50$15800b2o$15801b2o$15800bo6$15682b3o$15684bo$15683bo2$15568b2o$
15567bobo$15569bo4$16057bo$16056bo$16056b3o8$15827bo$15826bo$15826b3o
21$15915bo$15913b2o$15914b2o12$15680bobo$15680b2o$15681bo8$16055b2o$
16056b2o$16055bo2$15941b2o$15940bobo$15942bo2$15827b2o$15828b2o$15827b
o48$16052bo$16051bo$16051b3o15$15650b2o$15651b2o$15650bo4$15534bo$
15534b2o$15533bobo7$15910bo$15910bobo$15910b2o11$15677bo$15676bo$
15676b3o22$15763bo$15762bo$15762b3o21$15905b2o$15906b2o$15905bo3$
15790b2o$15789bobo$15791bo2$15676b2o$15677b2o$15676bo47$15902bo$15901b
o$15901b3o15$15500b2o$15501b2o$15500bo4$15329bobo$15329b2o52b2o$15330b
o53b2o$15383bo6$15265bo$15265b2o$15264bobo$15757bo$15756bo$15756b3o26$
15619bo$15618bo$15618b3o27$15755b2o$15756b2o$15755bo2$15477bo$15475b2o
$15476b2o161b3o$15641bo$15640bo2$15525b2o$15524bobo$15526bo34$15324bo$
15323bo$15323b3o10$15752bo$15751bo$15751b3o15$15350b2o$15351b2o$15350b
o7$15231b2o$15230bobo$15232bo3$15116b2o$15117b2o$15116bo492bobo$15609b
2o$15610bo25$15473bo$15471b2o$15472b2o30$15605b2o$15604bobo$15606bo3$
15490b3o$15492bo$15491bo7$15316bo$15315bo$15315b3o42$15602bo$15601bo$
15601b3o15$15310b2o$15311b2o$15310bo4$15194bo$15194b2o$15193bobo$
15466bo$15465bo$15079b2o384b3o$15080b2o$15079bo62$15455b2o$15456b2o$
15455bo3$15340b2o$15341b2o$15340bo7$15166bo$15165bo$15165b3o22$15252bo
$15252bobo$15252b2o35$15160b2o$15161b2o$15160bo2$15046bo$15046b2o$
15045bobo15$14975bo$14973b2o$14974b2o21$15391bo$15390bo$15390b3o14$
14825bo$14824bo$14824b3o17$15246bobo$15246b2o$15247bo28$15107bo$15105b
2o$15106b2o25$15244b2o$14968bobo274b2o$14968b2o274bo$14969bo$15130b2o$
15131b2o$15130bo2$15016b2o$15017b2o$15016bo31$14818bo$14817bo$14817b3o
15$15241bo$15240bo$15240b3o14$14675bobo$14675b2o162b2o$14676bo163b2o$
14839bo7$14720b2o$14719bobo$14721bo3$14605b2o$14606b2o491bo$14605bo
492bo$15098b3o25$14963bo$14961b2o$14962b2o31$15094b2o$15093bobo$15095b
o3$14979b3o$14981bo$14813bo166bo$14811b2o$14812b2o34$14667bo$14665b2o$
14666b2o13$15091bo$15090bo$15090b3o10$14529bo$14529bobo$14529b2o3$
14799b2o$14800b2o$14799bo4$14683bo$14683b2o$14682bobo3$14568b2o$14569b
2o$14568bo57$14894bo$14894bobo$14894b2o10$14663bo$14661b2o$14662b2o21$
14749bo$14749bobo$14749b2o6$14521bo$14520bo$14520b3o16$14888b3o$14890b
o$14889bo6$14770b2o$14769bobo$14771bo3$14655b2o$14656b2o$14655bo$
14377bo$14377bobo$14377b2o38$14888bo$14886b2o$14887b2o17$14483b2o$
14484b2o$14483bo4$14367b3o$14369bo$14368bo2$14253b2o$14252bobo$14254bo
$14746bo$14744b2o$14745b2o11$14513bo$14511b2o$14512b2o22$14598bo$
14597bo$14597b3o9$14367bobo$14367b2o$14368bo12$14738b3o$14740bo$14739b
o4$14622b3o$14624bo$14623bo5$14230bobo$14230b2o272b2o$14231bo273b2o$
14504bo40$14738bo$14736b2o$14737b2o17$14333b2o$14334b2o$14333bo6$
14215b2o$14216b2o$14215bo4$14099b3o$14101bo$14100bo$14591bobo$14591b2o
$14592bo7$14363bo$14361b2o$14362b2o23$14448bo$14446b2o$14447b2o4$
14221bo$14221bobo$14221b2o16$14588b2o$14589b2o$14588bo20$14071bo$
14070bo$14070b3o32$14588bo$14586b2o$14587b2o17$14403b2o$14404b2o$
14403bo4$14287b2o$14286bobo$14288bo2$14173b2o$14172bobo$14174bo4$
14442bo$14441bo$14441b3o8$14212bo$14212bobo$14212b2o20$14300bo$14299bo
$14299b3o11$14067bo$14066bo$14066b3o29$13927bo$13925b2o$13926b2o37$
14438bo$14436b2o$14437b2o4$14376b2o$14375bobo$14377bo7$14257b3o$14259b
o$14258bo2$14143b2o$14144b2o$14143bo13$14294bo$14292b2o$14293b2o9$
14062bo$14062bobo$14062b2o20$14150bobo$14150b2o$14151bo8$13920bobo$
13920b2o$13921bo2$13971b2o$13970bobo$13972bo5$13854b2o$13853bobo$
13855bo2$13740b2o$13739bobo$13741bo56$14287bobo$14287b2o$14288bo4$
14226b2o$14225bobo$14227bo2$14112b2o$14111bobo$14113bo6$13994bo$13994b
2o$13993bobo15$14142bobo$14142b2o$14143bo8$13912bo$13912bobo$13912b2o
20$14000bo$14000bobo$14000b2o11$13767bo$13766bo54b2o$13766b3o51bobo$
13822bo7$13702b3o$13704bo$13703bo2$13588bo$13588b2o$13587bobo54$14137b
o$14137bobo$14137b2o4$14076bo$14076b2o$14075bobo4$13960b2o$13959bobo$
13961bo3$13845b3o$13847bo$13846bo14$13994bobo$13994b2o$13995bo10$
13762bo$13762bobo$13762b2o24$13846bo$13845bo$13845b3o8$13671b2o$13670b
obo$13672bo4$13555b2o$13554bobo$13556bo6$13437bo$13437b2o$13436bobo32$
13568bobo$13568b2o$13569bo19$13987bo$13987bobo$13987b2o4$13926bo$
13926b2o$13925bobo2$13812bo$13812b2o$13811bobo5$13695b2o$13694bobo$
13696bo16$13842bo$13841bo$13841b3o31$13699bo$13699bobo$13699b2o11$
13521bo$13521b2o$13520bobo3$13406b2o$13407b2o$13406bo2$13292b2o$13293b
2o$13292bo5$13560bo$13559bo$13559b3o37$13411bo$13410bo$13410b3o12$
13837bo$13837bobo$13837b2o4$13776bo$13776b2o$13775bobo2$13662bo$13662b
2o$13661bobo2$13548bo$13548b2o$13547bobo2$13269bobo$13269b2o$13270bo
14$13694bo$13692b2o$13693b2o26$13555bobo$13555b2o$13556bo17$13371bo$
13371b2o$13370bobo7$13252b2o$13253b2o$13252bo2$13138b2o$13137bobo$
13139bo6$13405bobo$13405b2o$13406bo29$13264bo$13263bo$13263b3o15$
13687bo$13687bobo$13687b2o4$13626bo$13626b2o$13625bobo4$13510bo$13510b
2o$13509bobo3$13395bo$13395b2o$13394bobo4$13114bo$13113bo$13113b3o56$
13221bo$13221b2o$13220bobo2$13107b2o$13106bobo$13108bo3$12992b3o$
12994bo$12993bo$13484bo$13484bobo$13484b2o6$13256bo$13255bo$13255b3o
17$13347bobo$13347b2o$13348bo16$13109bobo$13109b2o$13110bo16$13476bo$
13476b2o$13475bobo3$13361b2o$13362b2o$13361bo4$13245b2o$13244bobo$
13246bo38$13480bobo$13480b2o$13481bo22$13071bo$13071b2o$13070bobo2$
12957b2o$12956bobo$12958bo381bo$13340bobo$13340b2o2$12841b3o$12843bo$
12842bo9$13105bobo$13105b2o$13106bo22$13191bo$13191bobo$13191b2o29$
13325b3o$13327bo$13326bo7$13206bo$13206b2o$13205bobo6$13088b2o$13089b
2o$13088bo8$12913bo$12912bo$12912b3o21$13330bobo$13330b2o$13331bo16$
12762bo$12762bobo$12762b2o4$12921bo$12921b2o$12920bobo6$12803bo$12803b
2o$12802bobo$13185bo$13184bo$13184b3o$12687b2o$12686bobo$12688bo29$
13041bo$13040bo$13040b3o26$12904bo$12902b2o$12903b2o$13175b3o$13177bo$
13176bo5$13058b2o$13057bobo$13059bo28$12753bo$12752bo$12752b3o11$
13180bobo$13180b2o$13181bo20$12609bo$12607b2o$12608b2o271bo$12881b2o$
12880bobo3$12766b2o$12765bobo$12767bo3$12651b2o$12652b2o381bo$12651bo
382bo$13034b3o26$12897bo$12896bo$12896b3o34$13026b2o$13025bobo$13027bo
2$12912b2o$12746bobo162bobo$12746b2o165bo$12747bo30$12604bo$12604bobo$
12604b2o11$13031bo$13030bo$13030b3o23$12731b2o$12730bobo$12732bo6$
12613b3o$12615bo$12614bo2$12499b3o$12501bo$12500bo56$12826bo$12825bo$
12825b3o7$12597bo$12596bo$12596b3o19$12686bo$12686bobo$12686b2o34$
12815b2o$12814bobo$12816bo2$12701b2o$12700bobo$12702bo2$12587b2o$
12586bobo$12588bo18$12403bo$12401b2o$12402b2o18$12822bo$12821bo$12821b
3o21$12249bobo$12249b2o$12250bo2$12410b2o$12409bobo$12411bo2$12682bo$
12680b2o$12681b2o3$12291bo$12291b2o$12290bobo3$12176b2o$12175bobo$
12177bo24$12535bo$12534bo$12534b3o28$12395bo$12394bo$12394b3o3$12665bo
$12665b2o$12664bobo3$12550b2o$12551b2o$12550bo28$12245bo$12245bobo$
12245b2o12$12671bobo$12671b2o$12672bo24$12370b2o$12369bobo$12371bo6$
12252b2o273bo$12253b2o271bo$12252bo273b3o2$12138b3o$12140bo$12139bo20$
12392bo$12390b2o$12391b2o38$12242bo$12240b2o$12241b2o48$12521bobo$
12521b2o$12522bo4$12460bo$12460b2o$12459bobo4$12344b2o$12343bobo$
12345bo6$12226b2o$12227b2o$12226bo7$12052bo$12051bo$12051b3o41$11899bo
bo$11899b2o$11900bo7$12055b2o$12054bobo$12056bo2$11941b2o$11942b2o$
11941bo$12323bo$12323bobo$12323b2o2$11824bo$11824b2o$11823bobo27$
12181bo$12179b2o$12180b2o24$12044bo$12043bo$12043b3o7$12310b2o$12309bo
bo$12311bo33$11891bo$11889b2o$11890b2o12$12317bo$12315b2o$12316b2o20$
11744bobo$11744b2o$11745bo2$12125bo$12125b2o$12124bobo4$12009b2o$
12008bobo$12010bo161bo$12172bobo$11895b2o275b2o$11894bobo$11896bo22$
12036bo$12036bobo$12036b2o38$11886bo$11886bobo271bo$11886b2o272b2o$
12159bobo33$11740bo$11739bo$11739b3o12$12166bo$12166bobo$12166b2o18$
11596bo$11595bo$11595b3o5$11974b3o$11976bo$11975bo2$11860b3o$11862bo$
11861bo2$11746b3o$11748bo$11747bo51$11968bo$11967bo$11967b3o10$11737bo
$11735b2o$11736b2o20$11824bobo$11824b2o$11825bo11$11592bo$11590b2o$
11591b2o29$11945b3o$11947bo$11946bo3$11830b3o$11832bo$11831bo32$11961b
o$11961bobo$11961b2o34$11650b3o162bo$11652bo161bo$11651bo162b3o3$
11535b2o$11536b2o$11535bo2$11421b3o162bobo$11423bo162b2o$11422bo164bo
19$11675bo$11674bo$11674b3o82$11812bo$11810b2o$11811b2o20$11734b3o$
11736bo$11735bo2$11620b3o$11622bo$11621bo2$11506b3o163bo$11508bo161b2o
$11507bo163b2o13$11437bo$11435b2o$11436b2o20$11524bo$11524bobo$11524b
2o28$11329b2o$11330b2o$11329bo6$11211b3o$11213bo$11212bo2$11097b2o$
11096bobo$11098bo39$11661bo$11661bobo$11661b2o20$11584b2o$11089bo495b
2o$11087b2o495bo$11088b2o$11470b2o$11469bobo$11471bo2$11356b2o$11357b
2o$11356bo2$11518bo$11516b2o$11517b2o35$11370bobo$11370b2o$11371bo24$
11179b2o$11180b2o$11179bo53bo$11231b2o$11065bo166b2o$11065b2o$11064bob
o2$10951bo$10951b2o$10950bobo30$11084bo$11083bo$11083b3o11$11511bo$
11511bobo$11511b2o18$10941bo$10940bo$10940b3o491b2o$11435b2o$11434bo3$
11319b2o$11320b2o$11319bo4$11203b2o$11202bobo$11204bo$11366bo$11364b2o
$11365b2o26$11227bo$11226bo$11226b3o31$11029b2o$11030b2o$11029bo5$
11078bo$10911b2o163b2o$10910bobo164b2o$10912bo3$10796b2o$10795bobo$
10797bo23$10936bo$10936bobo$10936b2o13$11361bo$11361bobo$11361b2o20$
11284b2o$11285b2o$11284bo4$11168b3o$11170bo$11169bo4$11052b2o$11051bob
o$11053bo58$11157bo$11157bobo$11157b2o$10879b2o$10880b2o$10879bo6$
10926bobo$10926b2o$10927bo19$11016bo$11014b2o$11015b2o44$11134b3o$
11136bo$11135bo2$11020b3o$11022bo$11021bo2$10906b3o$10908bo$10907bo7$
10733bo$10731b2o$10732b2o18$11152bo$11151bo$11151b3o33$11008bo$11006b
2o$11007b2o$10729b2o$10730b2o$10729bo6$10611bo$10611b2o$10610bobo3$
10496b2o$10495bobo$10497bo11$10868bo$10867bo$10867b3o28$10729bo$10727b
2o$10728b2o17$10984b2o$10983bobo$10985bo4$10868b2o$10869b2o$10868bo2$
10754bo$10754b2o$10753bobo8$10580bo$10578b2o$10579b2o15$11002bo$11001b
o$11001b3o32$10859bo$10857b2o$10858b2o2$10579b2o$10580b2o$10579bo5$
10462b3o$10464bo$10463bo7$10343b3o$10345bo$10344bo2$10725bo$10723b2o$
10724b2o38$10575bo$10573b2o$10574b2o13$10834b2o$10835b2o$10834bo3$
10719b2o$10720b2o$10719bo31$10851bobo$10851b2o$10852bo29$10380bo$
10380bobo$10380b2o4$10539b2o$10540b2o$10539bo3$10424b2o$10423bobo$
10425bo2$10310b2o$10311b2o$10310bo21$10232bo$10232bobo$10232b2o17$
10653bobo$10653b2o$10654bo27$10515bo$10513b2o$10514b2o26$10376bo$
10376bobo$10376b2o26$10623b2o$10624b2o$10623bo2$10509b2o$10510b2o$
10509bo2$10395b2o$10396b2o$10395bo2$10227bo$10225b2o$10226b2o15$10650b
o$10648b2o$10649b2o14$10083bobo$10083b2o$10084bo16$10506bo$10504b2o$
10505b2o10$10218b2o$10219b2o$10218bo6$10100bo$10100b2o$10099bobo3$
9985b3o383bo$9987bo381b2o$9986bo383b2o38$10220bo$10220bobo$10220b2o20$
10473b2o$10474b2o$10473bo5$10356b2o$10357b2o$10079bo276bo$10078bo$
10078b3o161b2o$10243b2o$10242bo16$10500bo$10498b2o$10499b2o44$10068b2o
$10069b2o$10068bo2$9954b2o$9955b2o$9954bo6$9836b2o$9835bobo$9837bo29$
10300bo$10299bo$10299b3o8$10070bo$10070bobo$10070b2o20$10323b2o$10157b
obo164b2o$10157b2o164bo$10158bo3$10207bo$10207b2o$10206bobo60$9870bobo
$9870b2o$9871bo5$10028b2o$10029b2o$10028bo5$9911bo$9911b2o383bo$9910bo
bo381b2o$10295b2o5$9793bo$9793b2o$9792bobo26$10150bo$10149bo$10149b3o
35$10004bo$10002b2o$10003b2o25$9866bobo$9866b2o$9867bo21$10118b2o$
10119b2o$10118bo4$10002b2o$10003b2o$10002bo6$9884b3o$9718bo167bo$9717b
o167bo$9717b3o11$10145bobo$10145b2o$10146bo22$9571bo$9571bobo$9571b2o
10$10000bo$9998b2o$9999b2o9$9713b2o$9714b2o$9713bo4$9597b3o$9599bo$
9598bo4$9481b2o$9482b2o$9481bo5$9860bo$9858b2o$9859b2o33$9714bo$9713bo
$9713b3o19$9968b2o$9969b2o$9968bo3$9853bo$9853b2o$9852bobo2$9739b2o$
9738bobo$9740bo7$9566bo$9564b2o$9565b2o8$9996bo$9994b2o$9995b2o45$
9563b3o$9565bo$9564bo6$9445b3o$9447bo$9446bo4$9329b2o$9328bobo$9330bo
3$9709bo$9709bobo$9709b2o26$9791bo$9790bo$9790b3o10$9559bo$9559bobo$
9559b2o14$9818b3o$9820bo$9819bo3$9703b3o$9705bo$9704bo6$9585b3o$9587bo
$9586bo4$9414bo$9413bo$9413b3o31$9272bo$9270b2o$9271b2o21$9413b2o$
9414b2o$9413bo6$9295b2o$9296b2o$9295bo4$9179b2o604bo$9178bobo602b2o$
9180bo603b2o33$9639bo$9638bo$9638b3o8$9409bo$9409bobo$9409b2o14$9668b
2o$9669b2o$9668bo6$9550b2o$9551b2o$9493bo56bo$9492bo$9492b3o3$9433b2o$
9432bobo$9434bo$9266bo$9264b2o$9265b2o35$9118bobo$9118b2o$9119bo18$
9263b2o$9264b2o$9263bo12$9634bo$9634bobo$9634b2o33$9489bo$9488bo$9488b
3o8$9259bobo$9259b2o$9260bo14$9518b2o$9519b2o$9518bo4$9402b3o$9346bo
57bo$9346bobo54bo$9346b2o2$9287bo$9287b2o$9286bobo7$9114bo$9112b2o$
9113b2o29$8972bobo$8972b2o$8973bo22$9113b3o$9115bo$9114bo5$8996b2o$
8997b2o$8996bo5$9484bo$8878b2o604bobo$8879b2o603b2o$8878bo31$9341bo$
9339b2o$9340b2o9$9109bo$9109bobo$9109b2o14$9368b3o$9370bo$9369bo$9255b
o$9255b2o$9254bobo3$9140b2o$9139bobo$9141bo$9192bo$9192bobo$9192b2o4$
8966bo$8965bo$8965b3o31$8824bo$8822b2o$8823b2o23$8963b3o$8965bo$8964bo
12$9334bo$9334bobo$9334b2o34$9189bo$9187b2o$9188b2o7$8960bo$8958b2o$
8959b2o14$9218b2o$9219b2o$9218bo3$9103b3o$9105bo$9104bo4$8987bo54bo$
8987b2o53bobo$8986bobo53b2o4$8816bobo$8816b2o$8817bo56$8813b2o$8814b2o
$8813bo2$8699b2o$8700b2o$8699bo5$8582b2o$8581bobo$8583bo$9184bo$9184bo
bo$9184b2o34$9038bo$9038bobo$9038b2o7$8810bo$8808b2o$8809b2o14$9068b2o
$9069b2o$9068bo2$8954b2o$8953bobo$8955bo2$8840bo54bobo$8840b2o53b2o$
8839bobo54bo4$8669bo$8668bo$8668b3o59$8663b2o$8664b2o$8663bo5$8546b2o$
8545bobo$8547bo2$8432b2o$8433b2o$8432bo$9034bo$9034bobo$9034b2o33$
8889bo$8889bobo$8889b2o8$8660bo$8658b2o$8659b2o14$8918b2o$8917bobo$
8919bo7$8799b2o$8800b2o$8742bobo54bo$8742b2o$8743bo4$8681bo$8681b2o$
8680bobo46$8468bo$8467bo$8467b3o8$8513b3o$8515bo$8514bo3$8398b3o$8400b
o$8399bo7$8885bo$8883b2o$8884b2o15$8317bo$8317bobo$8317b2o17$8738bo$
8737bo$8737b3o25$8766b2o$8765bobo$8767bo3$8596bo54bo$8596bobo52b2o$
8596b2o52bobo2$8537b2o$8536bobo$8538bo20$8460bo$8459bo$8459b3o40$8308b
o$8307bo$8307b3o51b2o$8360bobo$8362bo2$8247b2o$8246bobo$8248bo2$8133b
2o$8132bobo$8134bo2$8735bo$8733b2o$8734b2o34$8589bo$8587b2o$8588b2o24$
8452bo$8452bobo161bo$8452b2o162b2o$8615bobo4$8500b3o$8502bo$8501bo6$
8382bo$8382b2o$8381bobo23$8303bo$8301b2o$8302b2o34$8211bo$8211b2o$
8210bobo6$8093b3o$8095bo$8094bo2$7979bo604bo$7979b2o603bobo$7978bobo
603b2o32$8111bo$8109b2o$8110b2o27$8466bo$8466b2o$8465bobo12$7957bobo$
7957b2o$7958bo11$8384bo$8383bo$8383b3o32$8240bo$8239bo$8239b3o12$8281b
2o$8280bobo$8282bo5$8164b2o$8163bobo$8165bo2$8105bo$8105bobo$8105b2o$
8047b2o$8046bobo$8048bo37$7953bo$7952bo$7952b3o14$8377bo$8377bobo$
8377b2o16$7809bo$7809bobo$7809b2o12$8236bo$8234b2o$8235b2o27$8097bo$
8095b2o$8096b2o6$8253b2o$8252bobo$8254bo4$8137b2o$8136bobo$8138bo7$
8018b3o$8020bo$8019bo15$7946bo$7946bobo$7946b2o33$7801bo$7801bobo$
7801b2o6$7848b2o$7847bobo$7849bo2$7734b2o$7733bobo$7735bo491bo$8227bob
o$7620b2o605b2o$7619bobo$7621bo19$7654bo$7654bobo$7654b2o44$8103b2o$
8102bobo$8104bo8$7983b2o$7984b2o$7983bo3$7868b2o$7867bobo$7869bo4$
8027bo$8026bo$8026b3o9$7797bo$7795b2o$7796b2o21$7883bo$7882bo$7882b3o
11$7650bo$7650bobo$7650b2o5$7698b2o$7697bobo$7699bo2$7584bo$7584b2o$
7583bobo2$7470bo$7470b2o$7469bobo13$7511bo$7509b2o$7510b2o37$8021bobo$
8021b2o$8022bo11$7953b2o$7952bobo$7954bo20$7876bobo$7876b2o$7877bo8$
7646bo$7646bobo$7646b2o17$7737bo$7737bobo$7737b2o11$7504bobo$7504b2o$
7505bo9$7768bo$7768b2o$7767bobo5$7651b2o$7650bobo$7652bo15$7360bo$
7358b2o$7359b2o36$7871bo$7871bobo$7871b2o32$7727bobo$7727b2o$7728bo9$
7496bo$7496bobo$7496b2o20$7584bo$7584bobo$7584b2o8$7739bo$7739b2o$
7738bobo2$7350bo$7350bobo$7350b2o2$7621b2o$7622b2o$7621bo2$7507b2o$
7508b2o$7507bo59$7722bo$7720b2o$7334bo386b2o$7334b2o$7333bobo2$7220bo$
7220b2o$7219bobo2$7106bo$7106b2o$7105bobo21$7578bobo$7578b2o$7579bo10$
7347bo$7345b2o$7346b2o20$7435bo$7433b2o$7434b2o8$7589bo$7589b2o$7588bo
bo8$7469b2o$7468bobo$7470bo22$7061bo$7059b2o$7060b2o37$7571bo$7571bobo
$7294bo276b2o$7294b2o$7293bobo2$7180b2o$7179bobo$7181bo3$7065b2o$7066b
2o$7065bo23$7425bo$7425bobo$7425b2o7$7197bo$7195b2o$7196b2o17$7287bo$
7286bo$7286b3o10$7055bo$7055bobo$7055b2o37$6906bo$6905bo$6905b3o15$
7384bo$7384b2o$7383bobo6$7266b2o$7267b2o$7266bo4$7150bo$7150b2o$7149bo
bo2$7422bo$7420b2o$7421b2o32$7277bo$7277bobo$7277b2o9$7047bo$7045b2o$
7046b2o10$6979b2o$6978bobo$6980bo5$6862b2o$6861bobo$6863bo3$7132bo$
6746b2o384bobo$6747b2o383b2o$6746bo7$6903bo$6901b2o$6902b2o36$6755bo$
6753b2o$6754b2o13$7234b2o$7233bobo$7235bo5$7117bo$7117b2o$7116bobo3$
7002b2o$7003b2o$7002bo4$7272bo$7270b2o$7271b2o33$7126bo$7125bo$7125b3o
8$6896bo$6896bobo$6896b2o10$6829b2o$6828bobo$6830bo3$6714b2o$6715b2o$
6714bo7$6595b3o$6597bo382bo$6596bo381b2o$6979b2o7$6751bo$6749b2o$6750b
2o32$6607bo$6605b2o$6606b2o15$7084b2o$7083bobo$7085bo4$6968bo$6968b2o$
6967bobo6$6850b2o$6849bobo$6851bo2$7121bo$7121bobo$7121b2o34$6976bo$
6974b2o$6975b2o7$6747bo$6745b2o$6746b2o10$6679b2o$6678bobo$6680bo5$
6562b2o$6563b2o$6562bo3$6447b3o$6449bo382bo$6448bo381b2o$6831b2o7$
6603bo$6601b2o$6602b2o51$6934bo$6934b2o$6933bobo5$6817b2o$6818b2o$
6817bo2$6703b2o$6702bobo$6704bo5$6972bo$6970b2o$6971b2o32$6828bo$6826b
2o$6827b2o9$6597bo$6595b2o$6596b2o10$6529b2o$6528bobo$6530bo3$6414b2o$
6415b2o$6414bo7$6680bo$6679bo$6679b3o7$6452bo$6450b2o$6451b2o27$6313bo
$6311b2o$6312b2o21$6784b2o$6783bobo$6785bo3$6669b3o$6671bo$6670bo4$
6553b2o$6552bobo$6554bo5$6822bo$6820b2o$6821b2o34$6675bo$6674bo$6674b
3o7$6447bo$6445b2o$6446b2o10$6379b2o$6378bobo$6380bo2$6265b2o$6264bobo
$6266bo3$6150b3o$6152bo$6151bo3$6530bo$6530bobo$6530b2o6$6302bo$6302bo
bo$6302b2o26$6165bo$6163b2o$6164b2o23$6634b2o$6633bobo$6635bo2$6520b2o
$6521b2o$6520bo3$6405b3o$6407bo$6406bo7$6672bo$6670b2o$6671b2o33$6526b
obo$6526b2o$6527bo8$6297bo$6295b2o$6296b2o10$6229b2o$6228bobo$6230bo2$
6115bo$6115b2o$6114bobo5$5998b2o$5999b2o$5998bo382bo$6381bobo$6381b2o
3$6157bo$6155b2o$6156b2o36$6008bobo$6008b2o$6009bo17$6484b2o$6483bobo$
6485bo2$6370b2o$6371b2o$6370bo12$6522bo$6520b2o$6521b2o34$6375bo$6375b
obo$6375b2o7$6146bo$6146bobo$6146b2o10$6189b2o$6188bobo$6190bo3$6074b
2o$6073bobo$6075bo2$6235bo$6234bo$5958bo275b3o$5958b2o$5957bobo11$
6000bo$6000bobo$6000b2o27$5861bo$5861bobo$5861b2o38$6372bo$6370b2o$
6371b2o30$6229bo$6229bobo$6229b2o4$6278b3o$6280bo$6279bo5$5997bo$5995b
2o163b2o$5996b2o163b2o$6160bo3$6045b2o$6046b2o$6045bo18$6081bo$6079b2o
$6080b2o3$5855bo$5854bo$5854b3o35$5873b3o$5875bo$5874bo3$5758b2o$5759b
2o$5758bo6$5640b2o$5641b2o$5640bo22$6222bo$6220b2o$6221b2o34$6075bo$
6075bobo$6075b2o51b2o$6129b2o$6128bo2$6014b2o$6013bobo$6015bo$5846bo$
5846bobo$5846b2o51b2o$5898bobo$5900bo19$5933bo$5933bobo$5933b2o43$
5723b3o$5725bo$5724bo17$5649bobo$5649b2o$5650bo16$6072bo$6070b2o$6071b
2o31$5928bobo$5928b2o$5929bo3$5978b3o$5980bo$5979bo7$5859b2o$5860b2o$
5859bo3$5744b3o$5746bo$5745bo12$5785bo$5785bobo$5785b2o28$5645bobo$
5645b2o$5646bo15$5573b2o$5574b2o$5573bo2$5459bo$5459b2o$5458bobo16$
5496bobo$5496b2o$5497bo13$5921bo$5921bobo$5921b2o29$5780bo$5780bobo$
5780b2o5$5828b3o$5830bo$5829bo4$5712b2o$5711bobo$5713bo3$5597b3o$5599b
o$5598bo9$5641bobo$5641b2o$5642bo38$5491bobo$5491b2o$5492bo11$5423b2o$
5424b2o$5423bo3$5308b2o$5307bobo$5309bo7$5189b2o$5190b2o$5189bo21$
5771bo$5771bobo$5771b2o36$5678b2o$5679b2o$5678bo3$5563b2o$5562bobo$
5564bo3$5448bo$5448b2o$5447bobo40$5572bo$5570b2o$5571b2o21$5273b2o$
5272bobo$5274bo7$5154b2o$5155b2o$5154bo3$5424bobo$5424b2o$5425bo3$
5034b3o$5036bo$5035bo22$5286bo$5284b2o$5285b2o30$5528b2o$5529b2o$5528b
o3$5413b2o$5414b2o$5413bo2$5134bo$5134bobo$5134b2o6$5566bobo$5566b2o$
5567bo22$4993bo$4991b2o$4992b2o10$5420bobo$5420b2o$5421bo20$5233b2o$
5234b2o$5233bo2$5119bo$5119b2o$5118bobo2$5280bobo$5280b2o$5281bo38$
5130bobo$5130b2o$5131bo32$4986bo$4985bo$4985b3o8$5416bobo$5416b2o$
5417bo41$5318bo$5318b2o$5317bobo3$5203b2o$5204b2o$5203bo2$5089b2o$
5090b2o$5089bo42$5210bobo$5210b2o$5211bo8$4980bobo$4980b2o$4981bo10$
4913b2o$4912bobo$4914bo4$4797b2o$4798b2o$4797bo3$5067bo$4681b2o383bo$
4680bobo383b3o$4682bo59$4785bo$4784bo$4784b3o381b2o$5167bobo$5169bo6$
5050b2o$5049bobo$5051bo5$4933bo$4933b2o$4932bobo$5205bobo$5205b2o$
5206bo31$5063bo$5061b2o$5062b2o22$4763b2o$4762bobo$4764bo4$4647bo$
4647b2o$4646bobo3$4917bo$4916bo$4916b3o3$4527b2o$4528b2o$4527bo22$
4778bo$4778bobo$4778b2o33$5018b2o$5017bobo$5019bo2$4904bo$4904b2o$
4903bobo$4626bobo$4626b2o$4627bo4$4785b2o$4784bobo$4786bo3$5055bobo$
5055b2o$5056bo22$4481bo$4481bobo$4481b2o8$4911bo$4911bobo$4911b2o21$
4613bo$4613b2o$4612bobo3$4773bo$4772bo$4772b3o$4495bo$4495b2o$4494bobo
4$4379b2o$4378bobo$4380bo29$4623bo$4622bo$4622b3o29$4867b3o$4869bo$
4868bo3$4752b3o$4476bobo275bo$4476b2o275bo$4477bo$4638b3o$4640bo$4639b
o5$4906bo$4905bo$4905b3o56$4463bo$4463b2o$4462bobo3$4348b2o$4347bobo$
4349bo5$4231bo$4231b2o$4230bobo20$4704bobo$4704b2o$4705bo9$4473bo$
4472bo$4472b3o23$4558bobo$4558b2o$4559bo3$4718bo$4718b2o$4717bobo3$
4603bo$4603b2o$4602bobo5$4486b3o$4488bo$4487bo40$4279bo$4278bo$4278b3o
19$4313bo384bo$4313b2o382bo$4312bobo382b3o7$4194b3o$4196bo$4195bo3$
4079b3o$4081bo$4080bo2$4130bo$4129bo$4129b3o16$4553bo$4551b2o$4552b2o
31$4409bo$4409bobo$4409b2o4$4568b2o$4567bobo$4569bo3$4453bo$4453b2o$
4452bobo6$4335bo$4335b2o$4334bobo7$4271bo$4271bobo$4271b2o37$4122bobo$
4122b2o$4123bo12$4163bo384bo$4163b2o382bo$4162bobo382b3o2$4049b2o$
4048bobo$4050bo5$3932b2o$3931bobo$3933bo6$3979bo$3979bobo$3979b2o16$
4401bo$4401bobo$4401b2o24$4265bobo$4265b2o$4266bo10$4418b2o$4417bobo$
4419bo4$4302b2o$4301bobo$4303bo8$4182b2o$4183b2o$4182bo10$4115bobo$
4115b2o$4116bo30$3974bo$3972b2o$3973b2o13$4013b2o$4012bobo382bobo$
4014bo382b2o$4398bo3$3897b2o$3898b2o$3897bo4$3781bo$3781b2o$3780bobo
61$4268b2o$4267bobo$4269bo16$4195bobo$4195b2o$4196bo8$3965bobo$3965b2o
$3966bo21$4053bo$4051b2o$4052b2o22$4083bo$4083b2o$4082bobo3$3968b2o$
3969b2o$3968bo2$3854b2o$3855b2o$3854bo8$3680bo$3678b2o$3679b2o37$4190b
obo$4190b2o$4191bo31$4048bo$4046b2o$4047b2o9$3816bo$3815bo$3815b3o26$
3898bobo$3898b2o$3899bo2$3675bo$3673b2o$3674b2o381bo$4057b2o$4056bobo
6$3939bo$3939b2o$3938bobo62$4040bobo$4040b2o$4041bo2$3761b3o$3763bo$
3762bo2$3647b3o$3649bo$3648bo2$3533b3o$3535bo$3534bo22$3894bobo$3894b
2o$3895bo6$3666bo$3665bo$3665b3o21$3754bo$3752b2o$3753b2o70$3846b2o$
3845bobo$3847bo2$3732b2o$3733b2o$3732bo3$3617b3o$3619bo$3618bo271bobo$
3890b2o$3891bo32$3746bobo$3746b2o$3747bo8$3516bo$3515bo$3515b3o18$
3441b2o$3440bobo$3442bo2$3327bo275bo$3327b2o272b2o$3326bobo273b2o5$
3210b2o$3211b2o$3210bo2$3371bo$3371bobo$3371b2o58$3696b2o$3695bobo$
3697bo2$3582b2o$3583b2o$3582bo4$3741bo$3740bo$3740b3o33$3596bo$3595bo$
3595b3o8$3367bo$3365b2o$3366b2o18$3401bo$3401b2o$3400bobo4$3285b3o162b
o$3287bo162bobo$3286bo163b2o6$3167b3o$3169bo$3168bo46$3175bo$3173b2o$
3174b2o21$3591bo$3590bo$3590b3o34$3445bo$3444bo$3444b3o11$3487b2o$
3486bobo$3488bo4$3371b2o$3372b2o$3371bo2$3257b2o$3256bobo$3258bo7$
3303bo$3302bo$3302b3o25$3166bo$3166bobo$3166b2o27$3082b2o$3081bobo$
3083bo5$2965b2o$2964bobo$2966bo4$2849b3o$2851bo$2850bo11$3442bo$3440b
2o$3441b2o35$3294bobo$3294b2o$3295bo10$3337b2o$3338b2o$3337bo2$3223b3o
$3225bo$3224bo7$3160bo$3158b2o$3159b2o38$3009bo$3009bobo$3009b2o20$
3042b2o$3043b2o$3042bo6$2924b2o$2923bobo$2925bo7$2805b2o$2804bobo$
2806bo8$3290bobo$3290b2o$3291bo33$2816bo$2814b2o$2815b2o53$3090bo$
3090bobo$3090b2o13$3130b2o$3131b2o$3130bo2$3016b3o$3018bo$3017bo6$
2898b2o$2899b2o$2898bo6$2945bobo$2945b2o$2946bo26$2807bo$2807bobo$
2807b2o25$2725b2o$2726b2o$2725bo6$2607b2o$2608b2o$2607bo$2659bobo$
2659b2o$2660bo13$3085bo$3083b2o$3084b2o16$2516bo$2515bo$2515b3o16$
2939bo$2937b2o$2938b2o11$2980b2o$2981b2o$2980bo2$2866b2o$2865bobo$
2867bo3$2751b2o$2750bobo$2752bo3$2801bobo$2801b2o$2802bo38$2652bo$
2650b2o$2651b2o19$2575b2o$2576b2o$2575bo3$2460b3o$2462bo$2461bo2$2346b
o$2346b2o162bo$2345bobo162bobo$2510b2o14$2934bo$2934bobo$2934b2o47$
2830b3o$2832bo$2831bo4$2714b2o$2715b2o$2714bo37$2730bo$2729bo$2729b3o
7$2502bo$2500b2o$2501b2o19$2535b3o$2537bo51bobo$2536bo52b2o$2590bo4$
2418b2o$2419b2o$2418bo6$2300b3o$2302bo$2301bo34$2210bo$2208b2o$2209b2o
31$2727bo$2725b2o$2726b2o32$2582bo$2581bo$2581b3o9$2351bo$2351bobo$
2351b2o271b2o$2623bobo$2625bo2$2510b2o$2509bobo$2511bo6$2392bo$2392b2o
$2391bobo7$2438bo$2437bo$2437b3o11$2206bo$2204b2o$2205b2o31$2062bo$
2061bo$2061b3o6$2219bo$2219b2o$2218bobo5$2102b2o$2103b2o$2102bo19$
2577bo$2575b2o$2576b2o32$2433bo$2431b2o$2432b2o9$2202bo$2200b2o$2201b
2o271bo$2474b2o$2473bobo2$2360bo$2360b2o$2359bobo3$2245b2o$2246b2o$
2245bo7$2291bobo$2291b2o$2292bo14$2056bo$2054b2o$2055b2o39$2069bo$
2069b2o$2068bobo8$1949b2o$1950b2o$1949bo4$1833b3o$1835bo$1834bo10$
2426bo$2426bobo$2426b2o30$2284bo$2284bobo$2284b2o11$2052bo$2050b2o$
2051b2o271b2o$2323bobo$2325bo5$2207b3o$2209bo$2208bo7$2088bo$2088b2o$
2087bobo7$2134bobo$2134b2o$2135bo48$1919b2o$1918bobo$1920bo6$1801b2o$
1800bobo$1802bo5$1684b2o$1683bobo$1685bo11$2276bo$2276bobo$2276b2o16$
1708bobo$1708b2o$1709bo16$2130bobo$2130b2o$2131bo10$2173b3o$2175bo$
2174bo7$2054bo$2054b2o$2053bobo7$1935b3o$1937bo52bo$1936bo51b2o$1989b
2o28$1849bo$1848bo$1848b3o24$1768b3o$1770bo$1769bo2$1654b3o$1656bo$
1655bo2$1540b2o$1541b2o$1540bo2$1701bo$1700bo$1700b3o13$2127bo$2125b2o
$2126b2o20$1554bo$1553bo$1553b3o12$1980bo$1980bobo$1980b2o10$2023b2o$
2024b2o$2023bo3$1908b2o$1909b2o$1908bo6$1846bo$1844b2o$1845b2o38$1696b
o$1694b2o$1695b2o20$1728b2o$1729b2o$1728bo2$1614bo$1614b2o$1613bobo8$
1549bo$1549bobo$1549b2o11$1977bo$1975b2o$1976b2o86$1778bobo$1778b2o$
1779bo11$1545bo$1545bobo$1545b2o6$1812b2o$1813b2o$1812bo2$1698b2o$
1699b2o$1698bo2$1584b2o$1585b2o$1584bo6$1631bobo$1631b2o$1632bo57$
1407b2o$1408b2o$1407bo6$1289b2o$1288bobo$1290bo3$1174b2o$1173bobo$
1175bo7$1771bo$1769b2o$1770b2o30$1628bo$1627bo$1627b3o19$1662b2o$1661b
obo$1663bo6$1544b2o$1545b2o$1544bo$1486bobo$1486b2o$1487bo3$1426bo$
1426b2o$1425bobo28$1342bo$1340b2o$1341b2o27$1257b2o$1258b2o$1257bo5$
1140bo54bobo$1140b2o53b2o$1139bobo54bo5$1023b2o$1022bobo$1024bo6$1621b
o$1619b2o$1620b2o25$1044bo$1042b2o$1043b2o4$1478bo$1476b2o$1477b2o18$
1512b2o$1513b2o$1512bo5$1395b2o$1396b2o$1395bo$1338bo$1336b2o$1337b2o$
1279b3o$1281bo$1280bo33$1190bo$1188b2o$1189b2o25$1107b2o$1108b2o$1107b
o5$990b2o$989bobo$991bo3$875b3o$877bo$876bo$1037bobo$1037b2o$1038bo5$
1471bo$1469b2o$1470b2o25$1334bo$1332b2o$1333b2o24$1362b2o$1363b2o$
1362bo3$1247b3o$1249bo$1248bo6$1129bo$1129b2o52bo$1128bobo52bobo$1183b
2o38$1033bo$1033bobo$1033b2o19$957b2o$958b2o$957bo5$840b3o$842bo$841bo
57$836bo$835bo$835b3o7$1212b2o$1213b2o$1212bo5$1095bo$1095b2o$1094bobo
161bo$1258bobo$981bo276b2o$981b2o$980bobo29$1115bo$1115bobo$1115b2o31$
807b2o163bo$808b2o161bo$807bo163b3o2$693b2o$694b2o$693bo2$579b2o$580b
2o$579bo20$832bo$831bo$831b3o37$683bo$682bo$682b3o4$1062b2o$1063b2o$
1062bo2$948bo$948b2o$947bobo3$1108bobo$1108b2o$831b3o275bo$833bo$832bo
13$542bo$540b2o$541b2o13$966bobo$966b2o$967bo26$828bo$827bo$827b3o4$
657b2o$658b2o$657bo2$543b3o$545bo$544bo3$428b2o$427bobo$429bo23$678bo$
677bo$677b3o32$534bo$534bobo$534b2o5$912b2o$911bobo$913bo7$958bo$792b
2o164bobo$793b2o163b2o$792bo5$675bo$675b2o$674bobo7$391bobo$391b2o$
392bo47$507b3o$509bo$508bo6$389b3o$391bo$390bo15$757bo$757bobo$757b2o
8$527bobo$527b2o$528bo24$611bo$610bo$610b3o4$386bo$384b2o$385b2o9$759b
o$759b2o$758bobo2$645bo$645b2o$644bobo2$531bo$531b2o$530bobo51$753bo$
752bo$752b3o12$354b2o$353bobo$355bo$44bo$42b3o8bo6bo9bo$41bo10bobo5b3o
5b3o$41b2o9bobo8bo3bo$53bo8b2o3b2o$57b2o$56bo2bo175b3o$57b2o178bo$236b
o$14bo$14bo106b2o$14bo107b2o$53b2o66bo$10b3o3b3o34b2o$65b2o$14bo49bo2b
o$14bo50b2o4b2o$14bo56bobo$73bo$73b2o532bo$28b2o33b2o541bo$29bo34bo
541b3o$26b3o32b3o$26bo34bo4b2o$66b2o5$377bobo$62b2o313b2o$62bobo313bo$
64bo$64b2o$60b2o$60bobo$22b2o37bo$22b2o11$26bo$25bobo$25bobo$26bo$54b
2o409bo$50bo4bo407b2o$49bobo3bobo406b2o$48bo2bo4b2o2b2o37bo$32bo16b2o
9b2o35b3o8bo6bo9bo$31bobo62bo10bobo5b3o5b3o$30bo2bo49b2o11b2o9bobo8bo
3bo$31b2o50b2o23bo8b2o3b2o$112b2o$29bo81bo2bo5bo$29b2o81b2o5bobo$28bob
o13b2o73bobo$44b2o74bo3$54b2o52b2o$53bobo16b2o34b2o$53bo18bobo45b2o$
47bo4b2o20bo44bo2bo$32b2o12bobo19b2o4b2o44b2o4b2o$32b2o11bo2bo19bobo
55bobo480b2o$46b2o22bo57bo479bobo$61b2o7b2o56b2o480bo$61b2o14bo5b2o33b
2o$76bobo5bo34bo375b2o$47b2o26bo2bo2b3o32b3o377b2o$31b2o13bo2bo26b2o3b
o34bo4b2o372bo$31bobo13bobo71b2o$33bo14bo$33b2o$51b2o$52bo$52bobo$2o
51b2o62b2o$2o115bobo$119bo$119b2o$115b2o$71b2o42bobo$71bo44bo$69bobo3b
2o$69b2o4b2o12$51b2o15b2o$50bobo15b2o$50bo58b2o$49b2o54bo4bo$104bobo3b
obo$89bo13bo2bo4b2o2b2o37bo$88bobo13b2o9b2o35b3o8bo6bo9bo$88bo2bo59bo
10bobo5b3o5b3o$89b2o47b2o11b2o9bobo8bo3bo$68b3o67b2o23bo8b2o3b2o$70bo
96b2o$69bo5b2o89bo2bo$75bo12b2o77b2o$73bobo12bo10b2o$61b2o10b2o11bobo
10b2o$60b2o2b2o16b2o2b2o$60bob4o16b2o$60b3o46b2o52b2o$60b2o2b2o42bobo
16b2o34b2o$61b3o2bo41bo18bobo45b2o$61b2o2b3o13b2o19bo4b2o20bo44bo2bo$
45b3o15bo2bo14b2o4b2o12bobo19b2o4b2o44b2o4b2o$45bo17b3o21b2o11bo2bo19b
obo55bobo$46bo17bo36b2o22bo57bo$116b2o7b2o56b2o$116b2o14bo5b2o33b2o$
131bobo5bo34bo$102b2o26bo2bo2b3o32b3o$86b2o13bo2bo26b2o3bo34bo4b2o425b
o$54b2o30bobo13bobo71b2o424bo$54bobo31bo14bo498b3o$54bo33b2o$106b2o$
107bo$107bobo$108b2o62b2o$172bobo$174bo$174b2o$170b2o$126b2o42bobo$
126bo44bo$124bobo3b2o182b2o$124b2o4b2o181bobo$315bo8$194b2o$195b2o$
194bo$106b2o15b2o$105bobo15b2o$105bo58b2o$104b2o54bo4bo$159bobo3bobo$
144bo13bo2bo4b2o2b2o37bo$143bobo13b2o9b2o35b3o8bo6bo9bo$143bo2bo59bo
10bobo5b3o5b3o$144b2o47b2o11b2o9bobo8bo3bo225bo$193b2o23bo8b2o3b2o223b
o$222b2o233b3o$130b2o89bo2bo5bo$130bo12b2o77b2o5bobo$128bobo12bo10b2o
73bobo$128b2o11bobo10b2o74bo$137b2o2b2o$137b2o$164b2o52b2o$163bobo16b
2o34b2o$163bo18bobo45b2o$136b2o19bo4b2o6bo13bo44bo2bo$136b2o4b2o12bobo
9b5o5b2o4b2o44b2o4b2o$142b2o11bo2bo9b2ob3o4bobo55bobo$156b2o10b2o2bo7b
o57bo$169b3o8b2o56b2o$170bo16bo5b2o33b2o$186bobo5bo34bo$157b2o26bo2bo
2b3o32b3o$141b2o13bo2bo26b2o3bo34bo4b2o$141bobo13bobo71b2o$143bo14bo$
143b2o$161b2o$162bo$162bobo$163b2o62b2o$227bobo$229bo$229b2o$225b2o$
181b2o42bobo$120b3o58bo44bo$120bo58bobo3b2o$121bo57b2o4b2o$125bo$124b
2o186bo$124bobo183b2o$311b2o8$161b2o15b2o$160bobo15b2o$160bo58b2o$159b
2o54bo4bo$214bobo3bobo$199bo13bo2bo4b2o2b2o37bo$198bobo13b2o9b2o35b3o
8bo6bo9bo$198bo2bo59bo10bobo5b3o5b3o$199b2o47b2o11b2o9bobo8bo3bo$248b
2o23bo8b2o3b2o$277b2o$185b2o89bo2bo5bo$185bo12b2o77b2o5bobo$183bobo12b
o10b2o73bobo$183b2o11bobo10b2o74bo$192b2o2b2o$192b2o$219b2o52b2o$218bo
bo16b2o34b2o$218bo18bobo45b2o$191b2o19bo4b2o20bo44bo2bo$191b2o4b2o12bo
bo19b2o4b2o44b2o4b2o$197b2o11bo2bo19bobo55bobo$211b2o22bo57bo$226b2o7b
2o56b2o$226b2o14bo5b2o33b2o$241bobo5bo34bo$212b2o26bo2bo2b3o32b3o$196b
2o13bo2bo26b2o3bo34bo4b2o$196bobo13bobo71b2o$198bo14bo$198b2o$216b2o$
217bo$217bobo$218b2o62b2o$261b2o19bobo$262b2o20bo$261bo22b2o$280b2o$
236b2o42bobo$236bo44bo$234bobo3b2o$234b2o4b2o12$216b2o15b2o$215bobo15b
2o$215bo58b2o$214b2o54bo4bo$269bobo3bobo$254bo13bo2bo4b2o2b2o37bo$195b
3o55bobo13b2o9b2o35b3o8bo6bo9bo$195bo57bo2bo37bo21bo10bobo5b3o5b3o$
196bo57b2o37b5o5b2o11b2o9bobo8bo3bo$292bo11bo23bo8b2o3b2o$293b2o37b2o$
240b2o52b2o35bo2bo5bo$240bo12b2o41bo35b2o5bobo$238bobo12bo10b2o73bobo
56b3o$238b2o11bobo10b2o74bo59bo51bobo$247b2o2b2o146bo52b2o$247b2o204bo
$233bo40b2o52b2o$233b2o38bobo16b2o34b2o$232bobo38bo18bobo45b2o$246b2o
19bo4b2o20bo44bo2bo$246b2o4b2o12bobo19b2o4b2o44b2o4b2o$224bo27b2o11bo
2bo19bobo55bobo$223b3o40b2o22bo57bo$223bobo55b2o7b2o56b2o$222bo58b2o
14bo5b2o33b2o$222bo73bobo5bo34bo$220b2o45b2o26bo2bo2b3o26bo5b3o$251b2o
13bo2bo26b2o3bo26bobo5bo4b2o$222bo28bobo13bobo59b2o10b2o$253bo14bo$
253b2o$271b2o$272bo$272bobo$273b2o62b2o$337bobo$339bo$339b2o$335b2o$
291b2o42bobo$291bo44bo$289bobo3b2o$289b2o4b2o12$271b2o15b2o$270bobo15b
2o$270bo58b2o$269b2o54bo4bo$324bobo3bobo$309bo13bo2bo4b2o2b2o37bo$308b
obo13b2o9b2o35b3o8bo6bo9bo$308bo2bo59bo10bobo5b3o5b3o$309b2o47b2o11b2o
9bobo8bo3bo$358b2o23bo8b2o3b2o$387b2o$295b2o89bo2bo5bo$295bo12b2o77b2o
5bobo$293bobo12bo10b2o73bobo$293b2o11bobo10b2o74bo$302b2o2b2o$302b2o$
329b2o52b2o$328bobo16b2o34b2o$328bo18bobo45b2o$301b2o19bo4b2o20bo44bo
2bo$301b2o4b2o12bobo19b2o4b2o44b2o4b2o$307b2o11bo2bo19bobo55bobo$321b
2o22bo57bo$336b2o7b2o56b2o$336b2o14bo5b2o33b2o$351bobo5bo34bo$322b2o
26bo2bo2b3o32b3o$306b2o13bo2bo26b2o3bo34bo4b2o$306bobo13bobo71b2o$308b
o14bo$308b2o$326b2o$327bo$327bobo$328b2o62b2o$392bobo$394bo$394b2o$
390b2o$346b2o42bobo$346bo44bo$344bobo3b2o$344b2o4b2o12$326b2o15b2o$
325bobo15b2o$325bo$324b2o2$364bo$346bo16bobo$346b2o15bo2bo$345bobo16b
2o3$350b2o$350bo12b2o$335b2o11bobo12bo10b2o$335b2o11b2o11bobo10b2o$
357b2o2b2o$357b2o2$337b2o$337bo2bo$337bo2bo15b2o$337b2ob2o14b2o4b2o$
338b2ob2o19b2o$337b2o3b2o$337bo2b3o$337bo$338bobo$339bo$361b2o$361bobo
$363bo$363b2o!